; generated by PrusaSlicer 2.3.0+win64 on 2021-09-04 at 23:09:17 UTC

; 

; external perimeters extrusion width = 0.45mm
; perimeters extrusion width = 0.45mm
; infill extrusion width = 0.45mm
; solid infill extrusion width = 0.45mm
; top infill extrusion width = 0.40mm
; support material extrusion width = 0.35mm
; first layer extrusion width = 0.42mm

M73 P0 R212
M73 Q0 S213
M201 X1000 Y1000 Z200 E5000 ; sets maximum accelerations, mm/sec^2
M203 X200 Y200 Z12 E120 ; sets maximum feedrates, mm/sec
M204 P1250 R1250 T1250 ; sets acceleration (P, T) and retract acceleration (R), mm/sec^2
M205 X8.00 Y8.00 Z0.40 E4.50 ; sets the jerk limits, mm/sec
M205 S0 T0 ; sets the minimum extruding and travel feed rate, mm/sec
M107
;TYPE:Custom
; M862.3 P "MK3S" ; printer model check
M862.1 P0.4 ; nozzle diameter check
M115 U3.9.0 ; tell printer latest fw version
G90 ; use absolute coordinates
M83 ; extruder relative mode
M104 S215 ; set extruder temp
M140 S60 ; set bed temp
M190 S60 ; wait for bed temp
M109 S215 ; wait for extruder temp
G28 W ; home all without mesh bed level
G80 ; mesh bed leveling
G1 Y-3.0 F1000.0 ; go outside print area
G92 E0.0
G1 X60.0 E9.0 F1000.0 ; intro line
G1 X100.0 E12.5 F1000.0 ; intro line
G92 E0.0
M221 S95
G21 ; set units to millimeters
G90 ; use absolute coordinates
M83 ; use relative distances for extrusion
M900 K0.06 ; Filament gcode LA 1.5
M900 K30 ; Filament gcode LA 1.0
;LAYER_CHANGE
;Z:0.2
;HEIGHT:0.2
;BEFORE_LAYER_CHANGE
G92 E0.0
;0.2


G1 E-0.80000 F2100.000
G1 Z0.600 F10800.000
;AFTER_LAYER_CHANGE
;0.2
G1 X22.754 Y72.467
G1 Z0.200
G1 E0.80000 F2100.000
M204 S1000
;TYPE:Skirt
;WIDTH:0.42
G1 F1200.000
G1 X23.635 Y72.245 E0.02849
G1 X36.013 Y72.241 E0.38810
G1 X133.217 Y74.809 E3.04883
G1 X225.420 Y99.833 E2.99554
G1 X226.069 Y100.147 E0.02260
G1 X226.591 Y100.638 E0.02249
G1 X226.944 Y101.263 E0.02249
G1 X227.094 Y101.968 E0.02260
G1 X227.440 Y114.247 E0.38514
G1 X227.351 Y130.631 E0.51374
G1 X227.246 Y131.303 E0.02130
G1 X226.928 Y131.958 E0.02284
G1 X226.426 Y132.486 E0.02284
G1 X225.788 Y132.837 E0.02284
G1 X225.073 Y132.978 E0.02284
G1 X133.202 Y135.215 E2.88140
M73 P0 R211
G1 X94.209 Y135.215 E1.22261
G1 X49.478 Y133.355 E1.40373
G1 X46.439 Y133.181 E0.09544
G1 X45.920 Y133.082 E0.01657
G1 X45.287 Y132.778 E0.02201
G1 X44.770 Y132.303 E0.02201
G1 X37.839 Y123.063 E0.36214
G1 X28.602 Y109.209 E0.52211
G1 X23.914 Y99.854 E0.32808
G1 X19.533 Y90.859 E0.31370
G1 X19.334 Y90.221 E0.02095
G1 X19.332 Y76.536 E0.42909
G1 X19.493 Y75.973 E0.01835
G1 X19.789 Y75.464 E0.01846
G1 X22.021 Y73.003 E0.10418
G1 X22.706 Y72.502 E0.02661
;WIPE_START
G1 F8640.000
G1 X23.635 Y72.245 E-0.22269
G1 X25.962 Y72.244 E-0.53731
;WIPE_END
G1 E-0.04000 F2100.000
G1 Z0.800 F10800.000
G1 X36.628 Y69.738
G1 Z0.200
G1 E0.80000 F2100.000
G1 F1200.000
G1 X23.179 Y69.738 E0.42170
G1 X22.008 Y70.022 E0.03778
G1 X20.750 Y70.731 E0.04527
G1 X19.736 Y71.794 E0.04609
G1 X19.289 Y72.646 E0.03015
G1 X18.666 Y73.017 E0.02273
G1 X17.829 Y73.854 E0.03712
G1 X17.172 Y74.935 E0.03965
G1 X16.786 Y76.376 E0.04677
G1 X16.787 Y90.410 E0.44005
G1 X17.086 Y91.600 E0.03846
G1 X17.717 Y92.702 E0.03982
G1 X18.717 Y93.682 E0.04390
G1 X19.040 Y93.873 E0.01178
G1 X19.046 Y94.653 E0.02444
G1 X19.249 Y95.723 E0.03417
G1 X19.941 Y97.104 E0.04842
G1 X20.823 Y98.044 E0.04042
G1 X21.156 Y98.260 E0.01245
G1 X21.179 Y99.489 E0.03854
G1 X21.400 Y100.428 E0.03022
G1 X21.777 Y101.268 E0.02889
G1 X22.910 Y102.590 E0.05459
G1 X23.566 Y103.032 E0.02482
G1 X23.575 Y103.837 E0.02522
G1 X23.797 Y104.934 E0.03509
G1 X24.516 Y106.314 E0.04879
G1 X25.415 Y107.241 E0.04049
G1 X25.724 Y107.436 E0.01146
G1 X25.756 Y108.673 E0.03882
G1 X26.339 Y110.403 E0.05722
G1 X26.802 Y111.041 E0.02472
G1 X27.547 Y111.796 E0.03326
G1 X28.637 Y112.426 E0.03949
G1 X29.113 Y113.265 E0.03023
G1 X29.978 Y114.122 E0.03817
G1 X30.295 Y114.331 E0.01191
G1 X30.325 Y115.513 E0.03709
G1 X30.859 Y117.161 E0.05430
G1 X31.369 Y117.895 E0.02802
G1 X32.139 Y118.670 E0.03426
G1 X33.127 Y119.222 E0.03549
G1 X33.596 Y120.068 E0.03031
G1 X34.497 Y120.973 E0.04004
G1 X34.881 Y121.225 E0.01439
G1 X34.912 Y122.481 E0.03941
G1 X35.237 Y123.593 E0.03632
G1 X35.946 Y124.774 E0.04318
G1 X36.615 Y125.441 E0.02963
G1 X37.286 Y125.925 E0.02595
G1 X37.658 Y126.091 E0.01276
G1 X38.109 Y126.898 E0.02897
G1 X39.064 Y127.857 E0.04244
G1 X39.878 Y128.373 E0.03022
G1 X40.162 Y128.477 E0.00947
G1 X40.177 Y129.084 E0.01902
G1 X40.504 Y130.383 E0.04199
G1 X41.172 Y131.540 E0.04191
G1 X41.950 Y132.309 E0.03430
G1 X42.051 Y132.634 E0.01068
G1 X42.687 Y133.762 E0.04060
G1 X43.878 Y134.900 E0.05163
G1 X44.845 Y135.396 E0.03410
G1 X46.166 Y135.712 E0.04258
G1 X49.177 Y135.712 E0.09441
G1 X49.416 Y135.687 E0.00755
G1 X50.021 Y135.712 E0.01898
G1 X59.117 Y135.712 E0.28518
G1 X60.862 Y135.201 E0.05703
G1 X61.744 Y134.609 E0.03330
G1 X62.269 Y134.075 E0.02348
G1 X62.593 Y133.711 F10800.000
G1 F1200.000
G1 X62.847 Y133.277 E0.01576
G1 X63.336 Y133.147 E0.01590
G1 X64.611 Y132.451 E0.04554
G1 X65.710 Y131.304 E0.04979
G1 X66.407 Y129.808 E0.05174
G1 X66.553 Y128.857 E0.03016
G1 X66.546 Y117.393 E0.35946
G1 X66.401 Y116.557 E0.02661
G1 X65.556 Y114.932 E0.05744
G1 X64.536 Y113.976 E0.04382
G1 X63.724 Y113.537 E0.02896
G1 X63.258 Y112.725 E0.02936
G1 X62.341 Y111.830 E0.04015
G1 X61.265 Y111.196 E0.03918
G1 X61.239 Y110.481 E0.02242
G1 X60.690 Y108.811 E0.05513
G1 X60.177 Y108.086 E0.02784
G1 X59.480 Y107.400 E0.03065
G1 X59.369 Y107.045 E0.01166
G1 X58.711 Y105.901 E0.04136
G1 X57.811 Y105.018 E0.03955
G1 X58.675 Y104.144 E0.03854
G1 X59.211 Y103.310 E0.03108
G1 X59.480 Y102.601 E0.02379
G1 X60.227 Y101.854 E0.03311
G1 X60.524 Y101.423 E0.01643
M73 Q0 S212
G1 X61.407 Y101.432 E0.02770
G1 X62.255 Y101.406 E0.02659
G1 X63.446 Y101.116 E0.03842
G1 X64.715 Y100.392 E0.04583
G1 X65.560 Y99.541 E0.03760
G1 X65.809 Y99.126 E0.01516
G1 X66.963 Y99.109 E0.03621
G1 X67.895 Y98.906 E0.02990
G1 X69.154 Y98.242 E0.04464
G1 X70.020 Y97.415 E0.03755
G1 X70.621 Y96.512 E0.03400
G1 X71.078 Y94.939 E0.05134
G1 X71.078 Y85.562 E0.29401
G1 X70.632 Y83.964 E0.05204
G1 X69.898 Y82.841 E0.04205
G1 X68.997 Y82.016 E0.03829
G1 X68.854 Y81.923 E0.00536
G1 X68.824 Y80.763 E0.03638
G1 X68.347 Y79.245 E0.04989
G1 X67.821 Y78.442 E0.03009
G1 X67.001 Y77.611 E0.03662
G1 X66.052 Y77.062 E0.03435
G1 X65.624 Y76.290 E0.02768
G1 X64.676 Y75.307 E0.04283
G1 X62.836 Y74.405 E0.06424
G1 X61.981 Y74.287 E0.02707
G1 X52.774 Y74.320 E0.28867
G1 X51.343 Y74.757 E0.04693
G1 X50.345 Y75.404 E0.03730
G1 X49.414 Y76.416 E0.04309
G1 X49.309 Y76.586 E0.00627
G1 X48.193 Y76.610 E0.03498
G1 X47.111 Y76.893 E0.03509
G1 X46.081 Y77.445 E0.03664
G1 X44.981 Y78.511 E0.04801
G1 X44.767 Y78.864 E0.01294
G1 X43.716 Y78.871 E0.03296
G1 X43.697 Y78.575 E0.00932
G1 X43.286 Y77.132 E0.04702
G1 X42.781 Y76.283 E0.03098
G1 X41.825 Y75.299 E0.04300
G1 X40.889 Y74.777 E0.03363
G1 X40.849 Y73.738 E0.03259
G1 X40.447 Y72.547 E0.03942
G1 X40.251 Y72.165 F10800.000
G1 F1200.000
G1 X39.821 Y71.516 E0.02441
G1 X39.077 Y70.776 E0.03292
G1 X38.143 Y70.182 E0.03470
G1 X36.628 Y69.738 E0.04948
G1 X36.550 Y70.108 F10800.000
G1 F1200.000
G1 X23.244 Y70.110 E0.41720
G1 X22.170 Y70.364 E0.03462
G1 X20.960 Y71.045 E0.04351
G1 X20.029 Y72.033 E0.04257
G1 X19.574 Y72.916 E0.03116
G1 X18.915 Y73.301 E0.02392
G1 X18.111 Y74.105 E0.03563
G1 X17.528 Y75.060 E0.03508
G1 X17.163 Y76.401 E0.04359
G1 X17.164 Y90.386 E0.43850
G1 X17.444 Y91.481 E0.03545
G1 X17.999 Y92.451 E0.03502
G1 X18.962 Y93.393 E0.04224
G1 X19.417 Y93.650 E0.01639
G1 X19.420 Y94.602 E0.02986
G1 X19.599 Y95.581 E0.03119
G1 X20.236 Y96.866 E0.04498
G1 X21.080 Y97.767 E0.03870
G1 X21.530 Y98.046 E0.01663
G1 X21.551 Y99.424 E0.04322
G1 X21.751 Y100.290 E0.02787
G1 X22.109 Y101.089 E0.02743
G1 X23.177 Y102.323 E0.05117
G1 X23.943 Y102.827 E0.02875
G1 X23.949 Y103.782 E0.02995
G1 X24.145 Y104.786 E0.03206
G1 X24.806 Y106.072 E0.04533
G1 X25.667 Y106.959 E0.03876
G1 X26.098 Y107.217 E0.01575
G1 X26.123 Y108.583 E0.04282
G1 X26.662 Y110.206 E0.05363
G1 X27.081 Y110.787 E0.02244
G1 X27.797 Y111.513 E0.03197
G1 X28.916 Y112.151 E0.04040
G1 X29.398 Y113.016 E0.03106
G1 X30.228 Y113.839 E0.03665
G1 X30.669 Y114.121 E0.01641
G1 X30.692 Y115.426 E0.04092
G1 X31.185 Y116.970 E0.05082
G1 X31.649 Y117.641 E0.02557
G1 X32.387 Y118.385 E0.03285
G1 X33.405 Y118.945 E0.03645
G1 X33.883 Y119.821 E0.03129
G1 X34.749 Y120.692 E0.03849
G1 X35.253 Y121.013 E0.01874
G1 X35.289 Y122.446 E0.04495
G1 X35.591 Y123.462 E0.03325
G1 X36.229 Y124.524 E0.03884
G1 X36.848 Y125.145 E0.02747
G1 X37.489 Y125.607 E0.02479
G1 X37.927 Y125.796 E0.01494
G1 X38.396 Y126.651 E0.03058
G1 X39.316 Y127.575 E0.04090
G1 X40.057 Y128.040 E0.02744
G1 X40.536 Y128.203 E0.01583
G1 X40.549 Y129.016 E0.02550
G1 X40.844 Y130.218 E0.03880
G1 X41.486 Y131.328 E0.04022
G1 X42.285 Y132.108 E0.03503
G1 X42.392 Y132.471 E0.01186
G1 X42.969 Y133.511 E0.03730
G1 X44.076 Y134.578 E0.04820
G1 X44.958 Y135.035 E0.03113
G1 X46.189 Y135.335 E0.03974
G1 X49.166 Y135.335 E0.09335
G1 X49.403 Y135.309 E0.00748
G1 X50.025 Y135.335 E0.01952
G1 X59.089 Y135.335 E0.28419
G1 X60.726 Y134.848 E0.05355
G1 X61.488 Y134.331 E0.02887
G1 X61.761 Y134.054 E0.01219
G1 X62.118 Y133.692 F10800.000
G1 F1200.000
G1 X62.256 Y133.552 E0.00614
G1 X62.598 Y132.950 E0.02170
G1 X63.180 Y132.803 E0.01883
G1 X64.360 Y132.168 E0.04201
G1 X65.415 Y131.066 E0.04783
G1 X66.052 Y129.676 E0.04795
G1 X66.176 Y128.844 E0.02638
G1 X66.172 Y117.437 E0.35765
G1 X66.052 Y116.701 E0.02339
G1 X65.274 Y115.184 E0.05346
G1 X64.297 Y114.268 E0.04198
G1 X63.449 Y113.819 E0.03011
G1 X62.974 Y112.975 E0.03033
G1 X62.094 Y112.116 E0.03855
G1 X61.222 Y111.605 E0.03172
G1 X60.894 Y111.496 E0.01084
G1 X60.871 Y110.570 E0.02904
G1 X60.365 Y109.005 E0.05157
G1 X59.879 Y108.318 E0.02639
G1 X59.146 Y107.601 E0.03216
G1 X59.030 Y107.213 E0.01268
G1 X58.398 Y106.113 E0.03978
G1 X57.489 Y105.233 E0.03966
G1 X57.109 Y104.996 E0.01404
G1 X57.659 Y104.636 E0.02062
G1 X58.369 Y103.923 E0.03154
G1 X58.882 Y103.124 E0.02979
G1 X59.155 Y102.393 E0.02447
G1 X59.947 Y101.601 E0.03512
G1 X60.324 Y101.043 E0.02110
G1 X61.400 Y101.055 E0.03372
G1 X62.224 Y101.029 E0.02587
G1 X63.284 Y100.774 E0.03417
G1 X64.466 Y100.108 E0.04256
G1 X65.274 Y99.293 E0.03596
G1 X65.575 Y98.775 E0.01880
G1 X66.019 Y98.737 E0.01397
G1 X66.904 Y98.736 E0.02776
G1 X67.789 Y98.543 E0.02839
G1 X68.953 Y97.922 E0.04136
G1 X69.743 Y97.159 E0.03444
G1 X70.291 Y96.329 E0.03118
G1 X70.701 Y94.913 E0.04621
G1 X70.701 Y85.589 E0.29235
G1 X70.277 Y84.096 E0.04866
G1 X69.597 Y83.070 E0.03859
G1 X68.763 Y82.312 E0.03533
G1 X68.480 Y82.150 E0.01023
G1 X68.456 Y80.850 E0.04076
G1 X67.995 Y79.384 E0.04819
G1 X67.540 Y78.694 E0.02590
G1 X66.751 Y77.894 E0.03523
G1 X65.772 Y77.337 E0.03532
G1 X65.335 Y76.533 E0.02869
G1 X64.428 Y75.593 E0.04094
G1 X62.701 Y74.758 E0.06015
G1 X61.970 Y74.665 E0.02309
G1 X52.856 Y74.689 E0.28578
G1 X51.524 Y75.089 E0.04362
G1 X50.606 Y75.678 E0.03420
G1 X49.709 Y76.652 E0.04150
G1 X49.537 Y76.959 E0.01106
G1 X48.265 Y76.981 E0.03989
G1 X47.266 Y77.237 E0.03232
G1 X46.323 Y77.735 E0.03342
G1 X45.264 Y78.762 E0.04627
G1 X44.988 Y79.240 E0.01728
G1 X43.855 Y79.247 E0.03555
G1 X43.341 Y79.348 E0.01640
G1 X43.326 Y78.650 E0.02186
G1 X42.931 Y77.260 E0.04533
G1 X42.470 Y76.497 E0.02794
G1 X41.576 Y75.583 E0.04008
G1 X40.517 Y75.004 E0.03784
G1 X40.483 Y73.831 E0.03679
G1 X40.045 Y72.536 E0.04286
G1 X39.795 Y72.153 F10800.000
G1 F1200.000
G1 X39.519 Y71.743 E0.01548
G1 X38.827 Y71.059 E0.03052
G1 X37.965 Y70.515 E0.03194
G1 X36.550 Y70.108 E0.04617
;WIPE_START
G1 F8640.000
G1 X37.965 Y70.515 E-0.34001
G1 X38.827 Y71.059 E-0.23523
G1 X39.396 Y71.621 E-0.18476
;WIPE_END
G1 E-0.04000 F2100.000
G1 Z0.800 F10800.000
G1 X37.789 Y70.850
G1 Z0.200
G1 E0.80000 F2100.000
G1 F1200.000
G1 X36.473 Y70.478 E0.04287
G1 X23.307 Y70.482 E0.41281
G1 X22.330 Y70.706 E0.03142
G1 X21.171 Y71.359 E0.04170
G1 X20.324 Y72.269 E0.03899
G1 X19.859 Y73.188 E0.03228
G1 X19.163 Y73.586 E0.02515
G1 X18.393 Y74.356 E0.03413
G1 X17.884 Y75.186 E0.03054
G1 X17.541 Y76.427 E0.04036
G1 X17.541 Y90.362 E0.43691
G1 X17.803 Y91.362 E0.03241
G1 X18.281 Y92.200 E0.03027
G1 X19.206 Y93.104 E0.04054
G1 X19.795 Y93.423 E0.02100
G1 X19.795 Y94.554 E0.03547
G1 X19.950 Y95.440 E0.02820
G1 X20.530 Y96.630 E0.04149
G1 X21.336 Y97.489 E0.03692
G1 X21.905 Y97.829 E0.02080
G1 X21.924 Y99.361 E0.04804
G1 X22.103 Y100.154 E0.02548
G1 X22.442 Y100.908 E0.02593
G1 X23.443 Y102.054 E0.04770
G1 X24.319 Y102.621 E0.03274
G1 X24.323 Y103.731 E0.03479
G1 X24.494 Y104.640 E0.02903
G1 X25.097 Y105.830 E0.04182
G1 X25.918 Y106.677 E0.03697
G1 X26.473 Y106.996 E0.02008
G1 X26.491 Y108.494 E0.04698
G1 X26.986 Y110.011 E0.05002
G1 X27.360 Y110.533 E0.02014
G1 X28.046 Y111.229 E0.03065
G1 X29.196 Y111.875 E0.04134
G1 X29.683 Y112.768 E0.03191
G1 X30.478 Y113.555 E0.03507
G1 X31.044 Y113.910 E0.02095
G1 X31.061 Y115.340 E0.04486
G1 X31.513 Y116.781 E0.04733
G1 X31.929 Y117.388 E0.02307
G1 X32.634 Y118.099 E0.03142
G1 X33.685 Y118.667 E0.03744
G1 X34.171 Y119.575 E0.03230
G1 X35.000 Y120.410 E0.03689
G1 X35.626 Y120.801 E0.02313
G1 X35.658 Y122.365 E0.04908
G1 X35.928 Y123.291 E0.03024
G1 X36.513 Y124.276 E0.03592
G1 X37.081 Y124.848 E0.02527
G1 X37.691 Y125.288 E0.02359
G1 X38.196 Y125.499 E0.01715
G1 X38.683 Y126.405 E0.03224
G1 X39.567 Y127.293 E0.03931
G1 X40.235 Y127.707 E0.02463
G1 X40.911 Y127.926 E0.02228
G1 X40.921 Y128.950 E0.03211
G1 X41.184 Y130.053 E0.03556
G1 X41.798 Y131.116 E0.03850
G1 X42.622 Y131.908 E0.03583
G1 X42.734 Y132.311 E0.01311
G1 X43.253 Y133.262 E0.03395
G1 X44.276 Y134.257 E0.04476
G1 X45.071 Y134.675 E0.02816
G1 X46.212 Y134.958 E0.03686
G1 X49.155 Y134.958 E0.09226
G1 X49.389 Y134.931 E0.00740
G1 X50.029 Y134.958 E0.02009
G1 X59.061 Y134.958 E0.28318
G1 X60.588 Y134.496 E0.05003
G1 X61.252 Y134.033 E0.02539
G1 X61.610 Y133.671 F10800.000
G1 F1200.000
G1 X61.968 Y133.306 E0.01602
G1 X62.347 Y132.622 E0.02453
G1 X63.026 Y132.458 E0.02189
G1 X64.109 Y131.885 E0.03842
G1 X65.120 Y130.829 E0.04583
G1 X65.697 Y129.547 E0.04409
G1 X65.799 Y128.831 E0.02266
G1 X65.797 Y117.479 E0.35596
G1 X65.701 Y116.842 E0.02017
G1 X64.991 Y115.436 E0.04939
G1 X64.059 Y114.562 E0.04009
G1 X63.173 Y114.101 E0.03130
G1 X62.691 Y113.225 E0.03134
G1 X61.848 Y112.403 E0.03691
G1 X61.053 Y111.943 E0.02880
G1 X60.520 Y111.777 E0.01752
G1 X60.503 Y110.656 E0.03516
G1 X60.040 Y109.197 E0.04799
G1 X59.603 Y108.575 E0.02384
G1 X58.809 Y107.799 E0.03480
G1 X58.690 Y107.377 E0.01373
G1 X58.116 Y106.365 E0.03650
G1 X57.245 Y105.522 E0.03798
G1 X56.373 Y105.016 E0.03164
G1 X57.408 Y104.353 E0.03855
G1 X58.063 Y103.701 E0.02896
G1 X58.554 Y102.938 E0.02846
G1 X58.829 Y102.185 E0.02513
G1 X59.667 Y101.348 E0.03715
G1 X60.120 Y100.669 E0.02559
G1 X61.219 Y100.663 E0.03446
G1 X61.404 Y100.677 E0.00583
G1 X62.194 Y100.653 E0.02477
G1 X63.124 Y100.432 E0.02997
G1 X64.218 Y99.823 E0.03926
G1 X64.988 Y99.046 E0.03428
G1 X65.358 Y98.388 E0.02368
G1 X65.746 Y98.388 E0.01217
G1 X65.995 Y98.359 E0.00785
G1 X66.845 Y98.363 E0.02663
G1 X67.683 Y98.180 E0.02688
G1 X68.750 Y97.604 E0.03803
G1 X69.464 Y96.904 E0.03134
G1 X69.960 Y96.146 E0.02840
G1 X70.324 Y94.886 E0.04111
G1 X70.324 Y85.616 E0.29067
G1 X69.923 Y84.229 E0.04527
G1 X69.326 Y83.334 E0.03373
G1 X68.527 Y82.608 E0.03385
G1 X68.105 Y82.377 E0.01509
G1 X68.088 Y80.936 E0.04519
G1 X67.644 Y79.523 E0.04645
G1 X67.259 Y78.947 E0.02172
G1 X66.502 Y78.179 E0.03383
G1 X65.491 Y77.612 E0.03633
G1 X65.045 Y76.775 E0.02973
G1 X64.180 Y75.879 E0.03904
G1 X62.622 Y75.128 E0.05423
G1 X61.958 Y75.042 E0.02099
G1 X52.938 Y75.058 E0.28282
G1 X51.658 Y75.442 E0.04189
G1 X50.832 Y75.980 E0.03091
G1 X50.005 Y76.886 E0.03847
G1 X49.767 Y77.334 E0.01589
G1 X48.336 Y77.352 E0.04487
G1 X47.382 Y77.597 E0.03088
G1 X46.526 Y78.054 E0.03045
G1 X45.549 Y79.011 E0.04287
G1 X45.213 Y79.615 E0.02167
G1 X43.877 Y79.624 E0.04190
G1 X42.965 Y79.813 E0.02921
G1 X42.956 Y78.728 E0.03404
G1 X42.575 Y77.389 E0.04365
G1 X42.160 Y76.714 E0.02484
G1 X41.328 Y75.869 E0.03719
G1 X40.144 Y75.233 E0.04214
G1 X40.116 Y73.924 E0.04105
