; generated by PrusaSlicer 2.3.0+win64 on 2021-08-13 at 12:44:51 UTC

; 

; external perimeters extrusion width = 0.45mm
; perimeters extrusion width = 0.45mm
; infill extrusion width = 0.45mm
; solid infill extrusion width = 0.45mm
; top infill extrusion width = 0.40mm
; first layer extrusion width = 0.42mm

M73 P0 R13
M73 Q0 S13
M201 X1000 Y1000 Z200 E5000 ; sets maximum accelerations, mm/sec^2
M203 X200 Y200 Z12 E120 ; sets maximum feedrates, mm/sec
M204 P1250 R1250 T1250 ; sets acceleration (P, T) and retract acceleration (R), mm/sec^2
M205 X8.00 Y8.00 Z0.40 E4.50 ; sets the jerk limits, mm/sec
M205 S0 T0 ; sets the minimum extruding and travel feed rate, mm/sec
M107
;TYPE:Custom
; M862.3 P "MK3S" ; printer model check
M862.1 P0.4 ; nozzle diameter check
M115 U3.9.0 ; tell printer latest fw version
G90 ; use absolute coordinates
M83 ; extruder relative mode
M104 S215 ; set extruder temp
M140 S60 ; set bed temp
M190 S60 ; wait for bed temp
M109 S215 ; wait for extruder temp
G28 W ; home all without mesh bed level
G80 ; mesh bed leveling
G1 Y-3.0 F1000.0 ; go outside print area
G92 E0.0
G1 X60.0 E9.0 F1000.0 ; intro line
M73 P0 R12
G1 X100.0 E12.5 F1000.0 ; intro line
G92 E0.0
M221 S95
G21 ; set units to millimeters
G90 ; use absolute coordinates
M83 ; use relative distances for extrusion
M900 K0.06 ; Filament gcode LA 1.5
M900 K30 ; Filament gcode LA 1.0
;LAYER_CHANGE
;Z:0.2
;HEIGHT:0.2
;BEFORE_LAYER_CHANGE
G92 E0.0
;0.2


M73 Q0 S12
G1 E-0.80000 F2100.000
G1 Z0.600 F10800.000
;AFTER_LAYER_CHANGE
;0.2
G1 X116.748 Y99.168
G1 Z0.200
G1 E0.80000 F2100.000
M204 S1000
;TYPE:Skirt
;WIDTH:0.42
M73 Q1 S12
G1 F1200.000
G1 X119.104 Y96.804 E0.10463
G1 X119.666 Y96.389 E0.02189
G1 X120.842 Y95.799 E0.04127
G1 X124.058 Y94.940 E0.10436
M73 P1 R12
G1 X125.315 Y94.876 E0.03946
G1 X126.106 Y94.978 E0.02502
G1 X129.106 Y95.783 E0.09738
G1 X129.707 Y96.029 E0.02039
G1 X130.829 Y96.746 E0.04173
G1 X133.193 Y99.101 E0.10463
G1 X133.923 Y100.207 E0.04154
G1 X134.206 Y100.859 E0.02229
G1 X135.063 Y104.075 E0.10436
G1 X135.122 Y105.424 E0.04234
G1 X135.035 Y106.055 E0.01998
G1 X134.235 Y109.042 E0.09696
G1 X133.961 Y109.727 E0.02311
G1 X133.246 Y110.841 E0.04151
G1 X130.885 Y113.206 E0.10477
G1 X129.786 Y113.927 E0.04122
G1 X129.137 Y114.208 E0.02216
G1 X125.925 Y115.063 E0.10422
G1 X124.576 Y115.122 E0.04234
G1 X123.945 Y115.035 E0.01998
G1 X120.958 Y114.235 E0.09696
G1 X120.273 Y113.961 E0.02311
G1 X119.159 Y113.245 E0.04151
G1 X116.794 Y110.885 E0.10477
G1 X116.072 Y109.786 E0.04122
G1 X115.792 Y109.137 E0.02216
G1 X114.937 Y105.925 E0.10422
G1 X114.878 Y104.576 E0.04234
G1 X114.965 Y103.945 E0.01998
G1 X115.765 Y100.958 E0.09696
G1 X116.037 Y100.277 E0.02298
G1 X116.716 Y99.218 E0.03944
G1 X117.031 Y99.420 F10800.000
G1 F1200.000
G1 X119.360 Y97.081 E0.10347
G1 X120.395 Y96.403 E0.03880
G1 X120.965 Y96.155 E0.01950
G1 X124.128 Y95.311 E0.10265
G1 X125.314 Y95.253 E0.03723
G1 X126.012 Y95.344 E0.02205
G1 X128.996 Y96.144 E0.09687
G1 X129.537 Y96.366 E0.01835
G1 X130.585 Y97.034 E0.03897
G1 X132.919 Y99.360 E0.10331
G1 X133.599 Y100.399 E0.03893
G1 X133.848 Y100.977 E0.01975
G1 X134.693 Y104.144 E0.10278
G1 X134.745 Y105.413 E0.03980
G1 X134.667 Y105.972 E0.01771
G1 X133.870 Y108.949 E0.09661
G1 X133.626 Y109.552 E0.02039
G1 X132.961 Y110.594 E0.03878
G1 X130.627 Y112.931 E0.10355
G1 X129.594 Y113.603 E0.03863
G1 X129.019 Y113.849 E0.01963
G1 X125.856 Y114.693 E0.10265
G1 X124.587 Y114.745 E0.03980
G1 X124.028 Y114.667 E0.01771
G1 X121.051 Y113.870 E0.09661
G1 X120.448 Y113.626 E0.02039
G1 X119.406 Y112.961 E0.03878
G1 X117.069 Y110.627 E0.10355
G1 X116.397 Y109.594 E0.03863
G1 X116.151 Y109.019 E0.01963
G1 X115.307 Y105.856 E0.10265
G1 X115.255 Y104.587 E0.03980
G1 X115.333 Y104.028 E0.01771
G1 X116.129 Y101.055 E0.09648
G1 X116.372 Y100.452 E0.02039
G1 X116.999 Y99.470 E0.03653
G1 X117.314 Y99.670 F10800.000
G1 F1200.000
G1 X119.619 Y97.356 E0.10242
G1 X120.587 Y96.728 E0.03618
G1 X121.082 Y96.514 E0.01692
G1 X124.204 Y95.680 E0.10131
G1 X125.314 Y95.630 E0.03484
G1 X125.917 Y95.708 E0.01906
G1 X128.887 Y96.505 E0.09642
G1 X129.365 Y96.701 E0.01621
G1 X130.340 Y97.320 E0.03620
G1 X132.644 Y99.619 E0.10206
G1 X133.274 Y100.590 E0.03630
G1 X133.489 Y101.093 E0.01716
G1 X134.322 Y104.215 E0.10131
G1 X134.368 Y105.402 E0.03723
G1 X134.299 Y105.887 E0.01538
G1 X133.505 Y108.850 E0.09618
M73 Q2 S12
G1 X133.293 Y109.375 E0.01775
G1 X132.674 Y110.348 E0.03615
G1 X130.372 Y112.653 E0.10215
M73 P2 R12
G1 X129.406 Y113.276 E0.03602
G1 X128.903 Y113.491 E0.01716
G1 X125.785 Y114.322 E0.10119
G1 X124.598 Y114.368 E0.03723
G1 X124.113 Y114.299 E0.01538
G1 X121.150 Y113.505 E0.09618
G1 X120.625 Y113.293 E0.01775
G1 X119.655 Y112.677 E0.03604
G1 X117.347 Y110.372 E0.10227
G1 X116.724 Y109.406 E0.03602
G1 X116.509 Y108.903 E0.01716
G1 X115.678 Y105.785 E0.10119
G1 X115.632 Y104.598 E0.03723
G1 X115.701 Y104.113 E0.01538
G1 X116.495 Y101.150 E0.09618
G1 X116.707 Y100.625 E0.01775
G1 X117.281 Y99.721 E0.03359
;WIPE_START
G1 F8640.000
G1 X119.595 Y97.380 E-0.76000
;WIPE_END
G1 E-0.04000 F2100.000
G1 Z0.800 F10800.000
G1 X123.017 Y103.855
G1 Z0.200
G1 E0.80000 F2100.000
;TYPE:Perimeter
G1 F1200.000
G1 X123.246 Y103.528 E0.01252
G1 X123.528 Y103.246 E0.01251
G1 X123.855 Y103.017 E0.01251
G1 X124.217 Y102.848 E0.01252
G1 X124.602 Y102.745 E0.01252
G1 X125.000 Y102.710 E0.01251
G1 X125.398 Y102.745 E0.01252
G1 X125.783 Y102.848 E0.01252
G1 X126.145 Y103.017 E0.01251
G1 X126.472 Y103.246 E0.01252
G1 X126.754 Y103.528 E0.01252
G1 X126.983 Y103.855 E0.01252
G1 X127.152 Y104.217 E0.01252
G1 X127.255 Y104.602 E0.01252
G1 X127.290 Y105.000 E0.01252
G1 X127.255 Y105.398 E0.01252
G1 X127.152 Y105.783 E0.01252
G1 X126.983 Y106.145 E0.01252
G1 X126.754 Y106.472 E0.01252
G1 X126.472 Y106.754 E0.01252
G1 X126.145 Y106.983 E0.01252
G1 X125.783 Y107.152 E0.01252
G1 X125.398 Y107.255 E0.01252
G1 X125.000 Y107.290 E0.01252
G1 X124.602 Y107.255 E0.01252
G1 X124.217 Y107.152 E0.01252
G1 X123.855 Y106.983 E0.01252
G1 X123.528 Y106.754 E0.01252
G1 X123.246 Y106.472 E0.01252
G1 X123.017 Y106.145 E0.01252
G1 X122.848 Y105.783 E0.01252
G1 X122.745 Y105.398 E0.01252
G1 X122.710 Y105.000 E0.01252
G1 X122.745 Y104.602 E0.01252
G1 X122.848 Y104.217 E0.01252
G1 X122.991 Y103.909 E0.01063
G1 X123.333 Y104.069 F10800.000
;TYPE:External perimeter
G1 F1200.000
G1 X123.536 Y103.771 E0.01129
G1 X123.771 Y103.536 E0.01044
G1 X124.044 Y103.345 E0.01045
G1 X124.346 Y103.204 E0.01045
G1 X124.668 Y103.117 E0.01045
G1 X125.000 Y103.088 E0.01044
G1 X125.332 Y103.117 E0.01046
G1 X125.654 Y103.204 E0.01045
G1 X125.956 Y103.345 E0.01045
G1 X126.229 Y103.536 E0.01045
G1 X126.464 Y103.771 E0.01045
G1 X126.655 Y104.044 E0.01045
G1 X126.796 Y104.346 E0.01045
G1 X126.883 Y104.668 E0.01045
G1 X126.912 Y105.000 E0.01045
G1 X126.883 Y105.332 E0.01045
G1 X126.796 Y105.654 E0.01045
G1 X126.655 Y105.956 E0.01045
G1 X126.464 Y106.229 E0.01045
G1 X126.229 Y106.464 E0.01045
G1 X125.956 Y106.655 E0.01045
G1 X125.654 Y106.796 E0.01045
G1 X125.332 Y106.883 E0.01045
G1 X125.000 Y106.912 E0.01045
G1 X124.668 Y106.883 E0.01045
G1 X124.346 Y106.796 E0.01045
G1 X124.044 Y106.655 E0.01045
G1 X123.771 Y106.464 E0.01045
G1 X123.536 Y106.229 E0.01045
G1 X123.345 Y105.956 E0.01045
G1 X123.204 Y105.654 E0.01045
G1 X123.117 Y105.332 E0.01045
G1 X123.088 Y105.000 E0.01045
G1 X123.117 Y104.668 E0.01045
G1 X123.204 Y104.346 E0.01045
G1 X123.308 Y104.123 E0.00771
G1 X123.150 Y103.759 F10800.000
;WIPE_START
G1 F8640.000
G1 X123.536 Y103.771 E-0.09684
G1 X123.771 Y103.536 E-0.07691
G1 X124.044 Y103.345 E-0.07693
G1 X124.346 Y103.204 E-0.07696
G1 X124.668 Y103.117 E-0.07694
G1 X125.000 Y103.088 E-0.07687
G1 X125.332 Y103.117 E-0.07700
G1 X125.654 Y103.204 E-0.07696
G1 X125.956 Y103.345 E-0.07693
G1 X126.125 Y103.463 E-0.04767
;WIPE_END
G1 E-0.04000 F2100.000
G1 Z0.800 F10800.000
G1 X120.769 Y102.576
G1 Z0.200
G1 E0.80000 F2100.000
;TYPE:Perimeter
G1 F1200.000
G1 X120.671 Y102.501 E0.00389
G1 X120.787 Y102.550 E0.00397
G1 X121.232 Y102.625 E0.01412
G1 X121.638 Y102.559 E0.01290
G1 X121.863 Y102.461 E0.00771
G1 X122.049 Y102.339 E0.00697
G1 X122.266 Y102.131 E0.00942
G1 X122.475 Y101.847 E0.01105
G1 X122.607 Y101.449 E0.01316
G1 X122.608 Y101.043 E0.01272
G1 X122.548 Y100.786 E0.00828
G1 X122.500 Y100.671 E0.00389
G1 X122.761 Y100.944 E0.01183
G1 X123.100 Y101.140 E0.01228
G1 X123.357 Y101.215 E0.00838
G1 X123.759 Y101.227 E0.01261
G1 X124.191 Y101.107 E0.01406
G1 X124.407 Y100.992 E0.00767
G1 X124.703 Y100.728 E0.01245
G1 X124.907 Y100.377 E0.01272
G1 X124.984 Y100.124 E0.00828
G1 X125.000 Y100.001 E0.00389
G1 X125.083 Y100.346 E0.01113
G1 X125.190 Y100.570 E0.00776
G1 X125.449 Y100.887 E0.01285
G1 X125.804 Y101.107 E0.01310
G1 X126.118 Y101.198 E0.01023
G1 X126.443 Y101.235 E0.01028
G1 X126.696 Y101.204 E0.00797
G1 X127.048 Y101.070 E0.01182
G1 X127.247 Y100.935 E0.00753
G1 X127.424 Y100.769 E0.00759
G1 X127.499 Y100.671 E0.00389
G1 X127.450 Y100.787 E0.00397
G1 X127.375 Y101.232 E0.01412
G1 X127.441 Y101.638 E0.01290
G1 X127.539 Y101.863 E0.00771
G1 X127.661 Y102.049 E0.00697
G1 X127.869 Y102.266 E0.00942
G1 X128.153 Y102.475 E0.01105
G1 X128.551 Y102.607 E0.01316
G1 X128.957 Y102.608 E0.01272
G1 X129.214 Y102.548 E0.00828
G1 X129.329 Y102.500 E0.00389
G1 X129.071 Y102.745 E0.01113
G1 X128.932 Y102.949 E0.00776
G1 X128.786 Y103.332 E0.01285
G1 X128.774 Y103.750 E0.01310
G1 X128.851 Y104.067 E0.01023
G1 X128.983 Y104.367 E0.01028
G1 X129.136 Y104.570 E0.00797
G1 X129.428 Y104.809 E0.01182
G1 X129.644 Y104.913 E0.00753
G1 X129.876 Y104.984 E0.00759
G1 X129.999 Y105.000 E0.00389
G1 X129.654 Y105.083 E0.01113
G1 X129.430 Y105.190 E0.00776
G1 X129.132 Y105.433 E0.01206
G1 X128.975 Y105.646 E0.00830
G1 X128.849 Y105.940 E0.01003
G1 X128.770 Y106.276 E0.01082
G1 X128.788 Y106.674 E0.01251
G1 X128.930 Y107.048 E0.01255
G1 X129.065 Y107.247 E0.00753
G1 X129.231 Y107.424 E0.00759
G1 X129.329 Y107.499 E0.00389
G1 X129.213 Y107.450 E0.00397
G1 X128.768 Y107.375 E0.01412
G1 X128.362 Y107.441 E0.01290
G1 X128.137 Y107.539 E0.00771
G1 X127.951 Y107.661 E0.00697
G1 X127.734 Y107.869 E0.00942
G1 X127.525 Y108.153 E0.01105
G1 X127.393 Y108.551 E0.01316
G1 X127.392 Y108.957 E0.01272
G1 X127.452 Y109.214 E0.00828
G1 X127.500 Y109.329 E0.00389
G1 X127.255 Y109.072 E0.01113
G1 X127.051 Y108.932 E0.00776
G1 X126.668 Y108.786 E0.01285
G1 X126.250 Y108.774 E0.01310
G1 X125.933 Y108.851 E0.01023
G1 X125.633 Y108.983 E0.01028
G1 X125.430 Y109.136 E0.00797
G1 X125.191 Y109.428 E0.01182
G1 X125.087 Y109.644 E0.00753
G1 X125.016 Y109.876 E0.00759
G1 X125.000 Y109.999 E0.00389
G1 X124.917 Y109.654 E0.01113
G1 X124.810 Y109.430 E0.00776
G1 X124.567 Y109.132 E0.01206
G1 X124.354 Y108.975 E0.00830
G1 X124.060 Y108.849 E0.01003
G1 X123.724 Y108.770 E0.01082
G1 X123.326 Y108.788 E0.01251
G1 X122.952 Y108.930 E0.01255
G1 X122.753 Y109.065 E0.00753
G1 X122.576 Y109.231 E0.00759
G1 X122.501 Y109.329 E0.00389
G1 X122.550 Y109.213 E0.00397
G1 X122.625 Y108.768 E0.01412
G1 X122.559 Y108.362 E0.01290
G1 X122.461 Y108.137 E0.00771
G1 X122.339 Y107.951 E0.00697
G1 X122.131 Y107.734 E0.00942
G1 X121.847 Y107.525 E0.01105
G1 X121.449 Y107.393 E0.01316
G1 X121.043 Y107.392 E0.01272
G1 X120.786 Y107.452 E0.00828
G1 X120.671 Y107.500 E0.00389
G1 X120.928 Y107.255 E0.01113
G1 X121.068 Y107.051 E0.00776
G1 X121.214 Y106.668 E0.01285
G1 X121.226 Y106.250 E0.01310
G1 X121.149 Y105.933 E0.01023
G1 X121.017 Y105.633 E0.01028
G1 X120.864 Y105.430 E0.00797
G1 X120.572 Y105.191 E0.01182
G1 X120.356 Y105.087 E0.00753
G1 X120.124 Y105.016 E0.00759
G1 X120.001 Y105.000 E0.00389
G1 X120.346 Y104.917 E0.01113
G1 X120.570 Y104.810 E0.00776
G1 X120.868 Y104.567 E0.01206
G1 X121.025 Y104.354 E0.00830
G1 X121.151 Y104.060 E0.01003
G1 X121.230 Y103.724 E0.01082
G1 X121.212 Y103.326 E0.01250
G1 X121.070 Y102.952 E0.01255
G1 X120.935 Y102.753 E0.00753
G1 X120.810 Y102.620 E0.00571
;WIPE_START
G1 F8640.000
G1 X120.671 Y102.501 E-0.04237
G1 X120.787 Y102.550 E-0.02923
G1 X121.232 Y102.625 E-0.10401
G1 X121.638 Y102.559 E-0.09498
G1 X121.863 Y102.461 E-0.05680
G1 X122.049 Y102.339 E-0.05135
G1 X122.266 Y102.131 E-0.06935
G1 X122.475 Y101.847 E-0.08141
G1 X122.607 Y101.449 E-0.09695
G1 X122.608 Y101.043 E-0.09368
G1 X122.569 Y100.875 E-0.03986
;WIPE_END
G1 E-0.04000 F2100.000
G1 Z0.800 F10800.000
G1 X125.001 Y99.506
G1 Z0.200
G1 E0.80000 F2100.000
G1 F1200.000
G1 X124.969 Y99.347 E0.00510
G1 X125.000 Y99.184 E0.00519
G1 X125.029 Y99.358 E0.00554
G1 X125.012 Y99.447 E0.00284
;WIPE_START
G1 F8640.000
G1 X124.969 Y99.347 E-0.02525
G1 X125.000 Y99.184 E-0.03825
G1 X125.029 Y99.358 E-0.04083
G1 X125.012 Y99.447 E-0.02095
;WIPE_END
G1 E-0.67472 F2100.000
G1 Z0.800 F10800.000
G1 X122.254 Y100.242
G1 Z0.200
G1 E0.80000 F2100.000
G1 F1200.000
G1 X122.147 Y100.119 E0.00510
G1 X122.092 Y99.963 E0.00519
G1 X122.204 Y100.100 E0.00554
G1 X122.234 Y100.185 E0.00284
;WIPE_START
G1 F8640.000
G1 X122.147 Y100.119 E-0.02525
G1 X122.092 Y99.963 E-0.03825
G1 X122.204 Y100.100 E-0.04083
G1 X122.234 Y100.185 E-0.02094
;WIPE_END
G1 E-0.67472 F2100.000
G1 Z0.800 F10800.000
G1 X120.243 Y102.253
G1 Z0.200
G1 E0.80000 F2100.000
G1 F1200.000
G1 X120.089 Y102.200 E0.00510
G1 X119.963 Y102.092 E0.00519
G1 X120.129 Y102.154 E0.00554
G1 X120.197 Y102.213 E0.00284
;WIPE_START
M73 Q3 S12
G1 F8640.000
G1 X120.089 Y102.200 E-0.02525
G1 X119.963 Y102.092 E-0.03825
G1 X120.129 Y102.154 E-0.04083
G1 X120.197 Y102.213 E-0.02095
;WIPE_END
G1 E-0.67472 F2100.000
G1 Z0.800 F10800.000
G1 X119.506 Y104.999
G1 Z0.200
M73 P3 R12
G1 E0.80000 F2100.000
G1 F1200.000
G1 X119.347 Y105.031 E0.00510
G1 X119.184 Y105.000 E0.00519
G1 X119.358 Y104.971 E0.00554
G1 X119.447 Y104.988 E0.00284
;WIPE_START
G1 F8640.000
G1 X119.347 Y105.031 E-0.02525
G1 X119.184 Y105.000 E-0.03825
G1 X119.358 Y104.971 E-0.04083
G1 X119.447 Y104.988 E-0.02094
;WIPE_END
G1 E-0.67472 F2100.000
G1 Z0.800 F10800.000
G1 X120.242 Y107.746
G1 Z0.200
G1 E0.80000 F2100.000
G1 F1200.000
G1 X120.119 Y107.853 E0.00510
G1 X119.963 Y107.908 E0.00519
G1 X120.100 Y107.796 E0.00554
G1 X120.185 Y107.766 E0.00284
;WIPE_START
G1 F8640.000
G1 X120.119 Y107.853 E-0.02526
G1 X119.963 Y107.908 E-0.03825
G1 X120.100 Y107.796 E-0.04083
G1 X120.185 Y107.766 E-0.02094
;WIPE_END
G1 E-0.67472 F2100.000
G1 Z0.800 F10800.000
G1 X122.253 Y109.757
G1 Z0.200
G1 E0.80000 F2100.000
G1 F1200.000
G1 X122.200 Y109.911 E0.00510
G1 X122.092 Y110.037 E0.00519
G1 X122.154 Y109.871 E0.00555
G1 X122.213 Y109.803 E0.00284
;WIPE_START
G1 F8640.000
G1 X122.200 Y109.911 E-0.02525
G1 X122.092 Y110.037 E-0.03825
G1 X122.154 Y109.871 E-0.04084
G1 X122.213 Y109.803 E-0.02094
;WIPE_END
G1 E-0.67472 F2100.000
G1 Z0.800 F10800.000
G1 X124.999 Y110.494
G1 Z0.200
G1 E0.80000 F2100.000
G1 F1200.000
G1 X125.031 Y110.653 E0.00510
G1 X125.000 Y110.816 E0.00519
G1 X124.971 Y110.642 E0.00554
G1 X124.988 Y110.553 E0.00284
;WIPE_START
G1 F8640.000
G1 X125.031 Y110.653 E-0.02525
G1 X125.000 Y110.816 E-0.03825
G1 X124.971 Y110.642 E-0.04083
G1 X124.988 Y110.553 E-0.02095
;WIPE_END
G1 E-0.67472 F2100.000
G1 Z0.800 F10800.000
G1 X127.746 Y109.758
G1 Z0.200
G1 E0.80000 F2100.000
G1 F1200.000
G1 X127.853 Y109.881 E0.00510
G1 X127.908 Y110.037 E0.00519
G1 X127.796 Y109.900 E0.00554
G1 X127.766 Y109.815 E0.00284
;WIPE_START
G1 F8640.000
G1 X127.853 Y109.881 E-0.02526
G1 X127.908 Y110.037 E-0.03825
G1 X127.796 Y109.900 E-0.04083
G1 X127.766 Y109.815 E-0.02095
;WIPE_END
G1 E-0.67472 F2100.000
G1 Z0.800 F10800.000
G1 X129.757 Y107.747
G1 Z0.200
G1 E0.80000 F2100.000
G1 F1200.000
G1 X129.911 Y107.800 E0.00510
G1 X130.037 Y107.908 E0.00519
G1 X129.871 Y107.846 E0.00554
G1 X129.803 Y107.787 E0.00284
;WIPE_START
G1 F8640.000
G1 X129.911 Y107.800 E-0.02525
G1 X130.037 Y107.908 E-0.03825
G1 X129.871 Y107.846 E-0.04083
G1 X129.803 Y107.787 E-0.02094
;WIPE_END
G1 E-0.67472 F2100.000
G1 Z0.800 F10800.000
G1 X130.494 Y105.001
G1 Z0.200
G1 E0.80000 F2100.000
G1 F1200.000
G1 X130.653 Y104.969 E0.00510
G1 X130.816 Y105.000 E0.00519
G1 X130.642 Y105.029 E0.00554
G1 X130.553 Y105.012 E0.00284
;WIPE_START
G1 F8640.000
G1 X130.653 Y104.969 E-0.02525
