; generated by PrusaSlicer 2.3.0+win64 on 2021-07-09 at 01:23:29 UTC

; 

; external perimeters extrusion width = 0.45mm
; perimeters extrusion width = 0.45mm
; infill extrusion width = 0.45mm
; solid infill extrusion width = 0.45mm
; top infill extrusion width = 0.40mm
; support material extrusion width = 0.35mm
; first layer extrusion width = 0.42mm

M201 X9000 Y9000 Z500 E10000 ; sets maximum accelerations, mm/sec^2
M203 X500 Y500 Z12 E120 ; sets maximum feedrates, mm/sec
M204 P1500 R1500 T1500 ; sets acceleration (P, T) and retract acceleration (R), mm/sec^2
M205 X10.00 Y10.00 Z0.20 E2.50 ; sets the jerk limits, mm/sec
M205 S0 T0 ; sets the minimum extruding and travel feed rate, mm/sec
M107
;TYPE:Custom
M115 U3.1.3-RC1 ; tell printer latest fw version
M201 X1000 Y1000 Z200 E5000 ; sets maximum accelerations, mm/sec^2
M203 X200 Y200 Z12 E120 ; sets maximum feedrates, mm/sec
M204 S1250 T1250 ; sets acceleration (S) and retract acceleration (T)
M205 X10 Y10 Z0.4 E2.5 ; sets the jerk limits, mm/sec
M205 S0 T0 ; sets the minimum extruding and travel feed rate, mm/sec
M83  ; extruder relative mode
M104 S215 ; set extruder temp
M140 S60 ; set bed temp
M190 S60 ; wait for bed temp
M109 S215 ; wait for extruder temp
G28 W ; home all without mesh bed level
G80 ; mesh bed leveling
G1 Y-3.0 F1000.0 ; go outside print area
G92 E0.0
G1 X60.0 E9.0  F1000.0 ; intro line
G1 X100.0 E12.5  F1000.0 ; intro line
G92 E0.0
M221 S95
G21 ; set units to millimeters
G90 ; use absolute coordinates
M83 ; use relative distances for extrusion
M900 K30; Filament gcode
;LAYER_CHANGE
;Z:0.2
;HEIGHT:0.2
;BEFORE_LAYER_CHANGE
;0.2


G1 E-0.80000 F2100.000
G1 Z0.600 F10200.000
;AFTER_LAYER_CHANGE
;0.2
G1 X89.513 Y27.765
G1 Z0.200
G1 E0.80000 F2100.000
M204 S1000
;TYPE:Skirt
;WIDTH:0.42
G1 F1800.000
G1 X99.049 Y27.546 E0.29908
G1 X150.403 Y27.717 E1.61019
G1 X151.090 Y27.842 E0.02190
G1 X151.715 Y28.163 E0.02201
G1 X152.218 Y28.653 E0.02201
G1 X152.556 Y29.268 E0.02201
G1 X152.704 Y30.088 E0.02614
G1 X152.704 Y166.023 E4.26215
G1 X152.590 Y166.728 E0.02237
G1 X152.272 Y167.367 E0.02237
G1 X151.779 Y167.882 E0.02237
G1 X151.152 Y168.230 E0.02249
G1 X150.332 Y168.378 E0.02614
G1 X89.941 Y168.377 E1.89352
G1 X89.245 Y168.257 E0.02213
G1 X88.616 Y167.937 E0.02213
G1 X88.108 Y167.447 E0.02213
G1 X87.765 Y166.826 E0.02225
G1 X87.617 Y166.006 E0.02614
G1 X87.625 Y29.903 E4.26740
G1 X87.807 Y29.163 E0.02390
G1 X88.211 Y28.521 E0.02378
G1 X88.800 Y28.037 E0.02390
G1 X89.456 Y27.787 E0.02202
;WIPE_START
G1 F8160.000
G1 X92.564 Y27.709 E-0.76000
;WIPE_END
G1 E-0.04000 F2100.000
G1 Z0.800 F10200.000
G1 X95.273 Y32.673
G1 Z0.200
G1 E0.80000 F2100.000
;TYPE:Support material
G1 F1800.000
G1 X95.273 Y30.093 E0.08090
G1 X94.519 Y30.093 E0.02365
G1 X94.519 Y32.503 E0.07558
G1 X93.765 Y32.503 E0.02365
G1 X93.765 Y30.093 E0.07558
G1 X93.011 Y30.093 E0.02365
G1 X93.011 Y32.503 E0.07558
G1 X92.728 Y32.503 E0.00886
G1 X92.459 Y32.772 E0.01191
G1 X92.459 Y50.539 E0.55707
G1 X92.728 Y50.808 E0.01191
G1 X93.011 Y50.808 E0.00886
G1 X93.011 Y54.576 E0.11816
G1 X93.765 Y54.576 E0.02365
G1 X93.765 Y50.638 E0.12348
G1 X92.256 Y54.746 F10200.000
G1 F1800.000
G1 X92.256 Y30.093 E0.77297
G1 X91.502 Y30.093 E0.02365
G1 X91.502 Y54.576 E0.76765
G1 X90.748 Y54.576 E0.02365
G1 X90.748 Y30.093 E0.76765
G1 X89.994 Y30.093 E0.02365
G1 X89.994 Y54.746 E0.77297
;WIPE_START
G1 F8160.000
G1 X89.994 Y51.637 E-0.76000
;WIPE_END
G1 E-0.04000 F2100.000
G1 Z0.800 F10200.000
G1 X99.044 Y29.923
G1 Z0.200
G1 E0.80000 F2100.000
G1 F1800.000
G1 X99.044 Y32.503 E0.08090
G1 X99.798 Y32.503 E0.02365
G1 X99.798 Y30.093 E0.07558
G1 X100.552 Y30.093 E0.02365
G1 X100.552 Y32.503 E0.07558
G1 X101.306 Y32.503 E0.02365
G1 X101.306 Y30.093 E0.07558
G1 X102.061 Y30.093 E0.02365
G1 X102.061 Y166.001 E4.26129
G1 X101.306 Y166.001 F10200.000
G1 F1800.000
G1 X101.306 Y163.421 E0.08090
G1 X100.552 Y163.421 E0.02365
G1 X100.552 Y165.831 E0.07558
G1 X99.798 Y165.831 E0.02365
G1 X99.798 Y163.421 E0.07558
G1 X99.044 Y163.421 E0.02365
G1 X99.044 Y166.001 E0.08090
;WIPE_START
G1 F8160.000
G1 X99.044 Y163.421 E-0.63079
G1 X99.572 Y163.421 E-0.12921
;WIPE_END
G1 E-0.04000 F2100.000
G1 Z0.800 F10200.000
G1 X89.994 Y166.001
G1 Z0.200
G1 E0.80000 F2100.000
G1 F1800.000
G1 X89.994 Y141.348 E0.77297
G1 X90.748 Y141.348 E0.02365
G1 X90.748 Y165.831 E0.76765
G1 X91.502 Y165.831 E0.02365
G1 X91.502 Y141.348 E0.76765
G1 X92.256 Y141.348 E0.02365
G1 X92.256 Y166.001 E0.77297
G1 X95.273 Y163.251 F10200.000
G1 F1800.000
G1 X95.273 Y165.831 E0.08090
G1 X94.519 Y165.831 E0.02365
G1 X94.519 Y163.421 E0.07558
G1 X93.765 Y163.421 E0.02365
G1 X93.765 Y165.831 E0.07558
G1 X93.011 Y165.831 E0.02365
G1 X93.011 Y163.421 E0.07558
G1 X92.728 Y163.421 E0.00886
G1 X92.459 Y163.152 E0.01191
G1 X92.459 Y145.385 E0.55707
G1 X92.728 Y145.116 E0.01191
G1 X93.011 Y145.116 E0.00886
G1 X93.011 Y141.348 E0.11816
G1 X93.765 Y141.348 E0.02365
G1 X93.765 Y145.116 E0.11816
G1 X94.519 Y145.116 E0.02365
G1 X94.519 Y50.808 E2.95699
G1 X95.273 Y50.808 E0.02365
G1 X95.273 Y145.116 E2.95699
G1 X96.027 Y145.116 E0.02365
G1 X96.027 Y50.808 E2.95699
G1 X96.781 Y50.808 E0.02365
G1 X96.781 Y145.116 E2.95699
G1 X97.536 Y145.116 E0.02365
G1 X97.536 Y50.808 E2.95699
G1 X98.290 Y50.808 E0.02365
G1 X98.290 Y145.116 E2.95699
G1 X99.044 Y145.116 E0.02365
G1 X99.044 Y50.808 E2.95699
G1 X99.798 Y50.808 E0.02365
G1 X99.798 Y145.116 E2.95699
G1 X100.552 Y145.116 E0.02365
G1 X100.552 Y50.808 E2.95699
G1 X101.306 Y50.808 E0.02365
G1 X101.306 Y145.286 E2.96231
;WIPE_START
G1 F8160.000
G1 X101.306 Y142.178 E-0.76000
;WIPE_END
G1 E-0.04000 F2100.000
G1 Z0.800 F10200.000
G1 X150.327 Y166.001
G1 Z0.200
G1 E0.80000 F2100.000
G1 F1800.000
G1 X150.327 Y141.348 E0.77297
G1 X149.573 Y141.348 E0.02365
G1 X149.573 Y165.831 E0.76765
G1 X148.818 Y165.831 E0.02365
G1 X148.818 Y141.348 E0.76765
G1 X148.064 Y141.348 E0.02365
G1 X148.064 Y165.831 E0.76765
G1 X147.310 Y165.831 E0.02365
G1 X147.310 Y163.421 E0.07558
G1 X146.556 Y163.421 E0.02365
G1 X146.556 Y165.831 E0.07558
G1 X145.802 Y165.831 E0.02365
G1 X145.802 Y163.421 E0.07558
G1 X145.048 Y163.421 E0.02365
G1 X145.048 Y166.001 E0.08090
;WIPE_START
G1 F8160.000
G1 X145.048 Y163.421 E-0.63079
G1 X145.576 Y163.421 E-0.12921
;WIPE_END
G1 E-0.04000 F2100.000
G1 Z0.800 F10200.000
G1 X137.506 Y166.001
G1 Z0.200
G1 E0.80000 F2100.000
G1 F1800.000
G1 X137.506 Y148.301 E0.55495
G1 X136.752 Y148.301 E0.02365
G1 X136.752 Y165.831 E0.54963
G1 X135.998 Y165.831 E0.02365
G1 X135.998 Y148.301 E0.54963
G1 X135.244 Y148.301 E0.02365
G1 X135.244 Y158.878 E0.33161
G1 X134.489 Y158.878 E0.02365
G1 X134.489 Y148.301 E0.33161
G1 X133.735 Y148.301 E0.02365
G1 X133.735 Y158.878 E0.33161
G1 X132.981 Y158.878 E0.02365
G1 X132.981 Y148.301 E0.33161
G1 X132.227 Y148.301 E0.02365
G1 X132.227 Y158.878 E0.33161
G1 X131.473 Y158.878 E0.02365
G1 X131.473 Y148.301 E0.33161
G1 X130.719 Y148.301 E0.02365
G1 X130.719 Y158.878 E0.33161
G1 X129.964 Y158.878 E0.02365
G1 X129.964 Y148.301 E0.33161
G1 X129.210 Y148.301 E0.02365
G1 X129.210 Y158.878 E0.33161
G1 X128.456 Y158.878 E0.02365
G1 X128.456 Y148.301 E0.33161
G1 X127.702 Y148.301 E0.02365
G1 X127.702 Y158.878 E0.33161
G1 X126.948 Y158.878 E0.02365
G1 X126.948 Y148.301 E0.33161
G1 X126.194 Y148.301 E0.02365
G1 X126.194 Y158.878 E0.33161
G1 X125.439 Y158.878 E0.02365
G1 X125.439 Y148.301 E0.33161
G1 X124.685 Y148.301 E0.02365
G1 X124.685 Y158.878 E0.33161
G1 X123.931 Y158.878 E0.02365
G1 X123.931 Y148.301 E0.33161
G1 X123.177 Y148.301 E0.02365
G1 X123.177 Y158.878 E0.33161
G1 X122.423 Y158.878 E0.02365
G1 X122.423 Y148.301 E0.33161
G1 X121.669 Y148.301 E0.02365
G1 X121.669 Y158.878 E0.33161
G1 X120.915 Y158.878 E0.02365
G1 X120.915 Y148.301 E0.33161
G1 X120.160 Y148.301 E0.02365
G1 X120.160 Y158.878 E0.33161
G1 X119.406 Y158.878 E0.02365
G1 X119.406 Y148.301 E0.33161
G1 X118.652 Y148.301 E0.02365
G1 X118.652 Y158.878 E0.33161
G1 X117.898 Y158.878 E0.02365
G1 X117.898 Y148.301 E0.33161
G1 X117.144 Y148.301 E0.02365
G1 X117.144 Y158.878 E0.33161
G1 X116.390 Y158.878 E0.02365
G1 X116.390 Y148.301 E0.33161
G1 X115.635 Y148.301 E0.02365
G1 X115.635 Y158.878 E0.33161
G1 X114.881 Y158.878 E0.02365
G1 X114.881 Y148.301 E0.33161
G1 X114.127 Y148.301 E0.02365
G1 X114.127 Y158.878 E0.33161
G1 X113.373 Y158.878 E0.02365
G1 X113.373 Y148.301 E0.33161
G1 X112.619 Y148.301 E0.02365
G1 X112.619 Y158.878 E0.33161
G1 X111.865 Y158.878 E0.02365
G1 X111.865 Y148.301 E0.33161
G1 X111.110 Y148.301 E0.02365
G1 X111.110 Y158.878 E0.33161
G1 X110.356 Y158.878 E0.02365
G1 X110.356 Y148.301 E0.33161
G1 X109.602 Y148.301 E0.02365
G1 X109.602 Y158.878 E0.33161
G1 X108.848 Y158.878 E0.02365
G1 X108.848 Y148.301 E0.33161
G1 X108.094 Y148.301 E0.02365
G1 X108.094 Y158.878 E0.33161
G1 X107.340 Y158.878 E0.02365
G1 X107.340 Y148.301 E0.33161
G1 X106.586 Y148.301 E0.02365
G1 X106.586 Y158.878 E0.33161
G1 X105.831 Y158.878 E0.02365
G1 X105.831 Y148.301 E0.33161
G1 X105.077 Y148.301 E0.02365
G1 X105.077 Y158.878 E0.33161
G1 X104.588 Y158.878 E0.01533
G1 X104.588 Y165.831 E0.21802
G1 X104.323 Y165.831 E0.00831
G1 X104.323 Y148.301 E0.54963
G1 X103.569 Y148.301 E0.02365
G1 X103.569 Y165.831 E0.54963
G1 X102.815 Y165.831 E0.02365
G1 X102.815 Y148.301 E0.54963
G1 X102.270 Y148.301 E0.01707
G1 X102.270 Y47.623 E3.15671
G1 X102.815 Y47.623 E0.01707
G1 X102.815 Y30.093 E0.54963
G1 X103.569 Y30.093 E0.02365
G1 X103.569 Y47.623 E0.54963
G1 X104.323 Y47.623 E0.02365
G1 X104.323 Y30.093 E0.54963
G1 X104.588 Y30.093 E0.00831
G1 X104.588 Y37.046 E0.21802
G1 X105.077 Y37.046 E0.01533
G1 X105.077 Y47.623 E0.33161
G1 X105.831 Y47.623 E0.02365
G1 X105.831 Y37.046 E0.33161
G1 X106.586 Y37.046 E0.02365
G1 X106.586 Y47.623 E0.33161
G1 X107.340 Y47.623 E0.02365
G1 X107.340 Y37.046 E0.33161
G1 X108.094 Y37.046 E0.02365
G1 X108.094 Y47.623 E0.33161
G1 X108.848 Y47.623 E0.02365
G1 X108.848 Y37.046 E0.33161
G1 X109.602 Y37.046 E0.02365
G1 X109.602 Y47.623 E0.33161
G1 X110.356 Y47.623 E0.02365
G1 X110.356 Y37.046 E0.33161
G1 X111.110 Y37.046 E0.02365
G1 X111.110 Y47.623 E0.33161
G1 X111.865 Y47.623 E0.02365
G1 X111.865 Y37.046 E0.33161
G1 X112.619 Y37.046 E0.02365
G1 X112.619 Y47.623 E0.33161
G1 X113.373 Y47.623 E0.02365
G1 X113.373 Y37.046 E0.33161
G1 X114.127 Y37.046 E0.02365
G1 X114.127 Y47.623 E0.33161
G1 X114.881 Y47.623 E0.02365
G1 X114.881 Y37.046 E0.33161
G1 X115.635 Y37.046 E0.02365
G1 X115.635 Y47.623 E0.33161
G1 X116.390 Y47.623 E0.02365
G1 X116.390 Y37.046 E0.33161
G1 X117.144 Y37.046 E0.02365
G1 X117.144 Y47.623 E0.33161
G1 X117.898 Y47.623 E0.02365
G1 X117.898 Y37.046 E0.33161
G1 X118.652 Y37.046 E0.02365
G1 X118.652 Y47.623 E0.33161
G1 X119.406 Y47.623 E0.02365
G1 X119.406 Y37.046 E0.33161
G1 X120.160 Y37.046 E0.02365
G1 X120.160 Y47.623 E0.33161
G1 X120.915 Y47.623 E0.02365
G1 X120.915 Y37.046 E0.33161
G1 X121.669 Y37.046 E0.02365
G1 X121.669 Y47.623 E0.33161
G1 X122.423 Y47.623 E0.02365
G1 X122.423 Y37.046 E0.33161
G1 X123.177 Y37.046 E0.02365
G1 X123.177 Y47.623 E0.33161
G1 X123.931 Y47.623 E0.02365
G1 X123.931 Y37.046 E0.33161
G1 X124.685 Y37.046 E0.02365
G1 X124.685 Y47.623 E0.33161
G1 X125.439 Y47.623 E0.02365
G1 X125.439 Y37.046 E0.33161
G1 X126.194 Y37.046 E0.02365
G1 X126.194 Y47.623 E0.33161
G1 X126.948 Y47.623 E0.02365
G1 X126.948 Y37.046 E0.33161
G1 X127.702 Y37.046 E0.02365
G1 X127.702 Y47.623 E0.33161
G1 X128.456 Y47.623 E0.02365
G1 X128.456 Y37.046 E0.33161
G1 X129.210 Y37.046 E0.02365
G1 X129.210 Y47.623 E0.33161
G1 X129.964 Y47.623 E0.02365
G1 X129.964 Y37.046 E0.33161
G1 X130.719 Y37.046 E0.02365
G1 X130.719 Y47.623 E0.33161
G1 X131.473 Y47.623 E0.02365
G1 X131.473 Y37.046 E0.33161
G1 X132.227 Y37.046 E0.02365
G1 X132.227 Y47.623 E0.33161
G1 X132.981 Y47.623 E0.02365
G1 X132.981 Y37.046 E0.33161
G1 X133.735 Y37.046 E0.02365
G1 X133.735 Y47.623 E0.33161
G1 X134.489 Y47.623 E0.02365
G1 X134.489 Y37.046 E0.33161
G1 X135.244 Y37.046 E0.02365
G1 X135.244 Y47.623 E0.33161
G1 X135.998 Y47.623 E0.02365
G1 X135.998 Y30.093 E0.54963
G1 X136.752 Y30.093 E0.02365
G1 X136.752 Y47.623 E0.54963
G1 X137.506 Y47.623 E0.02365
G1 X137.506 Y30.093 E0.54963
G1 X138.260 Y30.093 E0.02365
G1 X138.260 Y166.001 E4.26129
G1 X141.277 Y163.251 F10200.000
G1 F1800.000
G1 X141.277 Y165.831 E0.08090
G1 X140.523 Y165.831 E0.02365
G1 X140.523 Y163.421 E0.07558
G1 X139.768 Y163.421 E0.02365
G1 X139.768 Y165.831 E0.07558
G1 X139.014 Y165.831 E0.02365
G1 X139.014 Y163.421 E0.07558
G1 X138.779 Y163.421 E0.00738
G1 X138.510 Y163.152 E0.01191
G1 X138.510 Y145.385 E0.55707
G1 X138.779 Y145.116 E0.01191
G1 X139.014 Y145.116 E0.00738
G1 X139.014 Y50.808 E2.95699
G1 X139.769 Y50.808 E0.02365
G1 X139.768 Y145.116 E2.95699
G1 X140.523 Y145.116 E0.02365
G1 X140.523 Y50.808 E2.95699
G1 X141.277 Y50.808 E0.02365
G1 X141.277 Y145.116 E2.95699
G1 X142.031 Y145.116 E0.02365
G1 X142.031 Y50.808 E2.95699
G1 X142.785 Y50.808 E0.02365
G1 X142.785 Y145.116 E2.95699
G1 X143.539 Y145.116 E0.02365
G1 X143.539 Y50.808 E2.95699
G1 X144.293 Y50.808 E0.02365
G1 X144.293 Y145.116 E2.95699
G1 X145.048 Y145.116 E0.02365
G1 X145.048 Y50.808 E2.95699
G1 X145.802 Y50.808 E0.02365
G1 X145.802 Y145.286 E2.96231
G1 X147.310 Y141.178 F10200.000
G1 F1800.000
G1 X147.310 Y145.116 E0.12348
G1 X146.556 Y145.116 E0.02365
G1 X146.556 Y141.348 E0.11816
G1 X146.309 Y141.348 E0.00775
G1 X146.309 Y54.576 E2.72067
G1 X146.556 Y54.576 E0.00775
G1 X146.556 Y50.808 E0.11816
G1 X147.310 Y50.808 E0.02365
G1 X147.310 Y54.576 E0.11816
G1 X148.064 Y54.576 E0.02365
G1 X148.064 Y30.093 E0.76765
G1 X148.818 Y30.093 E0.02365
G1 X148.818 Y54.576 E0.76765
G1 X149.573 Y54.576 E0.02365
G1 X149.573 Y30.093 E0.76765
G1 X150.327 Y30.093 E0.02365
G1 X150.327 Y54.746 E0.77297
;WIPE_START
G1 F8160.000
G1 X150.327 Y51.637 E-0.76000
;WIPE_END
G1 E-0.04000 F2100.000
G1 Z0.800 F10200.000
G1 X147.310 Y32.673
G1 Z0.200
G1 E0.80000 F2100.000
G1 F1800.000
G1 X147.310 Y30.093 E0.08090
G1 X146.556 Y30.093 E0.02365
G1 X146.556 Y32.503 E0.07558
G1 X145.802 Y32.503 E0.02365
G1 X145.802 Y30.093 E0.07558
G1 X145.048 Y30.093 E0.02365
G1 X145.048 Y32.673 E0.08090
;WIPE_START
G1 F8160.000
G1 X145.048 Y30.093 E-0.63080
G1 X145.576 Y30.093 E-0.12920
;WIPE_END
G1 E-0.04000 F2100.000
G1 Z0.800 F10200.000
G1 X141.277 Y32.673
G1 Z0.200
G1 E0.80000 F2100.000
G1 F1800.000
G1 X141.277 Y30.093 E0.08090
G1 X140.523 Y30.093 E0.02365
G1 X140.523 Y32.503 E0.07558
G1 X139.769 Y32.503 E0.02365
G1 X139.769 Y30.093 E0.07558
G1 X139.014 Y30.093 E0.02365
G1 X139.014 Y32.673 E0.08090
;WIPE_START
G1 F8160.000
G1 X139.014 Y30.093 E-0.63080
G1 X139.543 Y30.093 E-0.12920
;WIPE_END
G1 E-0.04000 F2100.000
G1 Z0.800 F10200.000
G1 X100.765 Y33.549
G1 Z0.200
G1 E0.80000 F2100.000
;TYPE:Perimeter
G1 F1800.000
G1 X100.765 Y49.762 E0.50834
G1 X93.505 Y49.762 E0.22763
G1 X93.505 Y33.549 E0.50834
G1 X100.705 Y33.549 E0.22575
G1 X101.142 Y33.172 F10200.000
;TYPE:External perimeter
G1 F1800.000
G1 X101.142 Y50.139 E0.53199
G1 X93.128 Y50.139 E0.25127
G1 X93.128 Y33.172 E0.53199
G1 X101.082 Y33.172 E0.24939
G1 X101.083 Y33.568 F10200.000
;WIPE_START
G1 F8160.000
G1 X101.093 Y36.281 E-0.76000
;WIPE_END
G1 E-0.04000 F2100.000
G1 Z0.800 F10200.000
G1 X99.884 Y33.662
G1 Z0.200
G1 E0.80000 F2100.000
;TYPE:Solid infill
;WIDTH:0.422713
G1 F1800.000
G1 X100.482 Y34.261 E0.02672
G1 X100.482 Y34.798 E0.01696
G1 X99.516 Y33.832 E0.04313
G1 X98.979 Y33.832 E0.01696
G1 X100.482 Y35.335 E0.06712
G1 X100.482 Y35.872 E0.01696
G1 X98.442 Y33.832 E0.09111
G1 X97.905 Y33.832 E0.01696
G1 X100.482 Y36.409 E0.11509
G1 X100.482 Y36.946 E0.01696
G1 X97.368 Y33.832 E0.13908
G1 X96.831 Y33.832 E0.01696
G1 X100.482 Y37.483 E0.16307
G1 X100.482 Y38.020 E0.01696
G1 X96.294 Y33.832 E0.18706
G1 X95.756 Y33.832 E0.01696
G1 X100.482 Y38.557 E0.21105
G1 X100.482 Y39.095 E0.01696
G1 X95.219 Y33.832 E0.23503
G1 X94.682 Y33.832 E0.01696
G1 X100.482 Y39.632 E0.25902
G1 X100.482 Y40.169 E0.01696
G1 X94.145 Y33.832 E0.28301
G1 X93.788 Y33.832 E0.01129
G1 X93.788 Y34.012 E0.00567
G1 X100.482 Y40.706 E0.29897
G1 X100.482 Y41.243 E0.01696
G1 X93.788 Y34.549 E0.29897
G1 X93.788 Y35.086 E0.01696
G1 X100.482 Y41.780 E0.29897
