; generated by PrusaSlicer 2.3.0+win64 on 2021-07-09 at 01:52:21 UTC

; 

; external perimeters extrusion width = 0.45mm
; perimeters extrusion width = 0.45mm
; infill extrusion width = 0.45mm
; solid infill extrusion width = 0.45mm
; top infill extrusion width = 0.40mm
; first layer extrusion width = 0.42mm

M201 X9000 Y9000 Z500 E10000 ; sets maximum accelerations, mm/sec^2
M203 X500 Y500 Z12 E120 ; sets maximum feedrates, mm/sec
M204 P1500 R1500 T1500 ; sets acceleration (P, T) and retract acceleration (R), mm/sec^2
M205 X10.00 Y10.00 Z0.20 E2.50 ; sets the jerk limits, mm/sec
M205 S0 T0 ; sets the minimum extruding and travel feed rate, mm/sec
M107
;TYPE:Custom
M115 U3.1.3-RC1 ; tell printer latest fw version
M201 X1000 Y1000 Z200 E5000 ; sets maximum accelerations, mm/sec^2
M203 X200 Y200 Z12 E120 ; sets maximum feedrates, mm/sec
M204 S1250 T1250 ; sets acceleration (S) and retract acceleration (T)
M205 X10 Y10 Z0.4 E2.5 ; sets the jerk limits, mm/sec
M205 S0 T0 ; sets the minimum extruding and travel feed rate, mm/sec
M83  ; extruder relative mode
M104 S215 ; set extruder temp
M140 S60 ; set bed temp
M190 S60 ; wait for bed temp
M109 S215 ; wait for extruder temp
G28 W ; home all without mesh bed level
G80 ; mesh bed leveling
G1 Y-3.0 F1000.0 ; go outside print area
G92 E0.0
G1 X60.0 E9.0  F1000.0 ; intro line
G1 X100.0 E12.5  F1000.0 ; intro line
G92 E0.0
M221 S95
G21 ; set units to millimeters
G90 ; use absolute coordinates
M83 ; use relative distances for extrusion
M900 K30; Filament gcode
;LAYER_CHANGE
;Z:0.2
;HEIGHT:0.2
;BEFORE_LAYER_CHANGE
;0.2


G1 E-0.80000 F2100.000
G1 Z0.600 F10200.000
;AFTER_LAYER_CHANGE
;0.2
G1 X120.151 Y44.959
G1 Z0.200
G1 E0.80000 F2100.000
M204 S1000
;TYPE:Skirt
;WIDTH:0.42
G1 F1800.000
G1 X120.500 Y44.367 E0.02154
G1 X121.001 Y43.902 E0.02142
G1 X121.613 Y43.598 E0.02142
G1 X122.286 Y43.481 E0.02142
G1 X174.952 Y43.480 E1.65129
G1 X175.854 Y43.660 E0.02884
G1 X176.618 Y44.166 E0.02872
G1 X177.133 Y44.923 E0.02872
G1 X177.325 Y45.818 E0.02872
G1 X177.325 Y171.983 E3.95581
G1 X177.149 Y172.878 E0.02860
G1 X176.800 Y173.470 E0.02154
G1 X176.296 Y173.937 E0.02154
G1 X175.680 Y174.241 E0.02154
G1 X175.002 Y174.356 E0.02154
G1 X122.344 Y174.357 E1.65106
G1 X121.453 Y174.180 E0.02849
G1 X120.855 Y173.826 E0.02178
G1 X120.385 Y173.315 E0.02178
G1 X120.083 Y172.690 E0.02178
G1 X119.975 Y172.003 E0.02178
G1 X119.975 Y45.854 E3.95534
G1 X120.140 Y45.018 E0.02672
;WIPE_START
G1 F8160.000
G1 X120.500 Y44.367 E-0.18187
G1 X121.001 Y43.902 E-0.16704
G1 X121.613 Y43.598 E-0.16704
G1 X122.286 Y43.481 E-0.16704
G1 X122.601 Y43.481 E-0.07700
;WIPE_END
G1 E-0.04000 F2100.000
G1 Z0.800 F10200.000
G1 X122.939 Y46.445
G1 Z0.200
G1 E0.80000 F2100.000
;TYPE:Perimeter
G1 F1800.000
G1 X128.310 Y46.445 E0.16840
G1 X128.310 Y53.199 E0.21177
G1 X168.990 Y53.199 E1.27550
G1 X168.990 Y46.445 E0.21177
G1 X174.361 Y46.445 E0.16840
G1 X174.361 Y58.770 E0.38647
G1 X171.088 Y58.770 E0.10262
G1 X171.088 Y159.067 E3.14472
G1 X174.361 Y159.067 E0.10262
G1 X174.361 Y171.392 E0.38647
G1 X168.990 Y171.392 E0.16840
G1 X168.990 Y164.638 E0.21177
G1 X128.310 Y164.638 E1.27550
G1 X128.310 Y171.392 E0.21177
G1 X122.939 Y171.392 E0.16840
G1 X122.939 Y159.067 E0.38647
G1 X126.211 Y159.067 E0.10259
G1 X126.211 Y58.770 E3.14472
G1 X122.939 Y58.770 E0.10259
G1 X122.939 Y46.505 E0.38459
;WIPE_START
G1 F8160.000
G1 X126.047 Y46.470 E-0.76000
;WIPE_END
G1 E-0.04000 F2100.000
G1 Z0.800 F10200.000
G1 X128.687 Y52.822
G1 Z0.200
G1 E0.80000 F2100.000
;TYPE:External perimeter
G1 F1800.000
G1 X168.613 Y52.822 E1.25185
G1 X168.613 Y46.068 E0.21177
G1 X174.738 Y46.068 E0.19205
G1 X174.738 Y59.148 E0.41011
G1 X171.465 Y59.148 E0.10262
G1 X171.465 Y158.690 E3.12107
G1 X174.738 Y158.690 E0.10262
G1 X174.738 Y171.770 E0.41011
G1 X168.613 Y171.770 E0.19205
G1 X168.613 Y165.016 E0.21177
G1 X128.687 Y165.016 E1.25185
G1 X128.687 Y171.770 E0.21177
G1 X122.562 Y171.770 E0.19205
G1 X122.562 Y158.690 E0.41011
G1 X125.834 Y158.690 E0.10259
G1 X125.834 Y59.148 E3.12107
G1 X122.562 Y59.148 E0.10259
G1 X122.562 Y46.068 E0.41011
G1 X128.687 Y46.068 E0.19205
G1 X128.687 Y52.762 E0.20989
G1 X128.784 Y53.210 F10200.000
;WIPE_START
G1 F8160.000
G1 X131.796 Y52.766 E-0.76000
;WIPE_END
G1 E-0.04000 F2100.000
G1 Z0.800 F10200.000
G1 X173.485 Y46.558
G1 Z0.200
G1 E0.80000 F2100.000
;TYPE:Solid infill
;WIDTH:0.420027
G1 F1800.000
G1 X174.078 Y47.150 E0.02628
G1 X174.078 Y47.684 E0.01672
G1 X173.122 Y46.727 E0.04241
G1 X172.589 Y46.727 E0.01672
G1 X174.078 Y48.217 E0.06606
G1 X174.078 Y48.750 E0.01672
G1 X172.055 Y46.727 E0.08970
G1 X171.522 Y46.727 E0.01672
G1 X174.078 Y49.284 E0.11335
G1 X174.078 Y49.817 E0.01672
G1 X170.989 Y46.727 E0.13700
G1 X170.455 Y46.727 E0.01672
G1 X174.078 Y50.350 E0.16065
G1 X174.078 Y50.884 E0.01672
G1 X169.922 Y46.727 E0.18430
G1 X169.389 Y46.727 E0.01672
G1 X174.078 Y51.417 E0.20795
G1 X174.078 Y51.950 E0.01672
G1 X169.273 Y47.145 E0.21309
G1 X169.273 Y47.678 E0.01672
G1 X174.078 Y52.483 E0.21309
G1 X174.078 Y53.017 E0.01672
G1 X169.273 Y48.212 E0.21309
G1 X169.273 Y48.745 E0.01672
G1 X174.078 Y53.550 E0.21309
G1 X174.078 Y54.083 E0.01672
G1 X169.273 Y49.278 E0.21309
G1 X169.273 Y49.811 E0.01672
G1 X174.078 Y54.617 E0.21309
G1 X174.078 Y55.150 E0.01672
G1 X169.273 Y50.345 E0.21309
G1 X169.273 Y50.878 E0.01672
G1 X174.078 Y55.683 E0.21309
G1 X174.078 Y56.217 E0.01672
G1 X169.273 Y51.411 E0.21309
G1 X169.273 Y51.945 E0.01672
G1 X174.078 Y56.750 E0.21309
G1 X174.078 Y57.283 E0.01672
G1 X169.273 Y52.478 E0.21309
G1 X169.273 Y53.011 E0.01672
G1 X174.078 Y57.817 E0.21309
G1 X174.078 Y58.350 E0.01672
G1 X169.210 Y53.481 E0.21589
G1 X168.676 Y53.481 E0.01672
G1 X173.683 Y58.488 E0.22200
G1 X173.149 Y58.488 E0.01672
G1 X168.143 Y53.481 E0.22200
G1 X167.610 Y53.481 E0.01672
G1 X172.616 Y58.488 E0.22200
G1 X172.083 Y58.488 E0.01672
G1 X167.076 Y53.481 E0.22200
G1 X166.543 Y53.481 E0.01672
G1 X171.549 Y58.488 E0.22200
G1 X171.016 Y58.488 E0.01672
G1 X166.010 Y53.481 E0.22200
G1 X165.476 Y53.481 E0.01672
G1 X170.805 Y58.810 E0.23630
G1 X170.805 Y59.343 E0.01672
G1 X164.943 Y53.481 E0.25995
G1 X164.410 Y53.481 E0.01672
G1 X170.805 Y59.877 E0.28360
G1 X170.805 Y60.410 E0.01672
G1 X163.877 Y53.481 E0.30725
G1 X163.343 Y53.481 E0.01672
G1 X170.805 Y60.943 E0.33090
G1 X170.805 Y61.477 E0.01672
G1 X162.810 Y53.481 E0.35455
G1 X162.277 Y53.481 E0.01672
G1 X170.805 Y62.010 E0.37819
G1 X170.805 Y62.543 E0.01672
G1 X161.743 Y53.481 E0.40184
G1 X161.210 Y53.481 E0.01672
G1 X170.805 Y63.077 E0.42549
G1 X170.805 Y63.610 E0.01672
G1 X160.677 Y53.481 E0.44914
G1 X160.143 Y53.481 E0.01672
G1 X170.805 Y64.143 E0.47279
G1 X170.805 Y64.676 E0.01672
G1 X159.610 Y53.481 E0.49644
G1 X159.077 Y53.481 E0.01672
G1 X170.805 Y65.210 E0.52009
G1 X170.805 Y65.743 E0.01672
G1 X158.543 Y53.481 E0.54374
G1 X158.010 Y53.481 E0.01672
G1 X170.805 Y66.276 E0.56739
G1 X170.805 Y66.810 E0.01672
G1 X157.477 Y53.481 E0.59104
G1 X156.943 Y53.481 E0.01672
G1 X170.805 Y67.343 E0.61469
G1 X170.805 Y67.876 E0.01672
G1 X156.410 Y53.481 E0.63834
G1 X155.877 Y53.481 E0.01672
G1 X170.805 Y68.410 E0.66199
G1 X170.805 Y68.943 E0.01672
G1 X155.344 Y53.481 E0.68564
G1 X154.810 Y53.481 E0.01672
G1 X170.805 Y69.476 E0.70929
G1 X170.805 Y70.010 E0.01672
G1 X154.277 Y53.481 E0.73294
G1 X153.744 Y53.481 E0.01672
G1 X170.805 Y70.543 E0.75659
G1 X170.805 Y71.076 E0.01672
G1 X153.210 Y53.481 E0.78024
G1 X152.677 Y53.481 E0.01672
G1 X170.805 Y71.610 E0.80389
G1 X170.805 Y72.143 E0.01672
G1 X152.144 Y53.481 E0.82754
G1 X151.610 Y53.481 E0.01672
G1 X170.805 Y72.676 E0.85119
G1 X170.805 Y73.209 E0.01672
G1 X151.077 Y53.481 E0.87484
G1 X150.544 Y53.481 E0.01672
G1 X170.805 Y73.743 E0.89849
G1 X170.805 Y74.276 E0.01672
G1 X150.010 Y53.481 E0.92213
G1 X149.477 Y53.481 E0.01672
G1 X170.805 Y74.809 E0.94578
G1 X170.805 Y75.343 E0.01672
G1 X148.944 Y53.481 E0.96943
G1 X148.411 Y53.481 E0.01672
G1 X170.805 Y75.876 E0.99308
G1 X170.805 Y76.409 E0.01672
G1 X147.877 Y53.481 E1.01673
G1 X147.344 Y53.481 E0.01672
G1 X170.805 Y76.943 E1.04038
G1 X170.805 Y77.476 E0.01672
G1 X146.811 Y53.481 E1.06403
G1 X146.277 Y53.481 E0.01672
G1 X170.805 Y78.009 E1.08768
G1 X170.805 Y78.543 E0.01672
G1 X145.744 Y53.481 E1.11133
G1 X145.211 Y53.481 E0.01672
G1 X170.805 Y79.076 E1.13498
G1 X170.805 Y79.609 E0.01672
G1 X144.677 Y53.481 E1.15863
G1 X144.144 Y53.481 E0.01672
G1 X170.805 Y80.142 E1.18228
G1 X170.805 Y80.676 E0.01672
G1 X143.611 Y53.481 E1.20593
G1 X143.077 Y53.481 E0.01672
G1 X170.805 Y81.209 E1.22958
G1 X170.805 Y81.742 E0.01672
G1 X142.544 Y53.481 E1.25323
G1 X142.011 Y53.481 E0.01672
G1 X170.805 Y82.276 E1.27688
G1 X170.805 Y82.809 E0.01672
G1 X141.478 Y53.481 E1.30053
G1 X140.944 Y53.481 E0.01672
G1 X170.805 Y83.342 E1.32418
G1 X170.805 Y83.876 E0.01672
G1 X140.411 Y53.481 E1.34783
G1 X139.878 Y53.481 E0.01672
G1 X170.805 Y84.409 E1.37148
G1 X170.805 Y84.942 E0.01672
G1 X139.344 Y53.481 E1.39513
G1 X138.811 Y53.481 E0.01672
G1 X170.805 Y85.476 E1.41878
G1 X170.805 Y86.009 E0.01672
G1 X138.278 Y53.481 E1.44243
G1 X137.744 Y53.481 E0.01672
G1 X170.805 Y86.542 E1.46607
G1 X170.805 Y87.075 E0.01672
G1 X137.211 Y53.481 E1.48972
G1 X136.678 Y53.481 E0.01672
G1 X170.805 Y87.609 E1.51337
G1 X170.805 Y88.142 E0.01672
G1 X136.144 Y53.481 E1.53702
G1 X135.611 Y53.481 E0.01672
G1 X170.805 Y88.675 E1.56067
G1 X170.805 Y89.209 E0.01672
G1 X135.078 Y53.481 E1.58432
G1 X134.544 Y53.481 E0.01672
G1 X170.805 Y89.742 E1.60797
G1 X170.805 Y90.275 E0.01672
G1 X134.011 Y53.481 E1.63162
G1 X133.478 Y53.481 E0.01672
G1 X170.805 Y90.809 E1.65527
G1 X170.805 Y91.342 E0.01672
G1 X132.945 Y53.481 E1.67892
G1 X132.411 Y53.481 E0.01672
G1 X170.805 Y91.875 E1.70257
G1 X170.805 Y92.409 E0.01672
G1 X131.878 Y53.481 E1.72622
G1 X131.345 Y53.481 E0.01672
G1 X170.805 Y92.942 E1.74987
G1 X170.805 Y93.475 E0.01672
G1 X130.811 Y53.481 E1.77352
G1 X130.278 Y53.481 E0.01672
G1 X170.805 Y94.009 E1.79717
G1 X170.805 Y94.542 E0.01672
G1 X129.745 Y53.481 E1.82082
G1 X129.211 Y53.481 E0.01672
G1 X170.805 Y95.075 E1.84447
G1 X170.805 Y95.608 E0.01672
G1 X128.508 Y53.312 E1.87564
;WIPE_START
G1 F8160.000
G1 X130.706 Y55.510 E-0.76000
;WIPE_END
G1 E-0.04000 F2100.000
G1 Z0.800 F10200.000
G1 X128.197 Y47.134
G1 Z0.200
G1 E0.80000 F2100.000
G1 F1800.000
G1 X127.790 Y46.727 E0.01802
G1 X127.257 Y46.727 E0.01672
G1 X128.027 Y47.497 E0.03414
G1 X128.027 Y48.031 E0.01672
G1 X126.724 Y46.727 E0.05779
G1 X126.191 Y46.727 E0.01672
G1 X128.027 Y48.564 E0.08144
G1 X128.027 Y49.097 E0.01672
G1 X125.657 Y46.727 E0.10509
G1 X125.124 Y46.727 E0.01672
G1 X128.027 Y49.631 E0.12874
G1 X128.027 Y50.164 E0.01672
G1 X124.591 Y46.727 E0.15239
G1 X124.057 Y46.727 E0.01672
G1 X128.027 Y50.697 E0.17604
G1 X128.027 Y51.231 E0.01672
G1 X123.524 Y46.727 E0.19969
G1 X123.222 Y46.727 E0.00947
G1 X123.222 Y46.959 E0.00725
G1 X128.027 Y51.764 E0.21309
G1 X128.027 Y52.297 E0.01672
G1 X123.222 Y47.492 E0.21309
G1 X123.222 Y48.025 E0.01672
G1 X128.197 Y53.000 E0.22061
;WIPE_START
G1 F8160.000
G1 X125.999 Y50.802 E-0.76000
;WIPE_END
G1 E-0.04000 F2100.000
G1 Z0.800 F10200.000
G1 X123.052 Y48.389
G1 Z0.200
G1 E0.80000 F2100.000
G1 F1800.000
G1 X170.805 Y96.142 E2.11760
G1 X170.805 Y96.675 E0.01672
G1 X123.222 Y49.092 E2.11007
G1 X123.222 Y49.625 E0.01672
G1 X170.805 Y97.208 E2.11007
G1 X170.805 Y97.742 E0.01672
G1 X123.222 Y50.158 E2.11007
G1 X123.222 Y50.692 E0.01672
G1 X170.805 Y98.275 E2.11007
G1 X170.805 Y98.808 E0.01672
G1 X123.222 Y51.225 E2.11007
G1 X123.222 Y51.758 E0.01672
G1 X170.805 Y99.342 E2.11007
G1 X170.805 Y99.875 E0.01672
G1 X123.222 Y52.292 E2.11007
G1 X123.222 Y52.825 E0.01672
G1 X170.805 Y100.408 E2.11007
G1 X170.805 Y100.942 E0.01672
G1 X123.222 Y53.358 E2.11007
G1 X123.222 Y53.892 E0.01672
G1 X170.805 Y101.475 E2.11007
G1 X170.805 Y102.008 E0.01672
G1 X123.222 Y54.425 E2.11007
G1 X123.222 Y54.958 E0.01672
G1 X170.805 Y102.541 E2.11007
G1 X170.805 Y103.075 E0.01672
G1 X123.222 Y55.492 E2.11007
G1 X123.222 Y56.025 E0.01672
G1 X125.685 Y58.488 E0.10921
G1 X125.151 Y58.488 E0.01672
G1 X123.222 Y56.558 E0.08556
G1 X123.222 Y57.091 E0.01672
G1 X124.618 Y58.488 E0.06191
G1 X124.085 Y58.488 E0.01672
G1 X123.222 Y57.625 E0.03827
G1 X123.222 Y58.158 E0.01672
G1 X123.721 Y58.657 E0.02214
;WIPE_START
G1 F8160.000
G1 X123.222 Y58.158 E-0.17263
G1 X123.222 Y57.625 E-0.13039
G1 X124.085 Y58.488 E-0.29835
G1 X124.618 Y58.488 E-0.13039
G1 X124.536 Y58.406 E-0.02825
;WIPE_END
G1 E-0.04000 F2100.000
G1 Z0.800 F10200.000
G1 X126.324 Y59.127
G1 Z0.200
G1 E0.80000 F2100.000
G1 F1800.000
G1 X170.805 Y103.608 E1.97250
G1 X170.805 Y104.141 E0.01672
G1 X126.494 Y59.830 E1.96498
G1 X126.494 Y60.363 E0.01672
G1 X170.805 Y104.675 E1.96498
G1 X170.805 Y105.208 E0.01672
G1 X126.494 Y60.897 E1.96498
G1 X126.494 Y61.430 E0.01672
G1 X170.805 Y105.741 E1.96498
G1 X170.805 Y106.275 E0.01672
G1 X126.494 Y61.963 E1.96498
G1 X126.494 Y62.497 E0.01672
G1 X170.805 Y106.808 E1.96498
G1 X170.805 Y107.341 E0.01672
G1 X126.494 Y63.030 E1.96498
G1 X126.494 Y63.563 E0.01672
G1 X170.805 Y107.875 E1.96498
G1 X170.805 Y108.408 E0.01672
G1 X126.494 Y64.097 E1.96498
G1 X126.494 Y64.630 E0.01672
G1 X170.805 Y108.941 E1.96498
G1 X170.805 Y109.475 E0.01672
G1 X126.494 Y65.163 E1.96498
G1 X126.494 Y65.697 E0.01672
G1 X170.805 Y110.008 E1.96498
G1 X170.805 Y110.541 E0.01672
G1 X126.494 Y66.230 E1.96498
G1 X126.494 Y66.763 E0.01672
G1 X170.805 Y111.074 E1.96498
G1 X170.805 Y111.608 E0.01672
G1 X126.494 Y67.296 E1.96498
G1 X126.494 Y67.830 E0.01672
G1 X170.805 Y112.141 E1.96498
G1 X170.805 Y112.674 E0.01672
G1 X126.494 Y68.363 E1.96498
G1 X126.494 Y68.896 E0.01672
G1 X170.805 Y113.208 E1.96498
G1 X170.805 Y113.741 E0.01672
G1 X126.494 Y69.430 E1.96498
G1 X126.494 Y69.963 E0.01672
G1 X170.805 Y114.274 E1.96498
G1 X170.805 Y114.808 E0.01672
G1 X126.494 Y70.496 E1.96498
G1 X126.494 Y71.030 E0.01672
G1 X170.805 Y115.341 E1.96498
G1 X170.805 Y115.874 E0.01672
G1 X126.494 Y71.563 E1.96498
G1 X126.494 Y72.096 E0.01672
G1 X170.805 Y116.408 E1.96498
G1 X170.805 Y116.941 E0.01672
G1 X126.494 Y72.630 E1.96498
G1 X126.494 Y73.163 E0.01672
G1 X170.805 Y117.474 E1.96498
G1 X170.805 Y118.007 E0.01672
G1 X126.494 Y73.696 E1.96498
G1 X126.494 Y74.230 E0.01672
G1 X170.805 Y118.541 E1.96498
G1 X170.805 Y119.074 E0.01672
G1 X126.494 Y74.763 E1.96498
G1 X126.494 Y75.296 E0.01672
G1 X170.805 Y119.607 E1.96498
G1 X170.805 Y120.141 E0.01672
G1 X126.494 Y75.829 E1.96498
G1 X126.494 Y76.363 E0.01672
G1 X170.805 Y120.674 E1.96498
G1 X170.805 Y121.207 E0.01672
G1 X126.494 Y76.896 E1.96498
G1 X126.494 Y77.429 E0.01672
G1 X170.805 Y121.741 E1.96498
G1 X170.805 Y122.274 E0.01672
G1 X126.494 Y77.963 E1.96498
G1 X126.494 Y78.496 E0.01672
G1 X170.805 Y122.807 E1.96498
G1 X170.805 Y123.341 E0.01672
G1 X126.494 Y79.029 E1.96498
G1 X126.494 Y79.563 E0.01672
G1 X170.805 Y123.874 E1.96498
G1 X170.805 Y124.407 E0.01672
G1 X126.494 Y80.096 E1.96498
G1 X126.494 Y80.629 E0.01672
G1 X170.805 Y124.940 E1.96498
G1 X170.805 Y125.474 E0.01672
G1 X126.494 Y81.163 E1.96498
G1 X126.494 Y81.696 E0.01672
G1 X170.805 Y126.007 E1.96498
G1 X170.805 Y126.540 E0.01672
G1 X126.494 Y82.229 E1.96498
G1 X126.494 Y82.762 E0.01672
G1 X170.805 Y127.074 E1.96498
G1 X170.805 Y127.607 E0.01672
G1 X126.494 Y83.296 E1.96498
G1 X126.494 Y83.829 E0.01672
G1 X170.805 Y128.140 E1.96498
G1 X170.805 Y128.674 E0.01672
G1 X126.494 Y84.362 E1.96498
G1 X126.494 Y84.896 E0.01672
G1 X170.805 Y129.207 E1.96498
G1 X170.805 Y129.740 E0.01672
G1 X126.494 Y85.429 E1.96498
G1 X126.494 Y85.962 E0.01672
G1 X170.805 Y130.274 E1.96498
G1 X170.805 Y130.807 E0.01672
G1 X126.494 Y86.496 E1.96498
G1 X126.494 Y87.029 E0.01672
G1 X170.805 Y131.340 E1.96498
G1 X170.805 Y131.874 E0.01672
G1 X126.494 Y87.562 E1.96498
G1 X126.494 Y88.096 E0.01672
G1 X170.805 Y132.407 E1.96498
G1 X170.805 Y132.940 E0.01672
G1 X126.494 Y88.629 E1.96498
G1 X126.494 Y89.162 E0.01672
G1 X170.805 Y133.473 E1.96498
G1 X170.805 Y134.007 E0.01672
G1 X126.494 Y89.696 E1.96498
G1 X126.494 Y90.229 E0.01672
G1 X170.805 Y134.540 E1.96498
G1 X170.805 Y135.073 E0.01672
G1 X126.494 Y90.762 E1.96498
G1 X126.494 Y91.295 E0.01672
