; generated by PrusaSlicer 2.3.0+win64 on 2021-08-09 at 00:50:28 UTC


;
;

;
;
; 

; external perimeters extrusion width = 0.45mm
; perimeters extrusion width = 0.45mm
; infill extrusion width = 0.45mm
; solid infill extrusion width = 0.45mm
; top infill extrusion width = 0.40mm
; first layer extrusion width = 0.42mm

M73 P0 R21
M201 X1250 Y1250 Z400 E5000 ; sets maximum accelerations, mm/sec^2
M203 X180 Y180 Z12 E80 ; sets maximum feedrates, mm/sec
M204 P1250 R1250 T1250 ; sets acceleration (P, T) and retract acceleration (R), mm/sec^2
M205 X8.00 Y8.00 Z2.00 E10.00 ; sets the jerk limits, mm/sec
M205 S0 T0 ; sets the minimum extruding and travel feed rate, mm/sec
M107
;TYPE:Custom
G90 ; use absolute coordinates
M83 ; extruder relative mode
M104 S170 ; set extruder temp for bed leveling
M140 S60 ; set bed temp
M109 R170 ; wait for bed leveling temp
M190 S60 ; wait for bed temp
G28 ; home all without mesh bed level
G29 ; mesh bed leveling 
M104 S215 ; set extruder temp
G92 E0.0
G1 Y-2.0 X179 F2400
G1 Z3 F720
M109 S215 ; wait for extruder temp

; intro line
G1 X170 F1000
G1 Z0.2 F720
G1 X110.0 E8.0 F900
G1 X40.0 E10.0 F700
G92 E0.0

M221 S95 ; set flow
G21 ; set units to millimeters
G90 ; use absolute coordinates
M83 ; use relative distances for extrusion
M900 K0.2 ; Filament gcode LA 1.5
; ; Filament gcode LA 1.0
;LAYER_CHANGE
;Z:0.2
;HEIGHT:0.2
;BEFORE_LAYER_CHANGE
G92 E0.0
;0.2


M73 P1 R21
G1 Z0.200 F9000.000
;AFTER_LAYER_CHANGE
;0.2
G1 E-3.20000 F4200.000
G1 Z0.400 F9000.000
G1 X50.348 Y81.265
G1 Z0.200
G1 E3.20000 F2400.000
M204 S800
;TYPE:Skirt
;WIDTH:0.42
G1 F1200.000
G1 X51.024 Y81.014 E0.02260
G1 X92.381 Y77.126 E1.30245
G1 X128.502 Y77.123 E1.13255
G1 X129.401 Y77.301 E0.02872
G1 X130.163 Y77.803 E0.02860
G1 X130.679 Y78.555 E0.02860
G1 X130.875 Y79.449 E0.02872
G1 X130.864 Y96.729 E0.54179
G1 X130.674 Y97.455 E0.02355
G1 X130.264 Y98.089 E0.02367
G1 X129.679 Y98.560 E0.02355
G1 X128.976 Y98.826 E0.02355
G1 X78.990 Y102.873 E1.57240
G1 X59.639 Y102.871 E0.60675
G1 X58.869 Y102.686 E0.02484
G1 X58.202 Y102.257 E0.02484
G1 X49.833 Y94.573 E0.35623
M73 P2 R21
G1 X49.413 Y94.016 E0.02190
G1 X49.173 Y93.356 E0.02201
G1 X49.151 Y82.990 E0.32502
G1 X49.365 Y82.302 E0.02260
G1 X49.775 Y81.709 E0.02260
G1 X50.300 Y81.302 E0.02084
M204 S1250
; printing object Frantic Jaiks (1).stl id:0 copy 0
G1 E-2.24000 F4200.000
;WIPE_START
G1 F7200.000
G1 X51.024 Y81.014 E-0.43134
G1 X51.887 Y80.933 E-0.48066
;WIPE_END
G1 E-0.04800 F4200.000
G1 Z0.400 F9000.000
G1 X52.289 Y84.130
G1 Z0.200
G1 E3.20000 F2400.000
M204 S800
;TYPE:Perimeter
G1 F1200.000
G1 X77.291 Y84.130 E0.78392
G1 X77.291 Y83.130 E0.03135
G1 X86.711 Y83.130 E0.29538
G1 X86.711 Y92.093 E0.28102
G1 X73.998 Y92.093 E0.39862
G1 X73.544 Y92.880 E0.02850
G1 X77.489 Y99.713 E0.24739
G1 X61.166 Y99.713 E0.51181
G1 X65.565 Y92.093 E0.27587
G1 X52.289 Y92.093 E0.41626
G1 X52.289 Y84.190 E0.24779
M204 S1250
G1 E-2.24000 F4200.000
;WIPE_START
G1 F7200.000
G1 X53.934 Y84.186 E-0.91200
;WIPE_END
G1 E-0.04800 F4200.000
G1 Z0.400 F9000.000
G1 X74.216 Y92.470
G1 Z0.200
G1 E3.20000 F2400.000
M204 S800
;TYPE:External perimeter
G1 F1200.000
G1 X73.979 Y92.880 E0.01484
G1 X78.142 Y100.090 E0.26104
G1 X60.513 Y100.090 E0.55277
G1 X64.912 Y92.470 E0.27587
G1 X51.911 Y92.470 E0.40761
G1 X51.911 Y83.753 E0.27332
G1 X76.913 Y83.753 E0.78392
G1 X76.913 Y82.753 E0.03135
G1 X87.089 Y82.753 E0.31903
G1 X87.089 Y92.470 E0.30467
G1 X74.276 Y92.470 E0.40173
M204 S1250
M73 P3 R21
G1 X73.819 Y92.417 F9000.000
G1 E-2.24000 F4200.000
;WIPE_START
G1 F7200.000
G1 X73.979 Y92.880 E-0.28047
G1 X74.549 Y93.867 E-0.63153
;WIPE_END
G1 E-0.04800 F4200.000
G1 Z0.400 F9000.000
G1 X86.598 Y84.012
G1 Z0.200
G1 E3.20000 F2400.000
M204 S800
;TYPE:Solid infill
;WIDTH:0.423066
G1 F1200.000
G1 X85.999 Y83.413 E0.02678
G1 X85.462 Y83.413 E0.01699
G1 X86.429 Y84.380 E0.04323
G1 X86.429 Y84.917 E0.01699
G1 X84.924 Y83.413 E0.06726
G1 X84.386 Y83.413 E0.01699
G1 X86.429 Y85.455 E0.09129
G1 X86.429 Y85.993 E0.01699
G1 X83.849 Y83.413 E0.11532
G1 X83.311 Y83.413 E0.01699
G1 X86.429 Y86.530 E0.13936
G1 X86.429 Y87.068 E0.01699
G1 X82.774 Y83.413 E0.16339
G1 X82.236 Y83.413 E0.01699
G1 X86.429 Y87.606 E0.18742
G1 X86.429 Y88.143 E0.01699
G1 X81.698 Y83.413 E0.21145
G1 X81.161 Y83.413 E0.01699
G1 X86.429 Y88.681 E0.23549
G1 X86.429 Y89.218 E0.01699
G1 X80.623 Y83.413 E0.25952
G1 X80.086 Y83.413 E0.01699
G1 X86.429 Y89.756 E0.28355
G1 X86.429 Y90.294 E0.01699
G1 X79.548 Y83.413 E0.30758
G1 X79.010 Y83.413 E0.01699
G1 X86.429 Y90.831 E0.33161
G1 X86.429 Y91.369 E0.01699
G1 X78.473 Y83.413 E0.35565
G1 X77.935 Y83.413 E0.01699
G1 X86.332 Y91.810 E0.37538
G1 X85.795 Y91.810 E0.01699
G1 X77.573 Y83.589 E0.36752
G1 X77.573 Y84.126 E0.01699
G1 X85.257 Y91.810 E0.34348
M73 P3 R20
G1 X84.720 Y91.810 E0.01699
G1 X77.322 Y84.413 E0.33067
G1 X76.785 Y84.413 E0.01699
G1 X84.182 Y91.810 E0.33067
G1 X83.644 Y91.810 E0.01699
G1 X76.247 Y84.413 E0.33067
G1 X75.709 Y84.413 E0.01699
G1 X83.107 Y91.810 E0.33067
G1 X82.569 Y91.810 E0.01699
G1 X75.172 Y84.413 E0.33067
G1 X74.634 Y84.413 E0.01699
G1 X82.032 Y91.810 E0.33067
G1 X81.494 Y91.810 E0.01699
G1 X74.097 Y84.413 E0.33067
G1 X73.559 Y84.413 E0.01699
G1 X80.956 Y91.810 E0.33067
G1 X80.419 Y91.810 E0.01699
G1 X73.021 Y84.413 E0.33067
M73 P4 R20
G1 X72.484 Y84.413 E0.01699
G1 X79.881 Y91.810 E0.33067
G1 X79.343 Y91.810 E0.01699
G1 X71.946 Y84.413 E0.33067
G1 X71.409 Y84.413 E0.01699
G1 X78.806 Y91.810 E0.33067
G1 X78.268 Y91.810 E0.01699
G1 X70.871 Y84.413 E0.33067
G1 X70.333 Y84.413 E0.01699
G1 X77.731 Y91.810 E0.33067
G1 X77.193 Y91.810 E0.01699
G1 X69.796 Y84.413 E0.33067
G1 X69.258 Y84.413 E0.01699
G1 X76.655 Y91.810 E0.33067
G1 X76.118 Y91.810 E0.01699
G1 X68.721 Y84.413 E0.33067
G1 X68.183 Y84.413 E0.01699
G1 X75.580 Y91.810 E0.33067
G1 X75.043 Y91.810 E0.01699
G1 X67.645 Y84.413 E0.33067
G1 X67.108 Y84.413 E0.01699
G1 X74.505 Y91.810 E0.33067
G1 X73.967 Y91.810 E0.01699
G1 X66.570 Y84.413 E0.33067
G1 X66.033 Y84.413 E0.01699
G1 X73.687 Y92.067 E0.34215
G1 X73.490 Y92.408 E0.01244
G1 X65.495 Y84.413 E0.35739
G1 X64.957 Y84.413 E0.01699
G1 X73.293 Y92.749 E0.37262
G1 X73.217 Y92.880 E0.00480
G1 X73.668 Y93.662 E0.02852
G1 X64.420 Y84.413 E0.41343
G1 X63.882 Y84.413 E0.01699
G1 X74.403 Y94.934 E0.47031
G1 X75.138 Y96.206 E0.04644
G1 X63.344 Y84.413 E0.52718
G1 X62.807 Y84.413 E0.01699
G1 X75.872 Y97.478 E0.58405
G1 X76.607 Y98.750 E0.04644
G1 X62.269 Y84.413 E0.64092
M73 P5 R20
G1 X61.732 Y84.413 E0.01699
G1 X76.749 Y99.430 E0.67130
G1 X76.211 Y99.430 E0.01699
G1 X61.194 Y84.413 E0.67130
G1 X60.656 Y84.413 E0.01699
G1 X75.674 Y99.430 E0.67130
G1 X75.136 Y99.430 E0.01699
G1 X60.119 Y84.413 E0.67130
G1 X59.581 Y84.413 E0.01699
G1 X74.598 Y99.430 E0.67130
G1 X74.061 Y99.430 E0.01699
G1 X59.044 Y84.413 E0.67130
G1 X58.506 Y84.413 E0.01699
G1 X73.523 Y99.430 E0.67131
G1 X72.986 Y99.430 E0.01699
G1 X65.802 Y92.247 E0.32111
G1 X65.606 Y92.588 E0.01244
G1 X72.448 Y99.430 E0.30587
G1 X71.910 Y99.430 E0.01699
G1 X65.409 Y92.929 E0.29064
G1 X65.212 Y93.269 E0.01244
G1 X71.373 Y99.430 E0.27540
G1 X70.835 Y99.430 E0.01699
G1 X65.015 Y93.610 E0.26016
G1 X64.819 Y93.951 E0.01244
G1 X70.298 Y99.430 E0.24493
G1 X69.760 Y99.430 E0.01699
G1 X64.622 Y94.292 E0.22969
G1 X64.425 Y94.633 E0.01244
G1 X69.222 Y99.430 E0.21445
G1 X68.685 Y99.430 E0.01699
G1 X64.228 Y94.974 E0.19922
G1 X64.031 Y95.314 E0.01244
G1 X68.147 Y99.430 E0.18398
G1 X67.610 Y99.430 E0.01699
G1 X63.835 Y95.655 E0.16875
M73 P6 R20
G1 X63.638 Y95.996 E0.01244
G1 X67.072 Y99.430 E0.15351
G1 X66.534 Y99.430 E0.01699
G1 X63.441 Y96.337 E0.13827
G1 X63.244 Y96.678 E0.01244
G1 X65.997 Y99.430 E0.12304
G1 X65.459 Y99.430 E0.01699
G1 X63.048 Y97.019 E0.10780
G1 X62.851 Y97.359 E0.01244
G1 X64.922 Y99.430 E0.09256
G1 X64.384 Y99.430 E0.01699
G1 X62.654 Y97.700 E0.07733
G1 X62.457 Y98.041 E0.01244
G1 X63.846 Y99.430 E0.06209
G1 X63.309 Y99.430 E0.01699
G1 X62.261 Y98.382 E0.04686
G1 X62.064 Y98.723 E0.01244
G1 X62.771 Y99.430 E0.03162
G1 X62.234 Y99.430 E0.01699
G1 X61.867 Y99.064 E0.01638
G1 X61.670 Y99.404 E0.01244
G1 X61.866 Y99.600 E0.00873
M204 S1250
G1 E-2.24000 F4200.000
;WIPE_START
G1 F7200.000
G1 X61.670 Y99.404 E-0.15308
G1 X61.867 Y99.064 E-0.21810
G1 X62.234 Y99.430 E-0.28721
G1 X62.691 Y99.430 E-0.25361
;WIPE_END
G1 E-0.04800 F4200.000
G1 Z0.400 F9000.000
G1 X65.535 Y91.980
G1 Z0.200
G1 E3.20000 F2400.000
M204 S800
G1 F1200.000
G1 X57.968 Y84.413 E0.33826
G1 X57.431 Y84.413 E0.01699
G1 X64.828 Y91.810 E0.33067
G1 X64.290 Y91.810 E0.01699
G1 X56.893 Y84.413 E0.33067
G1 X56.356 Y84.413 E0.01699
G1 X63.753 Y91.810 E0.33067
G1 X63.215 Y91.810 E0.01699
G1 X55.818 Y84.413 E0.33067
G1 X55.280 Y84.413 E0.01699
G1 X62.678 Y91.810 E0.33067
G1 X62.140 Y91.810 E0.01699
G1 X54.743 Y84.413 E0.33067
G1 X54.205 Y84.413 E0.01699
G1 X61.602 Y91.810 E0.33067
G1 X61.065 Y91.810 E0.01699
G1 X53.668 Y84.413 E0.33067
G1 X53.130 Y84.413 E0.01699
G1 X60.527 Y91.810 E0.33067
G1 X59.990 Y91.810 E0.01699
G1 X52.592 Y84.413 E0.33067
G1 X52.571 Y84.413 E0.00066
G1 X52.571 Y84.929 E0.01633
G1 X59.452 Y91.810 E0.30758
G1 X58.914 Y91.810 E0.01699
G1 X52.571 Y85.467 E0.28355
G1 X52.571 Y86.005 E0.01699
G1 X58.377 Y91.810 E0.25952
G1 X57.839 Y91.810 E0.01699
G1 X52.571 Y86.542 E0.23548
G1 X52.571 Y87.080 E0.01699
G1 X57.302 Y91.810 E0.21145
G1 X56.764 Y91.810 E0.01699
G1 X52.571 Y87.618 E0.18742
G1 X52.571 Y88.155 E0.01699
G1 X56.226 Y91.810 E0.16339
G1 X55.689 Y91.810 E0.01699
G1 X52.571 Y88.693 E0.13935
G1 X52.571 Y89.230 E0.01699
G1 X55.151 Y91.810 E0.11532
G1 X54.614 Y91.810 E0.01699
G1 X52.571 Y89.768 E0.09129
G1 X52.571 Y90.306 E0.01699
G1 X54.076 Y91.810 E0.06726
G1 X53.538 Y91.810 E0.01699
G1 X52.571 Y90.843 E0.04322
G1 X52.571 Y91.381 E0.01699
G1 X53.170 Y91.980 E0.02678
M204 S1250
G1 E-2.24000 F4200.000
;WIPE_START
G1 F7200.000
G1 X52.571 Y91.381 E-0.46946
G1 X52.571 Y90.843 E-0.29792
G1 X52.756 Y91.028 E-0.14461
;WIPE_END
G1 E-0.04800 F4200.000
G1 Z0.400 F9000.000
M73 P7 R20
G1 X122.427 Y87.590
G1 Z0.200
G1 E3.20000 F2400.000
M204 S800
;TYPE:Perimeter
;WIDTH:0.42
G1 F1200.000
G1 X98.918 Y87.590 E0.73709
G1 X103.606 Y95.710 E0.29398
G1 X93.288 Y95.710 E0.32353
G1 X93.288 Y80.287 E0.48357
G1 X127.711 Y80.287 E1.07934
G1 X127.711 Y95.710 E0.48357
G1 X117.739 Y95.710 E0.31269
G1 X122.397 Y87.642 E0.29210
M204 S1250
G1 X121.774 Y87.967 F9000.000
M204 S800
;TYPE:External perimeter
G1 F1200.000
G1 X99.571 Y87.967 E0.69614
G1 X104.259 Y96.087 E0.29398
G1 X92.910 Y96.087 E0.35584
G1 X92.910 Y79.910 E0.50722
G1 X128.089 Y79.910 E1.10298
G1 X128.089 Y96.087 E0.50722
M73 P8 R20
G1 X117.086 Y96.087 E0.34499
G1 X121.744 Y88.019 E0.29210
M204 S1250
G1 X121.686 Y87.577 F9000.000
G1 E-2.24000 F4200.000
;WIPE_START
G1 F7200.000
G1 X120.098 Y88.015 E-0.91200
;WIPE_END
G1 E-0.04800 F4200.000
G1 Z0.400 F9000.000
G1 X127.598 Y81.169
G1 Z0.200
G1 E3.20000 F2400.000
M204 S800
;TYPE:Solid infill
;WIDTH:0.423141
G1 F1200.000
G1 X126.999 Y80.570 E0.02679
G1 X126.461 Y80.570 E0.01700
G1 X127.429 Y81.537 E0.04325
G1 X127.429 Y82.075 E0.01700
G1 X125.924 Y80.570 E0.06729
G1 X125.386 Y80.570 E0.01700
G1 X127.429 Y82.613 E0.09133
G1 X127.429 Y83.150 E0.01700
G1 X124.848 Y80.570 E0.11537
G1 X124.310 Y80.570 E0.01700
G1 X127.429 Y83.688 E0.13941
G1 X127.429 Y84.226 E0.01700
G1 X123.773 Y80.570 E0.16346
G1 X123.235 Y80.570 E0.01700
G1 X127.429 Y84.763 E0.18750
G1 X127.429 Y85.301 E0.01700
G1 X122.697 Y80.570 E0.21154
G1 X122.160 Y80.570 E0.01700
G1 X127.429 Y85.839 E0.23558
M73 P8 R19
G1 X127.429 Y86.377 E0.01700
G1 X121.622 Y80.570 E0.25962
G1 X121.084 Y80.570 E0.01700
G1 X127.429 Y86.914 E0.28367
G1 X127.429 Y87.452 E0.01700
G1 X120.547 Y80.570 E0.30771
G1 X120.009 Y80.570 E0.01700
G1 X127.429 Y87.990 E0.33175
G1 X127.429 Y88.527 E0.01700
G1 X119.471 Y80.570 E0.35579
G1 X118.933 Y80.570 E0.01700
G1 X127.429 Y89.065 E0.37983
G1 X127.429 Y89.603 E0.01700
G1 X118.396 Y80.570 E0.40387
G1 X117.858 Y80.570 E0.01700
G1 X127.429 Y90.141 E0.42792
G1 X127.429 Y90.678 E0.01700
G1 X117.320 Y80.570 E0.45196
G1 X116.783 Y80.570 E0.01700
G1 X127.429 Y91.216 E0.47600
G1 X127.429 Y91.754 E0.01700
G1 X116.245 Y80.570 E0.50004
G1 X115.707 Y80.570 E0.01700
G1 X122.444 Y87.307 E0.30123
G1 X122.917 Y87.307 E0.01493
G1 X122.744 Y87.606 E0.01093
G1 X127.429 Y92.291 E0.20947
G1 X127.429 Y92.829 E0.01700
G1 X122.547 Y87.947 E0.21827
G1 X122.350 Y88.288 E0.01244
G1 X127.429 Y93.367 E0.22707
G1 X127.429 Y93.905 E0.01700
G1 X122.153 Y88.629 E0.23587
M73 P9 R19
G1 X121.956 Y88.970 E0.01244
G1 X127.429 Y94.442 E0.24467
G1 X127.429 Y94.980 E0.01700
G1 X121.760 Y89.311 E0.25347
G1 X121.563 Y89.652 E0.01244
G1 X127.338 Y95.427 E0.25822
G1 X126.800 Y95.427 E0.01700
G1 X121.366 Y89.993 E0.24298
G1 X121.169 Y90.334 E0.01244
G1 X126.263 Y95.427 E0.22773
G1 X125.725 Y95.427 E0.01700
G1 X120.972 Y90.675 E0.21249
G1 X120.776 Y91.015 E0.01244
G1 X125.187 Y95.427 E0.19725
G1 X124.649 Y95.427 E0.01700
G1 X120.579 Y91.356 E0.18201
G1 X120.382 Y91.697 E0.01244
G1 X124.112 Y95.427 E0.16677
G1 X123.574 Y95.427 E0.01700
G1 X120.185 Y92.038 E0.15152
G1 X119.988 Y92.379 E0.01244
G1 X123.036 Y95.427 E0.13628
G1 X122.499 Y95.427 E0.01700
G1 X119.791 Y92.720 E0.12104
G1 X119.595 Y93.061 E0.01244
G1 X121.961 Y95.427 E0.10580
G1 X121.423 Y95.427 E0.01700
G1 X119.398 Y93.402 E0.09056
G1 X119.201 Y93.743 E0.01244
G1 X120.885 Y95.427 E0.07531
G1 X120.348 Y95.427 E0.01700
G1 X119.004 Y94.084 E0.06007
G1 X118.807 Y94.424 E0.01244
G1 X119.810 Y95.427 E0.04483
G1 X119.272 Y95.427 E0.01700
G1 X118.611 Y94.765 E0.02959
G1 X118.414 Y95.106 E0.01244
G1 X118.904 Y95.597 E0.02193
M204 S1250
G1 E-2.24000 F4200.000
;WIPE_START
G1 F7200.000
G1 X118.414 Y95.106 E-0.38444
G1 X118.611 Y94.765 E-0.21814
G1 X119.005 Y95.160 E-0.30942
;WIPE_END
G1 E-0.04800 F4200.000
G1 Z0.400 F9000.000
G1 X122.076 Y87.477
G1 Z0.200
G1 E3.20000 F2400.000
M204 S800
G1 F1200.000
G1 X115.169 Y80.570 E0.30882
G1 X114.632 Y80.570 E0.01700
G1 X121.369 Y87.307 E0.30123
G1 X120.831 Y87.307 E0.01700
G1 X114.094 Y80.570 E0.30123
G1 X113.556 Y80.570 E0.01700
G1 X120.293 Y87.307 E0.30123
G1 X119.756 Y87.307 E0.01700
G1 X113.019 Y80.570 E0.30123
G1 X112.481 Y80.570 E0.01700
G1 X119.218 Y87.307 E0.30123
G1 X118.680 Y87.307 E0.01700
G1 X111.943 Y80.570 E0.30123
G1 X111.405 Y80.570 E0.01700
G1 X118.143 Y87.307 E0.30123
G1 X117.605 Y87.307 E0.01700
G1 X110.868 Y80.570 E0.30123
G1 X110.330 Y80.570 E0.01700
G1 X117.067 Y87.307 E0.30123
G1 X116.529 Y87.307 E0.01700
G1 X109.792 Y80.570 E0.30123
G1 X109.255 Y80.570 E0.01700
G1 X115.992 Y87.307 E0.30123
G1 X115.454 Y87.307 E0.01700
G1 X108.717 Y80.570 E0.30123
G1 X108.179 Y80.570 E0.01700
G1 X114.916 Y87.307 E0.30123
M73 P10 R19
G1 X114.379 Y87.307 E0.01700
G1 X107.641 Y80.570 E0.30123
G1 X107.104 Y80.570 E0.01700
G1 X113.841 Y87.307 E0.30123
G1 X113.303 Y87.307 E0.01700
G1 X106.566 Y80.570 E0.30123
G1 X106.028 Y80.570 E0.01700
G1 X112.765 Y87.307 E0.30123
G1 X112.228 Y87.307 E0.01700
G1 X105.491 Y80.570 E0.30123
G1 X104.953 Y80.570 E0.01700
G1 X111.690 Y87.307 E0.30123
G1 X111.152 Y87.307 E0.01700
G1 X104.415 Y80.570 E0.30123
G1 X103.877 Y80.570 E0.01700
G1 X110.615 Y87.307 E0.30123
G1 X110.077 Y87.307 E0.01700
G1 X103.340 Y80.570 E0.30123
G1 X102.802 Y80.570 E0.01700
G1 X109.539 Y87.307 E0.30123
G1 X109.002 Y87.307 E0.01700
G1 X102.264 Y80.570 E0.30123
G1 X101.727 Y80.570 E0.01700
G1 X108.464 Y87.307 E0.30123
G1 X107.926 Y87.307 E0.01700
G1 X101.189 Y80.570 E0.30123
G1 X100.651 Y80.570 E0.01700
G1 X107.388 Y87.307 E0.30123
G1 X106.851 Y87.307 E0.01700
G1 X100.113 Y80.570 E0.30123
G1 X99.576 Y80.570 E0.01700
G1 X106.313 Y87.307 E0.30123
G1 X105.775 Y87.307 E0.01700
G1 X99.038 Y80.570 E0.30123
G1 X98.500 Y80.570 E0.01700
G1 X105.238 Y87.307 E0.30123
G1 X104.700 Y87.307 E0.01700
G1 X97.963 Y80.570 E0.30123
G1 X97.425 Y80.570 E0.01700
G1 X104.162 Y87.307 E0.30123
G1 X103.624 Y87.307 E0.01700
G1 X96.887 Y80.570 E0.30123
G1 X96.349 Y80.570 E0.01700
G1 X103.087 Y87.307 E0.30123
G1 X102.549 Y87.307 E0.01700
G1 X95.812 Y80.570 E0.30123
G1 X95.274 Y80.570 E0.01700
G1 X102.011 Y87.307 E0.30123
M73 P11 R19
G1 X101.474 Y87.307 E0.01700
