; generated by PrusaSlicer 2.3.0+win64 on 2021-07-27 at 03:04:16 UTC

; 

; external perimeters extrusion width = 0.25mm
; perimeters extrusion width = 0.25mm
; infill extrusion width = 0.25mm
; solid infill extrusion width = 0.25mm
; top infill extrusion width = 0.25mm
; support material extrusion width = 0.20mm
; first layer extrusion width = 0.30mm

M73 P0 R249
M73 Q0 S252
M201 X1000 Y1000 Z200 E5000 ; sets maximum accelerations, mm/sec^2
M203 X200 Y200 Z12 E120 ; sets maximum feedrates, mm/sec
M204 P1250 R1250 T1250 ; sets acceleration (P, T) and retract acceleration (R), mm/sec^2
M205 X8.00 Y8.00 Z0.40 E4.50 ; sets the jerk limits, mm/sec
M205 S0 T0 ; sets the minimum extruding and travel feed rate, mm/sec
M107
;TYPE:Custom
M862.3 P "MK3" ; printer model check
M862.1 P0.25 ; nozzle diameter check
M115 U3.9.2 ; tell printer latest fw version
G90 ; use absolute coordinates
M83 ; extruder relative mode
M104 S215 ; set extruder temp
M140 S60 ; set bed temp
M190 S60 ; wait for bed temp
M109 S215 ; wait for extruder temp
G28 W ; home all without mesh bed level
G80 ; mesh bed leveling
G1 Y-3.0 F1000.0 ; go outside print area
G92 E0.0
G1 X60.0 E8.0 F700.0 ; intro line
M73 Q0 S251
G1 X100.0 E12.5 F700.0 ; intro line
G92 E0.0
M221 S95

; Don't change E value below. Excessive value can damage the printer.
M907 E430 ; set extruder motor current
G21 ; set units to millimeters
G90 ; use absolute coordinates
M83 ; use relative distances for extrusion
M900 K30; Filament gcode
;LAYER_CHANGE
;Z:0.15
;HEIGHT:0.15
;BEFORE_LAYER_CHANGE
G92 E0.0
;0.15


G1 E-0.80000 F2100.000
G1 Z0.150 F10800.000
;AFTER_LAYER_CHANGE
;0.15
G1 Z0.300
G1 X70.245 Y143.405
G1 Z0.150
G1 E0.80000 F2100.000
M204 S500
;TYPE:Skirt
;WIDTH:0.3
G1 F1200.000
G1 X69.847 Y142.725 E0.01317
G1 X69.706 Y141.953 E0.01311
G1 X69.706 Y68.056 E1.23418
G1 X69.760 Y67.572 E0.00812
G1 X69.917 Y67.108 E0.00819
G1 X70.170 Y66.688 E0.00819
G1 X70.505 Y66.335 E0.00812
G1 X70.993 Y66.018 E0.00973
G1 X71.547 Y65.836 E0.00973
G1 X78.740 Y64.757 E0.12148
G1 X161.583 Y57.748 E1.38853
G1 X171.067 Y57.621 E0.15842
G1 X171.844 Y57.759 E0.01317
G1 X172.525 Y58.155 E0.01317
G1 X176.223 Y61.804 E0.08677
G1 X176.567 Y62.256 E0.00948
G1 X176.859 Y63.128 E0.01536
G1 X177.292 Y68.344 E0.08742
G1 X177.309 Y141.750 E1.22598
G1 X176.902 Y146.841 E0.08529
G1 X176.696 Y147.575 E0.01274
G1 X176.269 Y148.190 E0.01249
G1 X172.534 Y151.838 E0.08719
G1 X171.889 Y152.224 E0.01256
G1 X171.149 Y152.378 E0.01262
G1 X161.604 Y152.254 E0.15944
G1 X73.982 Y145.244 E1.46808
G1 X73.287 Y145.073 E0.01194
G1 X70.971 Y143.971 E0.04285
G1 X70.275 Y143.428 E0.01474
M204 S1000
; printing object glasses.stl id:0 copy 0
;WIPE_START
G1 F8640.000
G1 X69.847 Y142.725 E-0.19012
G1 X69.706 Y141.953 E-0.18120
G1 X69.706 Y140.269 E-0.38868
;WIPE_END
G1 E-0.04000 F2100.000
G1 Z0.300 F10800.000
G1 X71.974 Y141.937
G1 Z0.150
G1 E0.80000 F2100.000
M204 S500
;TYPE:Support material
G1 F1200.000
G1 X71.974 Y130.077 E0.19807
G1 X72.509 Y130.077 E0.00895
G1 X72.509 Y141.937 E0.19807
M204 S1000
;WIPE_START
G1 F8640.000
G1 X72.509 Y138.645 E-0.76000
;WIPE_END
G1 E-0.04000 F2100.000
G1 Z0.300 F10800.000
G1 X72.509 Y118.581
G1 Z0.150
G1 E0.80000 F2100.000
M204 S500
G1 F1200.000
G1 X72.509 Y98.547 E0.33460
G1 X71.974 Y98.547 E0.00895
G1 X71.974 Y118.581 E0.33460
M204 S1000
;WIPE_START
G1 F8640.000
G1 X71.974 Y115.289 E-0.76000
;WIPE_END
G1 E-0.04000 F2100.000
G1 Z0.300 F10800.000
G1 X171.063 Y150.112
G1 Z0.150
G1 E0.80000 F2100.000
M204 S500
G1 F1200.000
G1 X171.063 Y146.829 E0.05482
G1 X170.528 Y146.786 E0.00897
G1 X170.528 Y149.991 E0.05352
G1 X169.992 Y149.991 E0.00895
G1 X169.992 Y146.744 E0.05424
G1 X169.456 Y146.701 E0.00897
G1 X169.456 Y149.991 E0.05495
G1 X168.921 Y149.991 E0.00895
G1 X168.921 Y146.658 E0.05566
G1 X168.385 Y146.615 E0.00897
G1 X168.385 Y149.991 E0.05638
G1 X167.850 Y149.991 E0.00895
G1 X167.850 Y141.756 E0.13754
G1 X167.314 Y141.756 E0.00895
G1 X167.314 Y149.991 E0.13754
G1 X166.778 Y149.991 E0.00895
G1 X166.778 Y141.756 E0.13754
G1 X166.243 Y141.756 E0.00895
G1 X166.243 Y149.991 E0.13754
G1 X165.707 Y149.991 E0.00895
G1 X165.707 Y141.756 E0.13754
G1 X165.171 Y141.756 E0.00895
G1 X165.171 Y149.991 E0.13754
G1 X164.636 Y149.991 E0.00895
G1 X164.636 Y141.756 E0.13754
G1 X164.100 Y141.756 E0.00895
G1 X164.100 Y149.991 E0.13754
G1 X163.565 Y149.991 E0.00895
G1 X163.565 Y141.756 E0.13754
G1 X163.029 Y141.756 E0.00895
G1 X163.029 Y149.991 E0.13754
G1 X162.493 Y149.991 E0.00895
G1 X162.493 Y141.756 E0.13754
G1 X161.958 Y141.756 E0.00895
G1 X161.958 Y149.991 E0.13754
G1 X161.756 Y149.991 E0.00338
G1 X161.756 Y148.823 E0.01950
G1 X161.422 Y148.823 E0.00557
G1 X161.422 Y140.588 E0.13754
G1 X160.886 Y140.588 E0.00895
G1 X160.886 Y148.823 E0.13754
G1 X160.351 Y148.823 E0.00895
G1 X160.351 Y140.588 E0.13754
G1 X159.815 Y140.588 E0.00895
G1 X159.815 Y148.823 E0.13754
G1 X159.280 Y148.823 E0.00895
G1 X159.280 Y140.588 E0.13754
G1 X158.744 Y140.588 E0.00895
G1 X158.744 Y148.823 E0.13754
G1 X158.208 Y148.823 E0.00895
G1 X158.208 Y140.588 E0.13754
G1 X157.673 Y140.588 E0.00895
G1 X157.673 Y148.823 E0.13754
G1 X157.137 Y148.823 E0.00895
G1 X157.137 Y140.588 E0.13754
M73 P0 R248
G1 X156.602 Y140.588 E0.00895
G1 X156.602 Y148.823 E0.13754
G1 X156.066 Y148.823 E0.00895
G1 X156.066 Y140.588 E0.13754
G1 X155.530 Y140.588 E0.00895
G1 X155.530 Y148.823 E0.13754
G1 X154.995 Y148.823 E0.00895
G1 X154.995 Y140.588 E0.13754
G1 X154.459 Y140.588 E0.00895
G1 X154.459 Y148.823 E0.13754
G1 X153.923 Y148.823 E0.00895
G1 X153.923 Y140.588 E0.13754
G1 X153.388 Y140.588 E0.00895
G1 X153.388 Y148.823 E0.13754
G1 X152.852 Y148.823 E0.00895
G1 X152.852 Y140.588 E0.13754
G1 X152.317 Y140.588 E0.00895
G1 X152.317 Y148.823 E0.13754
G1 X151.781 Y148.823 E0.00895
G1 X151.781 Y140.588 E0.13754
G1 X151.245 Y140.588 E0.00895
G1 X151.245 Y148.823 E0.13754
G1 X150.710 Y148.823 E0.00895
G1 X150.710 Y140.588 E0.13754
G1 X150.174 Y140.588 E0.00895
G1 X150.174 Y148.823 E0.13754
G1 X149.638 Y148.823 E0.00895
G1 X149.638 Y140.588 E0.13754
G1 X149.103 Y140.588 E0.00895
G1 X149.103 Y148.823 E0.13754
G1 X148.567 Y148.823 E0.00895
G1 X148.567 Y140.588 E0.13754
G1 X148.032 Y140.588 E0.00895
G1 X148.032 Y148.823 E0.13754
G1 X147.742 Y148.823 E0.00484
G1 X147.742 Y147.655 E0.01950
G1 X147.496 Y147.655 E0.00411
G1 X147.496 Y139.420 E0.13754
G1 X146.960 Y139.420 E0.00895
G1 X146.960 Y147.655 E0.13754
G1 X146.425 Y147.655 E0.00895
G1 X146.425 Y139.420 E0.13754
G1 X145.889 Y139.420 E0.00895
G1 X145.889 Y147.655 E0.13754
G1 X145.354 Y147.655 E0.00895
G1 X145.354 Y139.420 E0.13754
G1 X144.818 Y139.420 E0.00895
G1 X144.818 Y147.655 E0.13754
G1 X144.282 Y147.655 E0.00895
G1 X144.282 Y139.420 E0.13754
G1 X143.747 Y139.420 E0.00895
G1 X143.747 Y147.655 E0.13754
G1 X143.211 Y147.655 E0.00895
G1 X143.211 Y139.420 E0.13754
G1 X142.675 Y139.420 E0.00895
G1 X142.675 Y147.655 E0.13754
G1 X142.140 Y147.655 E0.00895
G1 X142.140 Y139.420 E0.13754
G1 X141.604 Y139.420 E0.00895
G1 X141.604 Y147.655 E0.13754
G1 X141.069 Y147.655 E0.00895
G1 X141.069 Y139.420 E0.13754
G1 X140.533 Y139.420 E0.00895
G1 X140.533 Y147.655 E0.13754
G1 X139.997 Y147.655 E0.00895
G1 X139.997 Y139.420 E0.13754
G1 X139.462 Y139.420 E0.00895
G1 X139.462 Y147.655 E0.13754
M73 Q0 S250
G1 X138.926 Y147.655 E0.00895
G1 X138.926 Y139.420 E0.13754
G1 X138.390 Y139.420 E0.00895
G1 X138.390 Y147.655 E0.13754
G1 X137.855 Y147.655 E0.00895
G1 X137.855 Y139.420 E0.13754
G1 X137.319 Y139.420 E0.00895
G1 X137.319 Y147.655 E0.13754
G1 X136.784 Y147.655 E0.00895
G1 X136.784 Y139.420 E0.13754
G1 X136.248 Y139.420 E0.00895
G1 X136.248 Y147.655 E0.13754
G1 X135.712 Y147.655 E0.00895
G1 X135.712 Y139.420 E0.13754
G1 X135.177 Y139.420 E0.00895
G1 X135.177 Y147.655 E0.13754
G1 X134.641 Y147.655 E0.00895
G1 X134.641 Y139.420 E0.13754
G1 X134.106 Y139.420 E0.00895
G1 X134.106 Y147.655 E0.13754
G1 X133.570 Y147.655 E0.00895
G1 X133.570 Y139.420 E0.13754
G1 X133.034 Y139.420 E0.00895
G1 X133.034 Y147.655 E0.13754
G1 X132.560 Y147.655 E0.00792
G1 X132.560 Y146.488 E0.01950
G1 X132.499 Y146.488 E0.00103
G1 X132.499 Y138.252 E0.13754
G1 X131.963 Y138.252 E0.00895
G1 X131.963 Y146.488 E0.13754
G1 X131.427 Y146.488 E0.00895
G1 X131.427 Y138.252 E0.13754
G1 X130.892 Y138.252 E0.00895
G1 X130.892 Y146.488 E0.13754
G1 X130.356 Y146.488 E0.00895
G1 X130.356 Y138.252 E0.13754
G1 X129.821 Y138.252 E0.00895
G1 X129.821 Y146.488 E0.13754
G1 X129.285 Y146.488 E0.00895
G1 X129.285 Y138.252 E0.13754
G1 X128.749 Y138.252 E0.00895
G1 X128.749 Y146.488 E0.13754
G1 X128.214 Y146.488 E0.00895
G1 X128.214 Y138.252 E0.13754
G1 X127.678 Y138.252 E0.00895
G1 X127.678 Y146.488 E0.13754
G1 X127.142 Y146.488 E0.00895
G1 X127.142 Y138.252 E0.13754
G1 X126.607 Y138.252 E0.00895
G1 X126.607 Y146.488 E0.13754
G1 X126.071 Y146.488 E0.00895
G1 X126.071 Y138.252 E0.13754
G1 X125.536 Y138.252 E0.00895
G1 X125.536 Y146.488 E0.13754
G1 X125.000 Y146.488 E0.00895
G1 X125.000 Y138.252 E0.13754
G1 X124.464 Y138.252 E0.00895
G1 X124.464 Y146.488 E0.13754
G1 X123.929 Y146.488 E0.00895
G1 X123.929 Y138.252 E0.13754
G1 X123.393 Y138.252 E0.00895
G1 X123.393 Y146.488 E0.13754
G1 X122.858 Y146.488 E0.00895
G1 X122.858 Y138.252 E0.13754
G1 X122.322 Y138.252 E0.00895
G1 X122.322 Y146.488 E0.13754
G1 X121.786 Y146.488 E0.00895
G1 X121.786 Y138.252 E0.13754
G1 X121.251 Y138.252 E0.00895
G1 X121.251 Y146.488 E0.13754
G1 X120.715 Y146.488 E0.00895
G1 X120.715 Y138.252 E0.13754
G1 X120.179 Y138.252 E0.00895
G1 X120.179 Y146.488 E0.13754
G1 X119.644 Y146.488 E0.00895
G1 X119.644 Y138.252 E0.13754
G1 X119.108 Y138.252 E0.00895
G1 X119.108 Y146.488 E0.13754
G1 X118.573 Y146.488 E0.00895
G1 X118.573 Y137.084 E0.15705
G1 X118.037 Y137.084 E0.00895
G1 X118.037 Y145.320 E0.13754
G1 X117.501 Y145.320 E0.00895
G1 X117.501 Y137.084 E0.13754
G1 X116.966 Y137.084 E0.00895
G1 X116.966 Y145.320 E0.13754
G1 X116.430 Y145.320 E0.00895
G1 X116.430 Y137.084 E0.13754
G1 X115.894 Y137.084 E0.00895
G1 X115.894 Y145.320 E0.13754
G1 X115.359 Y145.320 E0.00895
G1 X115.359 Y137.084 E0.13754
G1 X114.823 Y137.084 E0.00895
G1 X114.823 Y145.320 E0.13754
G1 X114.288 Y145.320 E0.00895
G1 X114.288 Y137.084 E0.13754
G1 X113.752 Y137.084 E0.00895
G1 X113.752 Y145.320 E0.13754
G1 X113.216 Y145.320 E0.00895
G1 X113.216 Y137.084 E0.13754
G1 X112.681 Y137.084 E0.00895
G1 X112.681 Y145.320 E0.13754
G1 X112.145 Y145.320 E0.00895
G1 X112.145 Y137.084 E0.13754
G1 X111.610 Y137.084 E0.00895
G1 X111.610 Y145.320 E0.13754
G1 X111.074 Y145.320 E0.00895
G1 X111.074 Y137.084 E0.13754
G1 X110.538 Y137.084 E0.00895
G1 X110.538 Y145.320 E0.13754
G1 X110.003 Y145.320 E0.00895
G1 X110.003 Y137.084 E0.13754
G1 X109.467 Y137.084 E0.00895
G1 X109.467 Y145.320 E0.13754
G1 X108.931 Y145.320 E0.00895
G1 X108.931 Y137.084 E0.13754
G1 X108.396 Y137.084 E0.00895
G1 X108.396 Y145.320 E0.13754
G1 X107.860 Y145.320 E0.00895
G1 X107.860 Y137.084 E0.13754
G1 X107.325 Y137.084 E0.00895
G1 X107.325 Y145.320 E0.13754
G1 X106.789 Y145.320 E0.00895
G1 X106.789 Y137.084 E0.13754
G1 X106.253 Y137.084 E0.00895
G1 X106.253 Y145.320 E0.13754
G1 X105.718 Y145.320 E0.00895
G1 X105.718 Y137.084 E0.13754
G1 X105.182 Y137.084 E0.00895
G1 X105.182 Y145.320 E0.13754
G1 X104.646 Y145.320 E0.00895
G1 X104.646 Y137.084 E0.13754
G1 X104.111 Y137.084 E0.00895
G1 X104.111 Y145.320 E0.13754
G1 X103.575 Y145.320 E0.00895
G1 X103.575 Y137.084 E0.13754
G1 X103.426 Y137.084 E0.00249
G1 X103.426 Y135.917 E0.01950
G1 X103.040 Y135.917 E0.00645
G1 X103.040 Y144.152 E0.13754
G1 X102.504 Y144.152 E0.00895
G1 X102.504 Y135.917 E0.13754
G1 X101.968 Y135.917 E0.00895
G1 X101.968 Y144.152 E0.13754
G1 X101.433 Y144.152 E0.00895
G1 X101.433 Y135.917 E0.13754
G1 X100.897 Y135.917 E0.00895
G1 X100.897 Y144.152 E0.13754
G1 X100.362 Y144.152 E0.00895
G1 X100.362 Y135.917 E0.13754
G1 X99.826 Y135.917 E0.00895
G1 X99.826 Y144.152 E0.13754
G1 X99.290 Y144.152 E0.00895
G1 X99.290 Y135.917 E0.13754
G1 X98.755 Y135.917 E0.00895
G1 X98.755 Y144.152 E0.13754
G1 X98.219 Y144.152 E0.00895
G1 X98.219 Y135.917 E0.13754
G1 X97.683 Y135.917 E0.00895
G1 X97.683 Y144.152 E0.13754
G1 X97.148 Y144.152 E0.00895
G1 X97.148 Y135.917 E0.13754
G1 X96.612 Y135.917 E0.00895
G1 X96.612 Y144.152 E0.13754
G1 X96.077 Y144.152 E0.00895
G1 X96.077 Y135.917 E0.13754
G1 X95.541 Y135.917 E0.00895
G1 X95.541 Y144.152 E0.13754
G1 X95.005 Y144.152 E0.00895
G1 X95.005 Y135.917 E0.13754
G1 X94.470 Y135.917 E0.00895
G1 X94.470 Y144.152 E0.13754
G1 X93.934 Y144.152 E0.00895
G1 X93.934 Y135.917 E0.13754
G1 X93.398 Y135.917 E0.00895
G1 X93.398 Y144.152 E0.13754
G1 X92.863 Y144.152 E0.00895
G1 X92.863 Y135.917 E0.13754
G1 X92.327 Y135.917 E0.00895
G1 X92.327 Y144.152 E0.13754
G1 X91.792 Y144.152 E0.00895
G1 X91.792 Y135.917 E0.13754
G1 X91.256 Y135.917 E0.00895
G1 X91.256 Y144.152 E0.13754
G1 X90.720 Y144.152 E0.00895
G1 X90.720 Y135.917 E0.13754
G1 X90.185 Y135.917 E0.00895
G1 X90.185 Y144.152 E0.13754
G1 X89.649 Y144.152 E0.00895
G1 X89.649 Y135.917 E0.13754
G1 X89.412 Y135.917 E0.00396
G1 X89.412 Y134.749 E0.01950
G1 X89.114 Y134.749 E0.00499
G1 X89.114 Y142.984 E0.13754
G1 X88.578 Y142.984 E0.00895
G1 X88.578 Y134.749 E0.13754
M73 P0 R247
G1 X88.042 Y134.749 E0.00895
G1 X88.042 Y142.984 E0.13754
G1 X87.507 Y142.984 E0.00895
G1 X87.507 Y134.749 E0.13754
G1 X86.971 Y134.749 E0.00895
G1 X86.971 Y142.984 E0.13754
G1 X86.435 Y142.984 E0.00895
G1 X86.435 Y134.749 E0.13754
G1 X85.900 Y134.749 E0.00895
G1 X85.900 Y142.984 E0.13754
G1 X85.364 Y142.984 E0.00895
G1 X85.364 Y134.628 E0.13956
M204 S1000
G1 X84.829 Y143.105 F10800.000
M204 S500
G1 F1200.000
G1 X84.829 Y67.016 E1.27079
G1 X84.293 Y67.016 E0.00895
G1 X84.293 Y142.984 E1.26877
G1 X83.757 Y142.984 E0.00895
G1 X83.757 Y67.016 E1.26877
G1 X83.222 Y67.016 E0.00895
G1 X83.222 Y142.984 E1.26877
M73 Q0 S249
G1 X82.686 Y142.984 E0.00895
G1 X82.686 Y67.016 E1.26877
G1 X82.150 Y67.016 E0.00895
G1 X82.150 Y142.984 E1.26877
G1 X81.615 Y142.984 E0.00895
G1 X81.615 Y67.016 E1.26877
G1 X81.079 Y67.016 E0.00895
G1 X81.079 Y142.984 E1.26877
G1 X80.544 Y142.984 E0.00895
G1 X80.544 Y67.016 E1.26877
G1 X80.008 Y67.016 E0.00895
G1 X80.008 Y142.984 E1.26877
G1 X79.472 Y142.984 E0.00895
G1 X79.472 Y67.016 E1.26877
M73 P1 R247
M73 Q1 S249
G1 X78.937 Y67.016 E0.00895
G1 X78.937 Y142.984 E1.26877
G1 X78.401 Y142.984 E0.00895
G1 X78.401 Y68.184 E1.24927
G1 X77.866 Y68.184 E0.00895
G1 X77.866 Y142.984 E1.24927
G1 X77.330 Y142.984 E0.00895
G1 X77.330 Y68.184 E1.24927
M73 P1 R246
G1 X76.794 Y68.184 E0.00895
G1 X76.794 Y142.984 E1.24927
G1 X76.259 Y142.984 E0.00895
G1 X76.259 Y68.184 E1.24927
G1 X75.723 Y68.184 E0.00895
G1 X75.723 Y142.984 E1.24927
G1 X75.187 Y142.984 E0.00895
G1 X75.187 Y68.184 E1.24927
M73 Q1 S248
G1 X74.652 Y68.184 E0.00895
G1 X74.652 Y142.984 E1.24927
G1 X74.170 Y142.984 E0.00805
G1 X74.170 Y141.816 E0.01950
G1 X74.116 Y141.816 E0.00090
G1 X74.116 Y68.184 E1.22977
G1 X73.581 Y68.184 E0.00895
G1 X73.581 Y141.816 E1.22977
G1 X73.045 Y141.816 E0.00895
G1 X73.045 Y68.184 E1.22977
G1 X72.509 Y68.184 E0.00895
G1 X72.509 Y79.922 E0.19606
G1 X71.974 Y79.922 E0.00895
G1 X71.974 Y68.063 E0.19807
M204 S1000
G1 X85.364 Y80.043 F10800.000
M204 S500
G1 F1200.000
G1 X85.364 Y67.016 E0.21757
G1 X85.900 Y67.016 E0.00895
G1 X85.900 Y79.922 E0.21556
G1 X86.435 Y79.922 E0.00895
G1 X86.435 Y67.016 E0.21556
G1 X86.971 Y67.016 E0.00895
G1 X86.971 Y79.922 E0.21556
G1 X87.507 Y79.922 E0.00895
G1 X87.507 Y67.016 E0.21556
G1 X88.042 Y67.016 E0.00895
G1 X88.042 Y79.922 E0.21556
G1 X88.578 Y79.922 E0.00895
G1 X88.578 Y67.016 E0.21556
G1 X89.114 Y67.016 E0.00895
G1 X89.114 Y79.922 E0.21556
G1 X89.412 Y79.922 E0.00499
G1 X89.412 Y78.755 E0.01950
G1 X89.649 Y78.755 E0.00396
G1 X89.649 Y67.016 E0.19606
G1 X90.185 Y67.016 E0.00895
G1 X90.185 Y78.755 E0.19606
G1 X90.720 Y78.755 E0.00895
G1 X90.720 Y67.016 E0.19606
G1 X91.256 Y67.016 E0.00895
G1 X91.256 Y78.755 E0.19606
G1 X91.792 Y78.755 E0.00895
G1 X91.792 Y67.016 E0.19606
G1 X92.327 Y67.016 E0.00895
G1 X92.327 Y78.755 E0.19606
G1 X92.863 Y78.755 E0.00895
G1 X92.863 Y65.848 E0.21556
G1 X93.398 Y65.848 E0.00895
G1 X93.398 Y78.755 E0.21556
G1 X93.934 Y78.755 E0.00895
