; generated by PrusaSlicer 2.3.0+win64 on 2021-09-04 at 18:03:32 UTC

; 

; external perimeters extrusion width = 0.45mm
; perimeters extrusion width = 0.45mm
; infill extrusion width = 0.45mm
; solid infill extrusion width = 0.45mm
; top infill extrusion width = 0.40mm
; support material extrusion width = 0.35mm
; first layer extrusion width = 0.42mm

M73 P0 R218
M73 Q0 S219
M201 X1000 Y1000 Z200 E5000 ; sets maximum accelerations, mm/sec^2
M203 X200 Y200 Z12 E120 ; sets maximum feedrates, mm/sec
M204 P1250 R1250 T1250 ; sets acceleration (P, T) and retract acceleration (R), mm/sec^2
M205 X8.00 Y8.00 Z0.40 E4.50 ; sets the jerk limits, mm/sec
M205 S0 T0 ; sets the minimum extruding and travel feed rate, mm/sec
M107
;TYPE:Custom
; M862.3 P "MK3S" ; printer model check
M862.1 P0.4 ; nozzle diameter check
M115 U3.9.0 ; tell printer latest fw version
G90 ; use absolute coordinates
M83 ; extruder relative mode
M104 S215 ; set extruder temp
M140 S60 ; set bed temp
M190 S60 ; wait for bed temp
M109 S215 ; wait for extruder temp
G28 W ; home all without mesh bed level
G80 ; mesh bed leveling
G1 Y-3.0 F1000.0 ; go outside print area
G92 E0.0
G1 X60.0 E9.0 F1000.0 ; intro line
G1 X100.0 E12.5 F1000.0 ; intro line
G92 E0.0
M221 S95
G21 ; set units to millimeters
G90 ; use absolute coordinates
M83 ; use relative distances for extrusion
M900 K0.06 ; Filament gcode LA 1.5
M900 K30 ; Filament gcode LA 1.0
;LAYER_CHANGE
;Z:0.2
;HEIGHT:0.2
;BEFORE_LAYER_CHANGE
G92 E0.0
;0.2


G1 E-0.80000 F2100.000
G1 Z0.600 F10800.000
;AFTER_LAYER_CHANGE
;0.2
G1 X21.227 Y77.194
G1 Z0.200
G1 E0.80000 F2100.000
M204 S1000
;TYPE:Skirt
;WIDTH:0.42
G1 F1200.000
G1 X21.949 Y76.607 E0.02919
G1 X26.540 Y74.287 E0.16126
G1 X27.078 Y74.100 E0.01787
G1 X27.570 Y74.046 E0.01550
G1 X35.627 Y74.046 E0.25263
G1 X134.615 Y76.591 E3.10472
G1 X226.790 Y101.633 E2.99484
G1 X227.439 Y101.947 E0.02260
G1 X227.962 Y102.437 E0.02249
G1 X228.315 Y103.062 E0.02249
G1 X228.466 Y103.766 E0.02260
G1 X228.814 Y116.072 E0.38600
G1 X228.755 Y132.414 E0.51237
G1 X228.651 Y133.085 E0.02130
G1 X228.334 Y133.741 E0.02284
G1 X227.833 Y134.270 E0.02284
M73 P0 R217
G1 X227.196 Y134.622 E0.02284
G1 X226.477 Y134.765 E0.02296
G1 X134.583 Y137.042 E2.88216
G1 X95.574 Y137.041 E1.22312
G1 X50.856 Y135.159 E1.40334
G1 X47.818 Y134.985 E0.09540
G1 X47.303 Y134.887 E0.01645
G1 X46.666 Y134.583 E0.02213
G1 X46.150 Y134.107 E0.02201
G1 X39.241 Y124.899 E0.36095
G1 X34.553 Y117.870 E0.26491
G1 X27.752 Y106.310 E0.42053
G1 X25.298 Y101.670 E0.16457
G1 X20.914 Y92.667 E0.31397
G1 X20.725 Y92.089 E0.01906
G1 X20.684 Y78.628 E0.42206
G1 X20.837 Y77.866 E0.02437
G1 X21.197 Y77.246 E0.02249
;WIPE_START
G1 F8640.000
G1 X21.949 Y76.607 E-0.22797
G1 X24.006 Y75.568 E-0.53203
;WIPE_END
G1 E-0.04000 F2100.000
G1 Z0.800 F10800.000
G1 X37.257 Y71.781
G1 Z0.200
G1 E0.80000 F2100.000
G1 F1200.000
G1 X36.016 Y71.521 E0.03977
G1 X27.184 Y71.521 E0.27693
G1 X25.740 Y71.861 E0.04651
G1 X24.445 Y72.633 E0.04726
G1 X23.674 Y73.435 E0.03487
G1 X23.450 Y73.812 E0.01377
G1 X22.498 Y73.825 E0.02984
G1 X21.500 Y74.040 E0.03201
G1 X20.175 Y74.723 E0.04675
G1 X19.165 Y75.708 E0.04424
G1 X18.578 Y76.675 E0.03546
G1 X18.237 Y77.712 E0.03422
G1 X18.273 Y92.862 E0.47502
G1 X18.592 Y93.703 E0.02822
G1 X19.051 Y94.449 E0.02746
G1 X20.097 Y95.486 E0.04618
G1 X20.420 Y95.678 E0.01177
G1 X20.426 Y96.459 E0.02449
G1 X20.599 Y97.437 E0.03116
G1 X21.264 Y98.825 E0.04824
G1 X22.206 Y99.852 E0.04371
G1 X22.532 Y100.063 E0.01218
G1 X22.563 Y101.332 E0.03980
G1 X23.068 Y102.907 E0.05183
G1 X23.610 Y103.702 E0.03019
G1 X24.356 Y104.460 E0.03334
G1 X24.960 Y104.814 E0.02196
G1 X24.997 Y106.022 E0.03788
G1 X25.303 Y107.075 E0.03438
G1 X25.856 Y108.059 E0.03541
G1 X26.895 Y109.121 E0.04660
G1 X27.555 Y109.504 E0.02390
G1 X28.081 Y110.445 E0.03381
G1 X28.981 Y111.351 E0.04005
G1 X29.472 Y111.666 E0.01828
G1 X29.492 Y112.674 E0.03161
G1 X29.909 Y114.119 E0.04715
G1 X30.543 Y115.121 E0.03717
G1 X31.301 Y115.888 E0.03382
G1 X31.682 Y116.126 E0.01406
G1 X31.710 Y117.354 E0.03850
G1 X31.991 Y118.411 E0.03431
G1 X32.551 Y119.452 E0.03704
G1 X33.522 Y120.471 E0.04415
G1 X34.220 Y120.942 E0.02640
G1 X34.527 Y121.074 E0.01047
G1 X35.023 Y121.932 E0.03108
G1 X35.924 Y122.816 E0.03959
G1 X36.255 Y123.031 E0.01236
G1 X36.288 Y124.256 E0.03844
G1 X36.580 Y125.318 E0.03454
G1 X37.159 Y126.359 E0.03732
G1 X37.959 Y127.215 E0.03672
G1 X38.587 Y127.685 E0.02462
G1 X39.033 Y127.887 E0.01534
G1 X39.488 Y128.702 E0.02927
G1 X40.444 Y129.661 E0.04244
G1 X41.258 Y130.177 E0.03022
G1 X41.541 Y130.282 E0.00947
G1 X41.557 Y130.888 E0.01902
G1 X41.883 Y132.187 E0.04199
G1 X42.552 Y133.344 E0.04191
G1 X43.320 Y134.104 E0.03388
G1 X43.385 Y134.327 E0.00727
G1 X43.925 Y135.373 E0.03690
G1 X44.733 Y136.288 E0.03830
G1 X46.014 Y137.116 E0.04782
G1 X47.544 Y137.517 E0.04958
G1 X50.556 Y137.517 E0.09445
G1 X50.796 Y137.492 E0.00755
G1 X51.401 Y137.517 E0.01898
G1 X60.497 Y137.517 E0.28521
G1 X62.355 Y136.950 E0.06091
G1 X63.125 Y136.411 E0.02946
G1 X63.643 Y135.886 E0.02312
G1 X63.969 Y135.522 F10800.000
G1 F1200.000
G1 X64.226 Y135.082 E0.01600
G1 X64.716 Y134.951 E0.01590
G1 X65.991 Y134.255 E0.04554
G1 X67.089 Y133.109 E0.04979
G1 X67.786 Y131.613 E0.05174
G1 X67.932 Y130.662 E0.03016
G1 X67.926 Y119.197 E0.35946
G1 X67.781 Y118.361 E0.02661
G1 X66.935 Y116.736 E0.05744
G1 X65.916 Y115.780 E0.04382
G1 X65.103 Y115.341 E0.02896
G1 X64.637 Y114.529 E0.02936
G1 X63.721 Y113.635 E0.04015
G1 X62.644 Y113.000 E0.03918
G1 X62.618 Y112.286 E0.02242
G1 X62.069 Y110.615 E0.05513
G1 X61.556 Y109.890 E0.02784
G1 X60.860 Y109.204 E0.03065
G1 X60.748 Y108.850 E0.01166
G1 X60.091 Y107.706 E0.04136
G1 X59.190 Y106.823 E0.03955
G1 X60.054 Y105.948 E0.03854
G1 X60.590 Y105.115 E0.03108
G1 X60.859 Y104.405 E0.02379
G1 X61.606 Y103.659 E0.03311
G1 X61.903 Y103.227 E0.01643
G1 X62.787 Y103.236 E0.02770
G1 X63.635 Y103.210 E0.02661
G1 X64.777 Y102.939 E0.03681
G1 X66.095 Y102.196 E0.04744
G1 X66.939 Y101.345 E0.03758
G1 X67.188 Y100.931 E0.01516
G1 X68.347 Y100.912 E0.03634
G1 X69.381 Y100.671 E0.03329
G1 X70.625 Y99.978 E0.04464
G1 X71.456 Y99.150 E0.03680
G1 X72.072 Y98.160 E0.03654
G1 X72.457 Y96.744 E0.04602
G1 X72.457 Y87.367 E0.29400
G1 X71.965 Y85.668 E0.05548
G1 X71.312 Y84.686 E0.03697
G1 X70.382 Y83.824 E0.03975
G1 X70.233 Y83.728 E0.00555
G1 X70.203 Y82.567 E0.03641
G1 X69.717 Y81.030 E0.05055
G1 X69.063 Y80.092 E0.03585
G1 X68.063 Y79.182 E0.04240
G1 X67.063 Y78.669 E0.03524
G1 X65.976 Y78.405 E0.03505
G1 X54.375 Y78.377 E0.36376
G1 X52.674 Y78.870 E0.05554
G1 X51.687 Y79.526 E0.03715
G1 X50.793 Y80.506 E0.04161
G1 X50.692 Y80.668 E0.00598
G1 X45.276 Y80.669 E0.16982
G1 X44.448 Y80.829 E0.02642
G1 X43.883 Y80.031 E0.03068
G1 X43.063 Y79.282 E0.03482
G1 X42.286 Y78.881 E0.02739
G1 X42.268 Y78.121 E0.02386
G1 X41.895 Y76.734 E0.04501
G1 X41.139 Y75.523 E0.04476
G1 X40.331 Y74.765 E0.03474
G1 X40.187 Y74.669 E0.00542
G1 X40.054 Y74.348 E0.01090
G1 X39.888 Y73.967 F10800.000
G1 F1200.000
G1 X39.401 Y73.279 E0.02641
G1 X38.373 Y72.342 E0.04363
G1 X37.257 Y71.781 E0.03915
;WIPE_START
G1 F8640.000
G1 X38.373 Y72.342 E-0.28831
G1 X39.401 Y73.279 E-0.32127
G1 X39.778 Y73.811 E-0.15042
;WIPE_END
G1 E-0.04000 F2100.000
G1 Z0.800 F10800.000
G1 X35.997 Y71.898
G1 Z0.200
G1 E0.80000 F2100.000
G1 F1200.000
G1 X27.206 Y71.898 E0.27562
G1 X25.856 Y72.221 E0.04353
G1 X24.700 Y72.913 E0.04225
G1 X23.963 Y73.679 E0.03332
G1 X23.671 Y74.188 E0.01840
G1 X22.558 Y74.198 E0.03489
G1 X21.604 Y74.403 E0.03059
G1 X20.374 Y75.044 E0.04350
G1 X19.474 Y75.925 E0.03950
G1 X18.929 Y76.814 E0.03269
G1 X18.604 Y77.801 E0.03257
G1 X18.638 Y92.760 E0.46903
G1 X18.938 Y93.552 E0.02657
G1 X19.360 Y94.231 E0.02504
G1 X20.342 Y95.198 E0.04324
G1 X20.797 Y95.454 E0.01636
G1 X20.800 Y96.410 E0.02995
G1 X20.965 Y97.346 E0.02981
G1 X21.590 Y98.634 E0.04490
G1 X22.463 Y99.575 E0.04024
G1 X22.906 Y99.849 E0.01632
G1 X22.931 Y101.244 E0.04376
G1 X23.418 Y102.765 E0.05006
G1 X23.890 Y103.449 E0.02606
G1 X24.606 Y104.176 E0.03199
G1 X25.333 Y104.591 E0.02625
G1 X25.366 Y105.940 E0.04231
G1 X25.659 Y106.948 E0.03289
G1 X26.171 Y107.851 E0.03255
G1 X27.145 Y108.837 E0.04345
G1 X27.834 Y109.228 E0.02485
G1 X28.367 Y110.199 E0.03472
G1 X29.233 Y111.069 E0.03850
G1 X29.847 Y111.456 E0.02274
G1 X29.862 Y112.595 E0.03572
G1 X30.264 Y113.988 E0.04548
G1 X30.825 Y114.870 E0.03276
G1 X31.552 Y115.605 E0.03242
G1 X32.055 Y115.909 E0.01843
G1 X32.081 Y117.279 E0.04297
G1 X32.349 Y118.293 E0.03287
G1 X32.870 Y119.249 E0.03414
G1 X33.749 Y120.170 E0.03992
G1 X34.414 Y120.618 E0.02514
G1 X34.791 Y120.774 E0.01280
G1 X35.306 Y121.682 E0.03271
G1 X36.173 Y122.532 E0.03807
G1 X36.628 Y122.818 E0.01686
G1 X36.658 Y124.179 E0.04268
G1 X36.938 Y125.197 E0.03309
G1 X37.451 Y126.119 E0.03309
G1 X38.198 Y126.923 E0.03442
G1 X38.795 Y127.369 E0.02338
G1 X39.302 Y127.593 E0.01738
G1 X39.775 Y128.455 E0.03082
G1 X40.695 Y129.380 E0.04090
G1 X41.437 Y129.845 E0.02744
G1 X41.915 Y130.007 E0.01583
G1 X41.928 Y130.820 E0.02550
G1 X42.223 Y132.022 E0.03880
G1 X42.865 Y133.133 E0.04022
G1 X43.658 Y133.907 E0.03475
G1 X43.731 Y134.175 E0.00871
G1 X44.224 Y135.141 E0.03400
G1 X44.998 Y136.019 E0.03671
G1 X46.192 Y136.782 E0.04443
G1 X47.568 Y137.140 E0.04457
G1 X50.545 Y137.140 E0.09336
G1 X50.783 Y137.114 E0.00748
G1 X51.405 Y137.140 E0.01952
G1 X60.468 Y137.140 E0.28419
G1 X62.214 Y136.599 E0.05730
G1 X62.868 Y136.135 E0.02513
G1 X63.134 Y135.865 E0.01192
G1 X63.491 Y135.502 F10800.000
G1 F1200.000
G1 X63.635 Y135.356 E0.00642
G1 X63.977 Y134.755 E0.02170
G1 X64.559 Y134.607 E0.01883
G1 X65.739 Y133.973 E0.04201
G1 X66.795 Y132.871 E0.04783
G1 X67.432 Y131.481 E0.04795
G1 X67.555 Y130.649 E0.02638
G1 X67.551 Y119.242 E0.35765
G1 X67.431 Y118.506 E0.02339
G1 X66.653 Y116.988 E0.05346
G1 X65.677 Y116.073 E0.04198
G1 X64.828 Y115.623 E0.03011
G1 X64.354 Y114.780 E0.03033
G1 X63.474 Y113.921 E0.03855
G1 X62.601 Y113.409 E0.03172
G1 X62.273 Y113.300 E0.01084
G1 X62.250 Y112.374 E0.02904
G1 X61.745 Y110.809 E0.05157
G1 X61.258 Y110.122 E0.02639
G1 X60.525 Y109.405 E0.03216
G1 X60.410 Y109.017 E0.01268
G1 X59.777 Y107.917 E0.03978
G1 X58.868 Y107.038 E0.03966
G1 X58.488 Y106.801 E0.01404
G1 X59.038 Y106.440 E0.02062
G1 X59.748 Y105.727 E0.03154
G1 X60.262 Y104.928 E0.02979
G1 X60.534 Y104.197 E0.02447
G1 X61.326 Y103.405 E0.03512
G1 X61.704 Y102.848 E0.02110
G1 X62.779 Y102.859 E0.03372
G1 X63.604 Y102.834 E0.02587
G1 X64.663 Y102.579 E0.03417
G1 X65.846 Y101.912 E0.04256
G1 X66.653 Y101.098 E0.03596
G1 X66.954 Y100.579 E0.01880
G1 X67.398 Y100.541 E0.01397
G1 X68.286 Y100.540 E0.02784
G1 X69.224 Y100.327 E0.03014
G1 X70.380 Y99.692 E0.04136
G1 X71.150 Y98.929 E0.03397
G1 X71.716 Y98.032 E0.03328
G1 X72.080 Y96.718 E0.04275
G1 X72.080 Y87.394 E0.29235
G1 X71.634 Y85.851 E0.05036
G1 X71.039 Y84.947 E0.03395
G1 X70.145 Y84.118 E0.03821
G1 X69.859 Y83.954 E0.01032
G1 X69.835 Y82.654 E0.04075
G1 X69.366 Y81.172 E0.04876
G1 X68.794 Y80.357 E0.03120
G1 X67.828 Y79.479 E0.04094
G1 X66.912 Y79.016 E0.03218
G1 X65.953 Y78.782 E0.03095
G1 X54.401 Y78.754 E0.36222
G1 X52.857 Y79.201 E0.05039
G1 X51.950 Y79.798 E0.03406
G1 X51.089 Y80.741 E0.04004
G1 X50.918 Y81.045 E0.01092
G1 X45.295 Y81.046 E0.17632
G1 X44.280 Y81.248 E0.03242
G1 X43.613 Y80.295 E0.03648
G1 X42.828 Y79.578 E0.03333
G1 X41.912 Y79.116 E0.03216
G1 X41.897 Y78.193 E0.02894
G1 X41.560 Y76.909 E0.04162
G1 X40.833 Y75.745 E0.04305
G1 X40.090 Y75.055 E0.03177
G1 X39.884 Y74.926 E0.00762
G1 X39.645 Y74.338 E0.01992
G1 X39.417 Y73.955 F10800.000
G1 F1200.000
G1 X39.105 Y73.513 E0.01695
G1 X38.180 Y72.668 E0.03931
G1 X37.110 Y72.129 E0.03755
G1 X35.997 Y71.898 E0.03565
;WIPE_START
M73 Q0 S218
G1 F8640.000
G1 X37.110 Y72.129 E-0.26254
G1 X38.180 Y72.668 E-0.27655
G1 X38.886 Y73.313 E-0.22091
;WIPE_END
G1 E-0.04000 F2100.000
G1 Z0.800 F10800.000
G1 X37.007 Y72.493
G1 Z0.200
G1 E0.80000 F2100.000
G1 F1200.000
G1 X35.977 Y72.275 E0.03301
G1 X27.229 Y72.275 E0.27428
G1 X25.974 Y72.581 E0.04052
G1 X24.954 Y73.192 E0.03727
G1 X24.252 Y73.922 E0.03174
G1 X23.894 Y74.564 E0.02305
G1 X22.615 Y74.571 E0.04011
G1 X21.755 Y74.750 E0.02755
G1 X20.574 Y75.365 E0.04175
G1 X19.756 Y76.176 E0.03611
G1 X19.263 Y76.990 E0.02984
G1 X18.972 Y77.888 E0.02960
G1 X19.003 Y92.658 E0.46310
G1 X19.284 Y93.401 E0.02490
G1 X19.667 Y94.011 E0.02258
G1 X20.585 Y94.909 E0.04028
G1 X21.174 Y95.228 E0.02099
G1 X21.174 Y96.360 E0.03552
G1 X21.332 Y97.253 E0.02843
G1 X21.916 Y98.442 E0.04152
G1 X22.719 Y99.296 E0.03675
G1 X23.281 Y99.631 E0.02054
G1 X23.299 Y101.156 E0.04782
G1 X23.769 Y102.622 E0.04825
G1 X24.169 Y103.195 E0.02192
G1 X24.855 Y103.891 E0.03064
G1 X25.706 Y104.367 E0.03056
G1 X25.736 Y105.861 E0.04688
G1 X25.998 Y106.782 E0.03000
G1 X26.487 Y107.642 E0.03103
G1 X27.392 Y108.551 E0.04023
G1 X28.114 Y108.951 E0.02587
G1 X28.654 Y109.952 E0.03568
G1 X29.484 Y110.787 E0.03691
G1 X30.223 Y111.244 E0.02724
G1 X30.231 Y112.516 E0.03987
G1 X30.619 Y113.857 E0.04378
G1 X31.107 Y114.619 E0.02836
G1 X31.802 Y115.322 E0.03100
G1 X32.430 Y115.690 E0.02282
G1 X32.451 Y117.205 E0.04752
G1 X32.708 Y118.173 E0.03139
G1 X33.188 Y119.045 E0.03121
G1 X33.977 Y119.868 E0.03574
G1 X34.608 Y120.293 E0.02385
G1 X35.056 Y120.474 E0.01515
G1 X35.590 Y121.432 E0.03440
G1 X36.421 Y122.247 E0.03650
G1 X37.002 Y122.604 E0.02138
G1 X37.028 Y124.104 E0.04704
G1 X37.280 Y125.036 E0.03025
G1 X37.744 Y125.880 E0.03022
G1 X38.438 Y126.631 E0.03206
G1 X39.002 Y127.053 E0.02210
G1 X39.572 Y127.298 E0.01945
G1 X40.062 Y128.209 E0.03243
G1 X40.947 Y129.098 E0.03931
G1 X41.614 Y129.511 E0.02463
G1 X42.290 Y129.730 E0.02228
G1 X42.300 Y130.754 E0.03211
G1 X42.564 Y131.857 E0.03556
G1 X43.178 Y132.921 E0.03850
G1 X43.998 Y133.711 E0.03572
G1 X44.078 Y134.026 E0.01019
G1 X44.523 Y134.910 E0.03103
G1 X45.263 Y135.749 E0.03507
G1 X46.368 Y136.448 E0.04099
G1 X47.591 Y136.763 E0.03961
G1 X50.534 Y136.763 E0.09227
G1 X50.768 Y136.736 E0.00740
G1 X51.409 Y136.763 E0.02009
G1 X60.440 Y136.763 E0.28317
G1 X62.022 Y136.274 E0.05190
G1 X62.626 Y135.843 E0.02327
G1 X62.983 Y135.481 F10800.000
G1 F1200.000
G1 X63.348 Y135.111 E0.01628
G1 X63.727 Y134.426 E0.02453
G1 X64.405 Y134.262 E0.02189
G1 X65.488 Y133.689 E0.03842
G1 X66.500 Y132.634 E0.04583
G1 X67.077 Y131.352 E0.04409
G1 X67.178 Y130.636 E0.02266
G1 X67.176 Y119.283 E0.35596
G1 X67.080 Y118.647 E0.02017
G1 X66.371 Y117.240 E0.04939
G1 X65.438 Y116.366 E0.04009
G1 X64.553 Y115.905 E0.03130
G1 X64.070 Y115.030 E0.03134
G1 X63.228 Y114.207 E0.03691
G1 X62.433 Y113.747 E0.02880
G1 X61.899 Y113.582 E0.01752
G1 X61.882 Y112.460 E0.03516
G1 X61.419 Y111.002 E0.04799
G1 X60.982 Y110.379 E0.02384
G1 X60.189 Y109.603 E0.03480
G1 X60.070 Y109.182 E0.01373
G1 X59.495 Y108.169 E0.03650
G1 X58.625 Y107.327 E0.03798
G1 X57.752 Y106.820 E0.03164
G1 X58.788 Y106.158 E0.03855
G1 X59.442 Y105.506 E0.02896
G1 X59.933 Y104.742 E0.02846
G1 X60.208 Y103.990 E0.02513
G1 X61.046 Y103.152 E0.03715
G1 X61.499 Y102.473 E0.02559
G1 X62.598 Y102.468 E0.03446
G1 X62.784 Y102.482 E0.00583
G1 X63.573 Y102.458 E0.02477
G1 X64.503 Y102.236 E0.02997
G1 X65.597 Y101.627 E0.03926
G1 X66.367 Y100.851 E0.03428
G1 X66.738 Y100.193 E0.02368
G1 X67.126 Y100.193 E0.01217
G1 X67.375 Y100.164 E0.00785
G1 X68.224 Y100.167 E0.02663
G1 X69.113 Y99.965 E0.02859
G1 X70.173 Y99.375 E0.03802
G1 X70.844 Y98.708 E0.02966
G1 X71.361 Y97.901 E0.03006
G1 X71.703 Y96.691 E0.03942
G1 X71.703 Y87.420 E0.29069
G1 X71.303 Y86.033 E0.04528
G1 X70.765 Y85.207 E0.03089
G1 X69.907 Y84.413 E0.03667
G1 X69.484 Y84.182 E0.01511
G1 X69.467 Y82.741 E0.04518
G1 X69.016 Y81.314 E0.04693
G1 X68.526 Y80.623 E0.02656
G1 X67.594 Y79.776 E0.03948
G1 X66.765 Y79.363 E0.02905
G1 X65.887 Y79.154 E0.02828
G1 X54.427 Y79.132 E0.35934
G1 X53.038 Y79.532 E0.04531
G1 X52.212 Y80.070 E0.03093
G1 X51.385 Y80.976 E0.03846
G1 X51.147 Y81.422 E0.01583
G1 X45.314 Y81.423 E0.18290
G1 X44.409 Y81.607 E0.02894
G1 X44.047 Y81.769 E0.01246
G1 X43.884 Y81.339 E0.01441
G1 X43.342 Y80.559 E0.02979
G1 X42.594 Y79.875 E0.03179
G1 X41.537 Y79.352 E0.03697
G1 X41.526 Y78.263 E0.03413
G1 X41.224 Y77.082 E0.03823
