; generated by PrusaSlicer 2.3.0+win64 on 2021-08-10 at 02:54:49 UTC


;
;

;
;
; 

; external perimeters extrusion width = 0.45mm
; perimeters extrusion width = 0.45mm
; infill extrusion width = 0.45mm
; solid infill extrusion width = 0.45mm
; top infill extrusion width = 0.40mm
; first layer extrusion width = 0.42mm

M73 P0 R374
M201 X1250 Y1250 Z400 E5000 ; sets maximum accelerations, mm/sec^2
M203 X180 Y180 Z12 E80 ; sets maximum feedrates, mm/sec
M204 P1250 R1250 T1250 ; sets acceleration (P, T) and retract acceleration (R), mm/sec^2
M205 X8.00 Y8.00 Z2.00 E10.00 ; sets the jerk limits, mm/sec
M205 S0 T0 ; sets the minimum extruding and travel feed rate, mm/sec
M107
;TYPE:Custom
G90 ; use absolute coordinates
M83 ; extruder relative mode
M104 S170 ; set extruder temp for bed leveling
M140 S60 ; set bed temp
M109 R170 ; wait for bed leveling temp
M190 S60 ; wait for bed temp
G28 ; home all without mesh bed level
G29 ; mesh bed leveling 
M104 S215 ; set extruder temp
G92 E0.0
G1 Y-2.0 X179 F2400
G1 Z3 F720
M109 S215 ; wait for extruder temp

; intro line
G1 X170 F1000
G1 Z0.2 F720
G1 X110.0 E8.0 F900
G1 X40.0 E10.0 F700
G92 E0.0

M221 S95 ; set flow
G21 ; set units to millimeters
G90 ; use absolute coordinates
M83 ; use relative distances for extrusion
M900 K0.2 ; Filament gcode LA 1.5
; ; Filament gcode LA 1.0
;LAYER_CHANGE
;Z:0.2
;HEIGHT:0.2
;BEFORE_LAYER_CHANGE
G92 E0.0
;0.2


G1 Z0.200 F9000.000
;AFTER_LAYER_CHANGE
;0.2
G1 E-3.20000 F4200.000
G1 Z0.400 F9000.000
G1 X53.211 Y56.348
G1 Z0.200
G1 E3.20000 F2400.000
M204 S800
;TYPE:Skirt
;WIDTH:0.42
G1 F1200.000
G1 X53.959 Y56.222 E0.02378
G1 X123.978 Y56.222 E2.19539
G1 X124.908 Y56.413 E0.02977
G1 X125.689 Y56.953 E0.02977
G1 X156.106 Y89.514 E1.39707
G1 X156.507 Y90.103 E0.02237
G1 X156.698 Y90.684 E0.01917
G1 X165.322 Y136.232 E1.45349
G1 X165.298 Y139.098 E0.08987
G1 X164.979 Y139.876 E0.02637
G1 X164.408 Y140.495 E0.02637
G1 X163.735 Y140.851 E0.02390
G1 X162.983 Y140.976 E0.02390
G1 X14.966 Y140.976 E4.64095
M73 P0 R373
G1 X14.423 Y140.911 E0.01716
G1 X13.912 Y140.726 E0.01704
G1 X13.454 Y140.427 E0.01716
G1 X13.078 Y140.034 E0.01704
G1 X12.743 Y139.421 E0.02190
G1 X12.601 Y138.733 E0.02201
G1 X12.603 Y136.428 E0.07229
G1 X12.825 Y135.582 E0.02743
G1 X51.851 Y57.529 E2.73614
G1 X52.147 Y57.078 E0.01692
G1 X52.540 Y56.703 E0.01704
G1 X53.158 Y56.376 E0.02190
M204 S1250
; printing object lift_base.STL id:1 copy 0
G1 E-2.24000 F4200.000
;WIPE_START
G1 F7200.000
G1 X53.959 Y56.222 E-0.45204
G1 X54.789 Y56.222 E-0.45996
;WIPE_END
G1 E-0.04800 F4200.000
G1 Z0.400 F9000.000
G1 X114.218 Y104.168
G1 Z0.200
G1 E3.20000 F2400.000
M204 S800
;TYPE:Perimeter
G1 F1200.000
G1 X114.523 Y103.863 E0.01352
G1 X114.876 Y103.616 E0.01352
G1 X115.270 Y103.432 E0.01365
G1 X115.716 Y103.319 E0.01442
G1 X116.113 Y103.285 E0.01248
G1 X116.542 Y103.322 E0.01352
G1 X116.958 Y103.434 E0.01352
G1 X117.349 Y103.616 E0.01352
G1 X117.702 Y103.863 E0.01351
G1 X118.007 Y104.168 E0.01352
G1 X118.254 Y104.521 E0.01352
G1 X118.437 Y104.912 E0.01352
G1 X118.548 Y105.329 E0.01352
G1 X118.586 Y105.758 E0.01352
G1 X118.548 Y106.188 E0.01352
G1 X118.437 Y106.604 E0.01352
G1 X118.254 Y106.995 E0.01352
G1 X118.007 Y107.348 E0.01352
G1 X117.702 Y107.653 E0.01352
G1 X117.349 Y107.900 E0.01352
G1 X116.958 Y108.082 E0.01352
G1 X116.542 Y108.194 E0.01352
G1 X116.113 Y108.231 E0.01352
G1 X115.683 Y108.194 E0.01352
G1 X115.267 Y108.082 E0.01352
G1 X114.876 Y107.900 E0.01352
G1 X114.523 Y107.653 E0.01352
G1 X114.218 Y107.348 E0.01352
G1 X113.971 Y106.995 E0.01352
G1 X113.788 Y106.604 E0.01352
G1 X113.677 Y106.188 E0.01352
G1 X113.639 Y105.758 E0.01352
G1 X113.677 Y105.329 E0.01352
G1 X113.788 Y104.912 E0.01352
G1 X113.971 Y104.521 E0.01352
G1 X114.183 Y104.217 E0.01164
M204 S1250
G1 X114.492 Y104.434 F9000.000
M204 S800
;TYPE:External perimeter
G1 F1200.000
G1 X114.766 Y104.153 E0.01228
G1 X115.065 Y103.944 E0.01145
G1 X115.397 Y103.789 E0.01150
G1 X115.779 Y103.692 E0.01235
G1 X116.113 Y103.663 E0.01049
G1 X116.476 Y103.695 E0.01145
G1 X116.829 Y103.790 E0.01145
G1 X117.160 Y103.944 E0.01145
G1 X117.459 Y104.153 E0.01145
G1 X117.717 Y104.412 E0.01145
G1 X117.927 Y104.711 E0.01145
G1 X118.081 Y105.042 E0.01145
G1 X118.175 Y105.394 E0.01145
G1 X118.207 Y105.758 E0.01145
G1 X118.175 Y106.122 E0.01145
G1 X118.081 Y106.474 E0.01145
G1 X117.927 Y106.805 E0.01145
G1 X117.717 Y107.105 E0.01145
G1 X117.459 Y107.363 E0.01145
G1 X117.160 Y107.572 E0.01145
G1 X116.829 Y107.726 E0.01145
G1 X116.476 Y107.821 E0.01145
G1 X116.113 Y107.853 E0.01145
G1 X115.749 Y107.821 E0.01145
G1 X115.396 Y107.726 E0.01145
G1 X115.065 Y107.572 E0.01145
G1 X114.766 Y107.363 E0.01145
G1 X114.508 Y107.105 E0.01145
G1 X114.298 Y106.805 E0.01145
G1 X114.144 Y106.474 E0.01145
G1 X114.050 Y106.122 E0.01145
G1 X114.018 Y105.758 E0.01145
G1 X114.050 Y105.394 E0.01145
G1 X114.144 Y105.042 E0.01145
G1 X114.298 Y104.711 E0.01145
G1 X114.458 Y104.483 E0.00872
M204 S1250
G1 X114.355 Y104.067 F9000.000
G1 E-2.24000 F4200.000
;WIPE_START
G1 F7200.000
G1 X114.766 Y104.153 E-0.24996
G1 X115.065 Y103.944 E-0.20232
G1 X115.397 Y103.789 E-0.20319
G1 X115.779 Y103.692 E-0.21822
G1 X115.848 Y103.686 E-0.03831
;WIPE_END
G1 E-0.04800 F4200.000
G1 Z0.400 F9000.000
G1 X90.956 Y68.383
G1 Z0.200
G1 E3.20000 F2400.000
M204 S800
;TYPE:Perimeter
G1 F1200.000
G1 X90.330 Y68.675 E0.02167
G1 X89.662 Y68.854 E0.02167
G1 X88.974 Y68.914 E0.02167
G1 X88.285 Y68.854 E0.02167
G1 X87.618 Y68.675 E0.02167
G1 X86.991 Y68.383 E0.02167
G1 X86.425 Y67.987 E0.02167
G1 X85.936 Y67.498 E0.02167
G1 X85.540 Y66.932 E0.02167
G1 X85.248 Y66.305 E0.02167
G1 X85.069 Y65.638 E0.02167
G1 X85.009 Y64.949 E0.02167
G1 X85.069 Y64.261 E0.02167
G1 X85.248 Y63.593 E0.02167
G1 X85.540 Y62.967 E0.02167
G1 X85.936 Y62.400 E0.02167
G1 X86.425 Y61.912 E0.02167
G1 X86.991 Y61.515 E0.02167
G1 X87.618 Y61.223 E0.02167
G1 X88.285 Y61.044 E0.02167
G1 X88.974 Y60.984 E0.02167
G1 X89.662 Y61.044 E0.02167
G1 X90.330 Y61.223 E0.02167
G1 X90.956 Y61.515 E0.02167
G1 X91.523 Y61.912 E0.02167
G1 X92.011 Y62.400 E0.02167
G1 X92.408 Y62.967 E0.02167
G1 X92.700 Y63.593 E0.02167
G1 X92.879 Y64.261 E0.02167
G1 X92.939 Y64.949 E0.02167
G1 X92.879 Y65.638 E0.02167
G1 X92.700 Y66.305 E0.02167
G1 X92.408 Y66.932 E0.02167
G1 X92.011 Y67.498 E0.02167
G1 X91.523 Y67.987 E0.02167
G1 X91.006 Y68.349 E0.01979
M204 S1250
G1 X90.789 Y68.040 F9000.000
M204 S800
;TYPE:External perimeter
G1 F1200.000
G1 X90.200 Y68.319 E0.02044
G1 X89.597 Y68.481 E0.01960
G1 X88.974 Y68.536 E0.01960
G1 X88.351 Y68.481 E0.01960
G1 X87.747 Y68.319 E0.01960
G1 X87.181 Y68.055 E0.01960
G1 X86.668 Y67.697 E0.01960
G1 X86.226 Y67.255 E0.01960
G1 X85.868 Y66.742 E0.01960
G1 X85.604 Y66.176 E0.01960
G1 X85.442 Y65.572 E0.01960
G1 X85.387 Y64.949 E0.01960
G1 X85.442 Y64.326 E0.01960
G1 X85.604 Y63.722 E0.01960
G1 X85.868 Y63.156 E0.01960
G1 X86.226 Y62.644 E0.01960
G1 X86.668 Y62.202 E0.01960
G1 X87.181 Y61.843 E0.01960
G1 X87.747 Y61.579 E0.01960
G1 X88.351 Y61.417 E0.01960
G1 X88.974 Y61.363 E0.01960
G1 X89.597 Y61.417 E0.01960
G1 X90.200 Y61.579 E0.01960
G1 X90.767 Y61.843 E0.01960
G1 X91.279 Y62.202 E0.01960
G1 X91.721 Y62.644 E0.01960
G1 X92.080 Y63.156 E0.01960
G1 X92.344 Y63.722 E0.01960
G1 X92.506 Y64.326 E0.01960
G1 X92.560 Y64.949 E0.01960
G1 X92.506 Y65.572 E0.01960
G1 X92.344 Y66.176 E0.01960
G1 X92.080 Y66.742 E0.01960
G1 X91.721 Y67.255 E0.01960
G1 X91.279 Y67.697 E0.01960
G1 X90.838 Y68.005 E0.01687
M204 S1250
G1 X90.791 Y68.440 F9000.000
G1 E-2.24000 F4200.000
;WIPE_START
G1 F7200.000
G1 X90.200 Y68.319 E-0.39403
G1 X89.597 Y68.481 E-0.34645
G1 X89.288 Y68.508 E-0.17152
;WIPE_END
G1 E-0.04800 F4200.000
G1 Z0.400 F9000.000
G1 X62.560 Y103.773
G1 Z0.200
G1 E3.20000 F2400.000
M204 S800
;TYPE:Perimeter
G1 F1200.000
G1 X62.837 Y104.051 E0.01230
G1 X63.062 Y104.372 E0.01230
G1 X63.228 Y104.728 E0.01230
G1 X63.330 Y105.107 E0.01230
G1 X63.364 Y105.498 E0.01230
G1 X63.330 Y105.888 E0.01230
G1 X63.228 Y106.267 E0.01230
G1 X63.062 Y106.623 E0.01230
G1 X62.835 Y106.948 E0.01244
G1 X62.534 Y107.240 E0.01315
G1 X62.238 Y107.447 E0.01130
G1 X61.883 Y107.612 E0.01230
G1 X61.504 Y107.714 E0.01230
G1 X61.113 Y107.748 E0.01230
G1 X60.722 Y107.714 E0.01230
G1 X60.343 Y107.612 E0.01230
G1 X59.988 Y107.447 E0.01230
G1 X59.666 Y107.222 E0.01230
G1 X59.389 Y106.944 E0.01230
G1 X59.164 Y106.623 E0.01230
G1 X58.998 Y106.267 E0.01230
G1 X58.897 Y105.888 E0.01230
G1 X58.863 Y105.498 E0.01230
G1 X58.897 Y105.107 E0.01230
G1 X58.998 Y104.728 E0.01230
G1 X59.164 Y104.372 E0.01230
G1 X59.389 Y104.051 E0.01230
G1 X59.666 Y103.773 E0.01230
G1 X59.988 Y103.548 E0.01230
G1 X60.347 Y103.381 E0.01244
G1 X60.754 Y103.278 E0.01315
G1 X61.113 Y103.247 E0.01130
G1 X61.504 Y103.281 E0.01230
G1 X61.883 Y103.383 E0.01230
G1 X62.238 Y103.548 E0.01230
G1 X62.511 Y103.739 E0.01042
M204 S1250
G1 X62.294 Y104.048 F9000.000
M204 S800
;TYPE:External perimeter
G1 F1200.000
G1 X62.547 Y104.294 E0.01107
G1 X62.734 Y104.561 E0.01023
G1 X62.872 Y104.857 E0.01023
G1 X62.957 Y105.172 E0.01023
G1 X62.985 Y105.498 E0.01023
G1 X62.957 Y105.823 E0.01023
G1 X62.872 Y106.138 E0.01023
G1 X62.734 Y106.434 E0.01023
G1 X62.546 Y106.702 E0.01028
G1 X62.293 Y106.948 E0.01108
G1 X62.049 Y107.119 E0.00932
G1 X61.753 Y107.257 E0.01023
G1 X61.438 Y107.341 E0.01023
G1 X61.113 Y107.370 E0.01023
G1 X60.788 Y107.341 E0.01023
G1 X60.473 Y107.257 E0.01023
G1 X60.177 Y107.119 E0.01023
G1 X59.910 Y106.932 E0.01023
G1 X59.679 Y106.701 E0.01023
G1 X59.492 Y106.434 E0.01023
G1 X59.354 Y106.138 E0.01023
G1 X59.269 Y105.823 E0.01023
G1 X59.241 Y105.498 E0.01023
G1 X59.269 Y105.172 E0.01023
G1 X59.354 Y104.857 E0.01023
G1 X59.492 Y104.561 E0.01023
G1 X59.679 Y104.294 E0.01023
G1 X59.910 Y104.063 E0.01023
G1 X60.177 Y103.876 E0.01023
G1 X60.474 Y103.738 E0.01028
G1 X60.817 Y103.651 E0.01108
G1 X61.113 Y103.625 E0.00932
G1 X61.438 Y103.654 E0.01023
G1 X61.753 Y103.738 E0.01023
G1 X62.049 Y103.876 E0.01023
G1 X62.245 Y104.014 E0.00750
M204 S1250
G1 X62.625 Y103.924 F9000.000
G1 E-2.24000 F4200.000
;WIPE_START
G1 F7200.000
G1 X62.547 Y104.294 E-0.22848
G1 X62.734 Y104.561 E-0.18084
G1 X62.872 Y104.857 E-0.18084
G1 X62.957 Y105.172 E-0.18084
G1 X62.979 Y105.426 E-0.14100
;WIPE_END
G1 E-0.04800 F4200.000
G1 Z0.400 F9000.000
G1 X123.187 Y128.206
G1 Z0.200
G1 E3.20000 F2400.000
M204 S800
;TYPE:Perimeter
G1 F1200.000
G1 X148.603 Y128.206 E0.79691
G1 X148.603 Y137.386 E0.28785
G1 X162.187 Y137.386 E0.42591
G1 X162.187 Y137.812 E0.01335
G1 X15.761 Y137.812 E4.59108
G1 X15.761 Y137.386 E0.01335
G1 X29.361 Y137.386 E0.42642
G1 X29.361 Y116.706 E0.64843
G1 X54.761 Y116.706 E0.79640
G1 X54.761 Y59.386 E1.79721
G1 X123.187 Y59.386 E2.14544
G1 X123.187 Y128.146 E2.15590
M204 S1250
G1 X123.564 Y127.828 F9000.000
M204 S800
;TYPE:External perimeter
G1 F1200.000
G1 X148.980 Y127.828 E0.79691
G1 X148.980 Y137.009 E0.28785
G1 X162.564 Y137.009 E0.42591
G1 X162.564 Y138.189 E0.03700
G1 X15.384 Y138.189 E4.61473
G1 X15.384 Y137.009 E0.03700
G1 X28.984 Y137.009 E0.42642
G1 X28.984 Y116.328 E0.64843
G1 X54.384 Y116.328 E0.79640
G1 X54.384 Y59.009 E1.79721
G1 X123.564 Y59.009 E2.16909
G1 X123.564 Y127.768 E2.15590
M204 S1250
G1 X123.668 Y128.215 F9000.000
G1 E-2.24000 F4200.000
;WIPE_START
G1 F7200.000
G1 X125.210 Y127.772 E-0.91200
;WIPE_END
G1 E-0.04800 F4200.000
G1 Z0.400 F9000.000
G1 X147.834 Y128.319
M73 P0 R372
G1 Z0.200
G1 E3.20000 F2400.000
M204 S800
;TYPE:Solid infill
;WIDTH:0.420874
G1 F1200.000
G1 X148.320 Y128.805 E0.02162
G1 X148.320 Y129.340 E0.01680
G1 X147.469 Y128.488 E0.03784
G1 X146.934 Y128.488 E0.01680
G1 X148.320 Y129.874 E0.06159
G1 X148.320 Y130.409 E0.01680
G1 X146.400 Y128.488 E0.08535
G1 X145.865 Y128.488 E0.01680
G1 X148.320 Y130.943 E0.10911
G1 X148.320 Y131.478 E0.01680
G1 X145.331 Y128.488 E0.13286
G1 X144.796 Y128.488 E0.01680
G1 X148.320 Y132.012 E0.15662
G1 X148.320 Y132.547 E0.01680
G1 X144.262 Y128.488 E0.18037
G1 X143.727 Y128.488 E0.01680
G1 X148.320 Y133.081 E0.20413
G1 X148.320 Y133.616 E0.01680
G1 X143.193 Y128.488 E0.22789
G1 X142.658 Y128.488 E0.01680
G1 X148.320 Y134.150 E0.25164
G1 X148.320 Y134.685 E0.01680
G1 X142.124 Y128.488 E0.27540
G1 X141.589 Y128.488 E0.01680
G1 X148.320 Y135.219 E0.29915
G1 X148.320 Y135.754 E0.01680
G1 X141.055 Y128.488 E0.32291
G1 X140.520 Y128.488 E0.01680
G1 X148.320 Y136.288 E0.34667
G1 X148.320 Y136.823 E0.01680
G1 X139.986 Y128.488 E0.37042
G1 X139.451 Y128.488 E0.01680
G1 X148.320 Y137.357 E0.39418
G1 X148.320 Y137.529 E0.00540
G1 X147.958 Y137.529 E0.01139
G1 X138.917 Y128.488 E0.40182
G1 X138.382 Y128.488 E0.01680
G1 X147.423 Y137.529 E0.40182
G1 X146.889 Y137.529 E0.01680
G1 X137.848 Y128.488 E0.40182
G1 X137.313 Y128.488 E0.01680
G1 X146.354 Y137.529 E0.40182
G1 X145.820 Y137.529 E0.01680
G1 X136.779 Y128.488 E0.40182
G1 X136.244 Y128.488 E0.01680
G1 X145.285 Y137.529 E0.40182
G1 X144.751 Y137.529 E0.01680
G1 X135.710 Y128.488 E0.40182
G1 X135.175 Y128.488 E0.01680
G1 X144.216 Y137.529 E0.40182
G1 X143.682 Y137.529 E0.01680
G1 X134.641 Y128.488 E0.40182
G1 X134.106 Y128.488 E0.01680
G1 X143.147 Y137.529 E0.40182
G1 X142.613 Y137.529 E0.01680
G1 X133.572 Y128.488 E0.40182
G1 X133.037 Y128.488 E0.01680
G1 X142.078 Y137.529 E0.40182
G1 X141.544 Y137.529 E0.01680
G1 X132.503 Y128.488 E0.40182
G1 X131.968 Y128.488 E0.01680
G1 X141.009 Y137.529 E0.40182
G1 X140.475 Y137.529 E0.01680
G1 X131.434 Y128.488 E0.40182
G1 X130.899 Y128.488 E0.01680
G1 X139.940 Y137.529 E0.40182
G1 X139.406 Y137.529 E0.01680
G1 X130.365 Y128.488 E0.40182
G1 X129.830 Y128.488 E0.01680
G1 X138.871 Y137.529 E0.40182
G1 X138.337 Y137.529 E0.01680
G1 X129.296 Y128.488 E0.40182
G1 X128.761 Y128.488 E0.01680
G1 X137.802 Y137.529 E0.40182
G1 X137.268 Y137.529 E0.01680
G1 X128.227 Y128.488 E0.40182
G1 X127.692 Y128.488 E0.01680
G1 X136.733 Y137.529 E0.40182
G1 X136.199 Y137.529 E0.01680
G1 X127.158 Y128.488 E0.40182
G1 X126.623 Y128.488 E0.01680
G1 X135.664 Y137.529 E0.40182
G1 X135.129 Y137.529 E0.01680
G1 X126.089 Y128.488 E0.40182
G1 X125.554 Y128.488 E0.01680
G1 X134.595 Y137.529 E0.40182
G1 X134.060 Y137.529 E0.01680
G1 X125.020 Y128.488 E0.40182
G1 X124.485 Y128.488 E0.01680
G1 X133.526 Y137.529 E0.40182
G1 X132.991 Y137.529 E0.01680
G1 X123.781 Y128.319 E0.40936
M204 S1250
G1 E-2.24000 F4200.000
;WIPE_START
G1 F7200.000
G1 X124.945 Y129.482 E-0.91200
;WIPE_END
G1 E-0.04800 F4200.000
G1 Z0.400 F9000.000
G1 X123.074 Y60.263
G1 Z0.200
G1 E3.20000 F2400.000
M204 S800
G1 F1200.000
G1 X122.479 Y59.669 E0.02642
G1 X121.945 Y59.669 E0.01680
G1 X122.904 Y60.628 E0.04263
G1 X122.904 Y61.163 E0.01680
G1 X121.410 Y59.669 E0.06639
G1 X120.876 Y59.669 E0.01680
G1 X122.904 Y61.697 E0.09015
G1 X122.904 Y62.232 E0.01680
G1 X120.341 Y59.669 E0.11390
G1 X119.807 Y59.669 E0.01680
G1 X122.904 Y62.766 E0.13766
G1 X122.904 Y63.301 E0.01680
G1 X119.272 Y59.669 E0.16141
G1 X118.738 Y59.669 E0.01680
G1 X122.904 Y63.835 E0.18517
G1 X122.904 Y64.370 E0.01680
G1 X118.203 Y59.669 E0.20893
G1 X117.669 Y59.669 E0.01680
G1 X122.904 Y64.904 E0.23268
G1 X122.904 Y65.439 E0.01680
G1 X117.134 Y59.669 E0.25644
G1 X116.600 Y59.669 E0.01680
G1 X122.904 Y65.973 E0.28019
G1 X122.904 Y66.508 E0.01680
G1 X116.065 Y59.669 E0.30395
G1 X115.531 Y59.669 E0.01680
G1 X122.904 Y67.042 E0.32771
G1 X122.904 Y67.577 E0.01680
G1 X114.996 Y59.669 E0.35146
G1 X114.462 Y59.669 E0.01680
G1 X122.904 Y68.111 E0.37522
G1 X122.904 Y68.646 E0.01680
G1 X113.927 Y59.669 E0.39897
G1 X113.393 Y59.669 E0.01680
G1 X122.904 Y69.180 E0.42273
G1 X122.904 Y69.715 E0.01680
G1 X112.858 Y59.669 E0.44648
G1 X112.324 Y59.669 E0.01680
G1 X122.904 Y70.249 E0.47024
G1 X122.904 Y70.784 E0.01680
G1 X111.789 Y59.669 E0.49400
G1 X111.255 Y59.669 E0.01680
G1 X122.904 Y71.318 E0.51775
G1 X122.904 Y71.853 E0.01680
G1 X110.720 Y59.669 E0.54151
G1 X110.186 Y59.669 E0.01680
G1 X122.904 Y72.387 E0.56526
G1 X122.904 Y72.922 E0.01680
G1 X109.651 Y59.669 E0.58902
G1 X109.116 Y59.669 E0.01680
G1 X122.904 Y73.456 E0.61278
G1 X122.904 Y73.991 E0.01680
G1 X108.582 Y59.669 E0.63653
G1 X108.047 Y59.669 E0.01680
G1 X122.904 Y74.525 E0.66029
G1 X122.904 Y75.060 E0.01680
