; generated by PrusaSlicer 2.3.0+win64 on 2021-07-22 at 14:30:41 UTC

; 

; external perimeters extrusion width = 0.25mm
; perimeters extrusion width = 0.25mm
; infill extrusion width = 0.25mm
; solid infill extrusion width = 0.25mm
; top infill extrusion width = 0.25mm
; first layer extrusion width = 0.30mm

M73 P0 R125
M73 Q0 S125
M201 X1000 Y1000 Z200 E5000 ; sets maximum accelerations, mm/sec^2
M203 X200 Y200 Z12 E120 ; sets maximum feedrates, mm/sec
M204 P1250 R1250 T1250 ; sets acceleration (P, T) and retract acceleration (R), mm/sec^2
M205 X8.00 Y8.00 Z0.40 E4.50 ; sets the jerk limits, mm/sec
M205 S0 T0 ; sets the minimum extruding and travel feed rate, mm/sec
M107
;TYPE:Custom
M862.3 P "MK3" ; printer model check
M862.1 P0.25 ; nozzle diameter check
M115 U3.9.2 ; tell printer latest fw version
G90 ; use absolute coordinates
M83 ; extruder relative mode
M104 S215 ; set extruder temp
M140 S60 ; set bed temp
M190 S60 ; wait for bed temp
M109 S215 ; wait for extruder temp
G28 W ; home all without mesh bed level
G80 ; mesh bed leveling
G1 Y-3.0 F1000.0 ; go outside print area
G92 E0.0
G1 X60.0 E8.0 F700.0 ; intro line
G1 X100.0 E12.5 F700.0 ; intro line
G92 E0.0
M221 S100

; Don't change E value below. Excessive value can damage the printer.
M907 E430 ; set extruder motor current
G21 ; set units to millimeters
G90 ; use absolute coordinates
M83 ; use relative distances for extrusion
M900 K0.05 ; Filament gcode LA 1.5
M900 K30 ; Filament gcode LA 1.0
;LAYER_CHANGE
;Z:0.05
;HEIGHT:0.05
;BEFORE_LAYER_CHANGE
G92 E0.0
;0.05


G1 E-0.80000 F2100.000
G1 Z0.150 F10800.000
;AFTER_LAYER_CHANGE
;0.05
G1 X64.574 Y65.362
G1 Z0.050
G1 E0.80000 F2100.000
M204 S500
;TYPE:Skirt
;WIDTH:0.3
G1 F1200.000
G1 X65.129 Y64.333 E0.00703
G1 X65.684 Y63.749 E0.00484
G1 X66.355 Y63.295 E0.00487
G1 X67.104 Y62.998 E0.00484
G1 X67.903 Y62.869 E0.00487
G1 X93.503 Y62.864 E0.15394
G1 X94.196 Y62.929 E0.00419
G1 X94.861 Y63.121 E0.00416
G1 X95.478 Y63.431 E0.00416
G1 X96.032 Y63.854 E0.00419
G1 X96.494 Y64.368 E0.00416
G1 X96.856 Y64.962 E0.00419
G1 X97.101 Y65.609 E0.00416
G1 X97.221 Y66.290 E0.00416
G1 X97.233 Y96.260 E0.18022
G1 X97.024 Y97.411 E0.00703
G1 X96.468 Y98.441 E0.00703
G1 X95.891 Y99.043 E0.00501
G1 X95.195 Y99.502 E0.00501
G1 X94.415 Y99.796 E0.00501
G1 X93.584 Y99.909 E0.00504
G1 X67.994 Y99.908 E0.15388
G1 X66.853 Y99.696 E0.00698
G1 X65.832 Y99.144 E0.00698
G1 X65.227 Y98.563 E0.00504
G1 X64.766 Y97.863 E0.00504
G1 X64.475 Y97.081 E0.00501
G1 X64.364 Y96.250 E0.00504
G1 X64.364 Y66.508 E0.17884
G1 X64.567 Y65.399 E0.00678
M204 S1000
G1 X64.849 Y65.452 F10800.000
M204 S500
G1 F1200.000
G1 X65.368 Y64.497 E0.00654
G1 X65.884 Y63.958 E0.00449
G1 X66.504 Y63.544 E0.00449
G1 X67.199 Y63.272 E0.00449
G1 X67.937 Y63.157 E0.00449
G1 X93.503 Y63.153 E0.15374
G1 X94.142 Y63.213 E0.00386
G1 X94.762 Y63.393 E0.00388
G1 X95.334 Y63.682 E0.00386
G1 X95.842 Y64.073 E0.00386
G1 X96.270 Y64.550 E0.00386
G1 X96.601 Y65.099 E0.00386
G1 X96.826 Y65.700 E0.00386
G1 X96.935 Y66.332 E0.00386
G1 X96.944 Y96.252 E0.17992
G1 X96.748 Y97.322 E0.00654
G1 X96.229 Y98.277 E0.00654
G1 X95.695 Y98.830 E0.00462
G1 X95.052 Y99.251 E0.00462
G1 X94.331 Y99.519 E0.00462
G1 X93.569 Y99.620 E0.00462
G1 X68.011 Y99.620 E0.15368
G1 X66.947 Y99.423 E0.00651
G1 X65.996 Y98.905 E0.00651
G1 X65.443 Y98.371 E0.00462
G1 X65.020 Y97.724 E0.00465
G1 X64.753 Y97.002 E0.00462
G1 X64.653 Y96.236 E0.00465
G1 X64.653 Y66.521 E0.17868
G1 X64.842 Y65.489 E0.00631
M204 S1000
G1 X65.123 Y65.544 F10800.000
M204 S500
G1 F1200.000
G1 X65.605 Y64.662 E0.00605
G1 X66.077 Y64.174 E0.00408
G1 X66.647 Y63.796 E0.00411
G1 X67.284 Y63.549 E0.00411
G1 X67.959 Y63.445 E0.00411
G1 X93.503 Y63.442 E0.15360
G1 X94.088 Y63.498 E0.00353
G1 X94.656 Y63.662 E0.00356
G1 X95.180 Y63.927 E0.00353
G1 X95.649 Y64.288 E0.00356
G1 X96.040 Y64.726 E0.00353
G1 X96.345 Y65.234 E0.00356
G1 X96.550 Y65.789 E0.00356
G1 X96.648 Y66.372 E0.00356
G1 X96.655 Y96.240 E0.17960
G1 X96.474 Y97.229 E0.00605
G1 X95.992 Y98.111 E0.00605
G1 X95.500 Y98.616 E0.00424
G1 X94.912 Y98.998 E0.00421
G1 X94.254 Y99.240 E0.00421
G1 X93.559 Y99.331 E0.00421
G1 X68.024 Y99.331 E0.15355
G1 X67.040 Y99.149 E0.00602
G1 X66.162 Y98.668 E0.00602
G1 X65.657 Y98.175 E0.00424
G1 X65.273 Y97.583 E0.00424
G1 X65.032 Y96.925 E0.00421
G1 X64.942 Y96.226 E0.00424
G1 X64.942 Y66.533 E0.17855
G1 X65.116 Y65.581 E0.00582
M204 S1000
G1 X65.396 Y65.639 F10800.000
M204 S500
G1 F1200.000
G1 X65.840 Y64.832 E0.00554
G1 X66.274 Y64.387 E0.00374
G1 X66.790 Y64.047 E0.00372
G1 X67.371 Y63.825 E0.00374
G1 X67.983 Y63.734 E0.00372
G1 X93.503 Y63.731 E0.15346
G1 X94.039 Y63.783 E0.00324
G1 X94.557 Y63.934 E0.00324
G1 X95.037 Y64.179 E0.00324
G1 X95.462 Y64.509 E0.00324
G1 X95.819 Y64.913 E0.00324
G1 X96.093 Y65.377 E0.00324
G1 X96.275 Y65.880 E0.00322
G1 X96.360 Y66.412 E0.00324
G1 X96.366 Y96.229 E0.17929
G1 X96.201 Y97.134 E0.00554
G1 X95.757 Y97.941 E0.00554
G1 X95.310 Y98.397 E0.00384
G1 X94.777 Y98.741 E0.00382
G1 X94.181 Y98.960 E0.00382
G1 X93.548 Y99.042 E0.00384
G1 X68.036 Y99.041 E0.15341
G1 X67.135 Y98.875 E0.00551
G1 X66.332 Y98.433 E0.00551
G1 X65.876 Y97.986 E0.00384
G1 X65.530 Y97.449 E0.00384
G1 X65.311 Y96.849 E0.00384
G1 X65.231 Y96.215 E0.00384
G1 X65.231 Y66.545 E0.17841
G1 X65.390 Y65.676 E0.00531
M204 S1000
G1 X65.670 Y65.732 F10800.000
M204 S500
G1 F1200.000
G1 X66.076 Y64.999 E0.00503
G1 X66.465 Y64.604 E0.00333
G1 X66.933 Y64.299 E0.00336
G1 X67.455 Y64.102 E0.00336
G1 X68.007 Y64.022 E0.00336
G1 X93.503 Y64.021 E0.15331
G1 X94.455 Y64.205 E0.00583
G1 X95.269 Y64.725 E0.00581
G1 X95.835 Y65.508 E0.00581
G1 X96.073 Y66.445 E0.00581
G1 X96.077 Y96.218 E0.17903
M73 P0 R124
G1 X95.927 Y97.042 E0.00503
G1 X95.521 Y97.774 E0.00503
G1 X95.120 Y98.179 E0.00343
G1 X94.640 Y98.487 E0.00343
G1 X94.104 Y98.681 E0.00343
G1 X93.534 Y98.753 E0.00345
G1 X68.047 Y98.752 E0.15326
G1 X67.227 Y98.601 E0.00501
G1 X66.499 Y98.197 E0.00501
G1 X66.091 Y97.793 E0.00345
G1 X65.785 Y97.312 E0.00343
G1 X65.591 Y96.776 E0.00343
G1 X65.520 Y96.206 E0.00345
G1 X65.521 Y66.552 E0.17832
G1 X65.664 Y65.769 E0.00479
M204 S1000
G1 X65.944 Y65.826 F10800.000
M204 S500
G1 F1200.000
G1 X66.308 Y65.173 E0.00450
G1 X66.658 Y64.820 E0.00298
G1 X67.075 Y64.552 E0.00298
G1 X67.536 Y64.380 E0.00296
G1 X68.028 Y64.311 E0.00298
G1 X93.502 Y64.310 E0.15319
M73 Q0 S124
G1 X94.349 Y64.474 E0.00518
G1 X95.075 Y64.939 E0.00518
G1 X95.577 Y65.639 E0.00518
G1 X95.785 Y66.476 E0.00518
G1 X95.788 Y96.212 E0.17881
G1 X95.653 Y96.948 E0.00450
G1 X95.289 Y97.601 E0.00450
G1 X94.934 Y97.958 E0.00303
G1 X94.506 Y98.230 E0.00305
G1 X94.028 Y98.401 E0.00305
G1 X93.529 Y98.463 E0.00303
G1 X68.057 Y98.463 E0.15316
G1 X67.322 Y98.328 E0.00450
G1 X66.672 Y97.965 E0.00448
G1 X66.313 Y97.607 E0.00305
G1 X66.041 Y97.178 E0.00305
G1 X65.871 Y96.700 E0.00305
G1 X65.809 Y96.201 E0.00303
G1 X65.810 Y66.562 E0.17822
G1 X65.937 Y65.863 E0.00427
M204 S1000
; printing object simplify_face.stl id:0 copy 0
;WIPE_START
G1 F8640.000
G1 X66.308 Y65.173 E-0.18093
G1 X66.658 Y64.820 E-0.11457
G1 X67.075 Y64.552 E-0.11457
G1 X67.536 Y64.380 E-0.11371
G1 X68.028 Y64.311 E-0.11457
G1 X68.554 Y64.311 E-0.12166
;WIPE_END
G1 E-0.04000 F2100.000
G1 Z0.200 F10800.000
G1 X68.827 Y67.328
G1 Z0.050
G1 E0.80000 F2100.000
M204 S500
;TYPE:Perimeter
G1 F1200.000
G1 X92.770 Y67.328 E0.14397
G1 X92.770 Y95.446 E0.16908
G1 X68.827 Y95.446 E0.14397
G1 X68.827 Y67.365 E0.16885
M204 S1000
G1 X68.538 Y67.038 F10800.000
M204 S500
G1 F1200.000
G1 X93.059 Y67.038 E0.14745
G1 X93.059 Y95.735 E0.17256
G1 X68.538 Y95.735 E0.14745
G1 X68.538 Y67.076 E0.17233
M204 S1000
G1 X68.249 Y66.749 F10800.000
M204 S500
;TYPE:External perimeter
G1 F1200.000
G1 X93.349 Y66.749 E0.15093
G1 X93.349 Y96.024 E0.17604
G1 X68.249 Y96.024 E0.15093
G1 X68.249 Y66.787 E0.17581
M204 S1000
G1 X68.488 Y66.820 F10800.000
;WIPE_START
G1 F8640.000
G1 X71.540 Y66.782 E-0.76000
;WIPE_END
G1 E-0.04000 F2100.000
G1 Z0.200 F10800.000
G1 X92.096 Y67.414
G1 Z0.050
G1 E0.80000 F2100.000
M204 S500
;TYPE:Solid infill
;WIDTH:0.301271
G1 F1200.000
G1 X92.553 Y67.872 E0.00391
G1 X92.553 Y68.283 E0.00248
G1 X91.815 Y67.545 E0.00630
G1 X91.404 Y67.545 E0.00248
G1 X92.553 Y68.694 E0.00981
G1 X92.553 Y69.104 E0.00248
G1 X90.993 Y67.545 E0.01332
G1 X90.582 Y67.545 E0.00248
G1 X92.553 Y69.515 E0.01683
G1 X92.553 Y69.926 E0.00248
G1 X90.172 Y67.545 E0.02034
G1 X89.761 Y67.545 E0.00248
G1 X92.553 Y70.337 E0.02385
G1 X92.553 Y70.748 E0.00248
G1 X89.350 Y67.545 E0.02736
G1 X88.939 Y67.545 E0.00248
G1 X92.553 Y71.159 E0.03087
G1 X92.553 Y71.570 E0.00248
G1 X88.528 Y67.545 E0.03438
G1 X88.117 Y67.545 E0.00248
G1 X92.553 Y71.981 E0.03789
G1 X92.553 Y72.392 E0.00248
G1 X87.706 Y67.545 E0.04140
G1 X87.295 Y67.545 E0.00248
G1 X92.553 Y72.802 E0.04491
G1 X92.553 Y73.213 E0.00248
G1 X86.884 Y67.545 E0.04842
G1 X86.474 Y67.545 E0.00248
G1 X92.553 Y73.624 E0.05193
G1 X92.553 Y74.035 E0.00248
G1 X86.063 Y67.545 E0.05544
G1 X85.652 Y67.545 E0.00248
G1 X92.553 Y74.446 E0.05895
G1 X92.553 Y74.857 E0.00248
G1 X85.241 Y67.545 E0.06246
G1 X84.830 Y67.545 E0.00248
G1 X92.553 Y75.268 E0.06597
G1 X92.553 Y75.679 E0.00248
G1 X84.419 Y67.545 E0.06948
G1 X84.008 Y67.545 E0.00248
G1 X92.553 Y76.089 E0.07298
G1 X92.553 Y76.500 E0.00248
G1 X83.597 Y67.545 E0.07649
G1 X83.186 Y67.545 E0.00248
G1 X92.553 Y76.911 E0.08000
G1 X92.553 Y77.322 E0.00248
G1 X82.776 Y67.545 E0.08351
M73 Q1 S124
G1 X82.365 Y67.545 E0.00248
G1 X92.553 Y77.733 E0.08702
M73 P1 R124
G1 X92.553 Y78.144 E0.00248
G1 X81.954 Y67.545 E0.09053
G1 X81.543 Y67.545 E0.00248
G1 X92.553 Y78.555 E0.09404
G1 X92.553 Y78.966 E0.00248
G1 X81.132 Y67.545 E0.09755
G1 X80.721 Y67.545 E0.00248
G1 X92.553 Y79.377 E0.10106
G1 X92.553 Y79.787 E0.00248
G1 X80.310 Y67.545 E0.10457
G1 X79.899 Y67.545 E0.00248
G1 X92.553 Y80.198 E0.10808
G1 X92.553 Y80.609 E0.00248
G1 X79.489 Y67.545 E0.11159
G1 X79.078 Y67.545 E0.00248
G1 X92.553 Y81.020 E0.11510
G1 X92.553 Y81.431 E0.00248
G1 X78.667 Y67.545 E0.11861
G1 X78.256 Y67.545 E0.00248
G1 X92.553 Y81.842 E0.12212
G1 X92.553 Y82.253 E0.00248
G1 X77.845 Y67.545 E0.12563
G1 X77.434 Y67.545 E0.00248
G1 X92.553 Y82.664 E0.12914
G1 X92.553 Y83.075 E0.00248
G1 X77.023 Y67.545 E0.13265
G1 X76.612 Y67.545 E0.00248
G1 X92.553 Y83.485 E0.13616
G1 X92.553 Y83.896 E0.00248
G1 X76.201 Y67.545 E0.13967
G1 X75.791 Y67.545 E0.00248
G1 X92.553 Y84.307 E0.14318
G1 X92.553 Y84.718 E0.00248
G1 X75.380 Y67.545 E0.14668
G1 X74.969 Y67.545 E0.00248
G1 X92.553 Y85.129 E0.15019
G1 X92.553 Y85.540 E0.00248
G1 X74.558 Y67.545 E0.15370
G1 X74.147 Y67.545 E0.00248
G1 X92.553 Y85.951 E0.15721
G1 X92.553 Y86.362 E0.00248
G1 X73.736 Y67.545 E0.16072
G1 X73.325 Y67.545 E0.00248
G1 X92.553 Y86.773 E0.16423
M73 P1 R123
G1 X92.553 Y87.183 E0.00248
G1 X72.914 Y67.545 E0.16774
G1 X72.503 Y67.545 E0.00248
G1 X92.553 Y87.594 E0.17125
G1 X92.553 Y88.005 E0.00248
G1 X72.093 Y67.545 E0.17476
M73 Q1 S123
G1 X71.682 Y67.545 E0.00248
G1 X92.553 Y88.416 E0.17827
G1 X92.553 Y88.827 E0.00248
G1 X71.271 Y67.545 E0.18178
G1 X70.860 Y67.545 E0.00248
G1 X92.553 Y89.238 E0.18529
G1 X92.553 Y89.649 E0.00248
G1 X70.449 Y67.545 E0.18880
G1 X70.038 Y67.545 E0.00248
G1 X92.553 Y90.060 E0.19231
G1 X92.553 Y90.471 E0.00248
G1 X69.627 Y67.545 E0.19582
G1 X69.216 Y67.545 E0.00248
G1 X92.553 Y90.881 E0.19933
G1 X92.553 Y91.292 E0.00248
G1 X69.044 Y67.783 E0.20080
G1 X69.044 Y68.194 E0.00248
G1 X92.553 Y91.703 E0.20080
G1 X92.553 Y92.114 E0.00248
G1 X69.044 Y68.605 E0.20080
G1 X69.044 Y69.016 E0.00248
G1 X92.553 Y92.525 E0.20080
G1 X92.553 Y92.936 E0.00248
G1 X69.044 Y69.427 E0.20080
G1 X69.044 Y69.838 E0.00248
G1 X92.553 Y93.347 E0.20080
G1 X92.553 Y93.758 E0.00248
G1 X69.044 Y70.249 E0.20080
G1 X69.044 Y70.659 E0.00248
G1 X92.553 Y94.169 E0.20080
G1 X92.553 Y94.579 E0.00248
G1 X69.044 Y71.070 E0.20080
G1 X69.044 Y71.481 E0.00248
G1 X92.553 Y94.990 E0.20080
G1 X92.553 Y95.229 E0.00144
G1 X92.381 Y95.229 E0.00104
G1 X69.044 Y71.892 E0.19933
G1 X69.044 Y72.303 E0.00248
G1 X91.970 Y95.229 E0.19582
G1 X91.559 Y95.229 E0.00248
G1 X69.044 Y72.714 E0.19231
G1 X69.044 Y73.125 E0.00248
G1 X91.148 Y95.229 E0.18880
G1 X90.737 Y95.229 E0.00248
G1 X69.044 Y73.536 E0.18529
G1 X69.044 Y73.947 E0.00248
G1 X90.326 Y95.229 E0.18178
G1 X89.915 Y95.229 E0.00248
G1 X69.044 Y74.357 E0.17827
G1 X69.044 Y74.768 E0.00248
G1 X89.505 Y95.229 E0.17476
G1 X89.094 Y95.229 E0.00248
G1 X69.044 Y75.179 E0.17125
G1 X69.044 Y75.590 E0.00248
G1 X88.683 Y95.229 E0.16774
G1 X88.272 Y95.229 E0.00248
G1 X69.044 Y76.001 E0.16423
G1 X69.044 Y76.412 E0.00248
G1 X87.861 Y95.229 E0.16072
M73 P2 R123
M73 Q2 S123
G1 X87.450 Y95.229 E0.00248
G1 X69.044 Y76.823 E0.15721
G1 X69.044 Y77.234 E0.00248
G1 X87.039 Y95.229 E0.15370
G1 X86.628 Y95.229 E0.00248
G1 X69.044 Y77.645 E0.15019
G1 X69.044 Y78.055 E0.00248
G1 X86.217 Y95.229 E0.14668
G1 X85.807 Y95.229 E0.00248
G1 X69.044 Y78.466 E0.14317
G1 X69.044 Y78.877 E0.00248
G1 X85.396 Y95.229 E0.13966
G1 X84.985 Y95.229 E0.00248
G1 X69.044 Y79.288 E0.13616
M73 P2 R122
G1 X69.044 Y79.699 E0.00248
G1 X84.574 Y95.229 E0.13265
G1 X84.163 Y95.229 E0.00248
G1 X69.044 Y80.110 E0.12914
G1 X69.044 Y80.521 E0.00248
G1 X83.752 Y95.229 E0.12563
G1 X83.341 Y95.229 E0.00248
G1 X69.044 Y80.932 E0.12212
M73 Q2 S122
G1 X69.044 Y81.343 E0.00248
G1 X82.930 Y95.229 E0.11861
G1 X82.520 Y95.229 E0.00248
G1 X69.044 Y81.753 E0.11510
G1 X69.044 Y82.164 E0.00248
G1 X82.109 Y95.229 E0.11159
G1 X81.698 Y95.229 E0.00248
G1 X69.044 Y82.575 E0.10808
G1 X69.044 Y82.986 E0.00248
G1 X81.287 Y95.229 E0.10457
G1 X80.876 Y95.229 E0.00248
G1 X69.044 Y83.397 E0.10106
G1 X69.044 Y83.808 E0.00248
G1 X80.465 Y95.229 E0.09755
G1 X80.054 Y95.229 E0.00248
G1 X69.044 Y84.219 E0.09404
G1 X69.044 Y84.630 E0.00248
G1 X79.643 Y95.229 E0.09053
G1 X79.232 Y95.229 E0.00248
G1 X69.044 Y85.041 E0.08702
G1 X69.044 Y85.451 E0.00248
G1 X78.822 Y95.229 E0.08351
G1 X78.411 Y95.229 E0.00248
G1 X69.044 Y85.862 E0.08000
G1 X69.044 Y86.273 E0.00248
G1 X78.000 Y95.229 E0.07649
G1 X77.589 Y95.229 E0.00248
G1 X69.044 Y86.684 E0.07298
G1 X69.044 Y87.095 E0.00248
G1 X77.178 Y95.229 E0.06947
G1 X76.767 Y95.229 E0.00248
G1 X69.044 Y87.506 E0.06596
G1 X69.044 Y87.917 E0.00248
G1 X76.356 Y95.229 E0.06246
G1 X75.945 Y95.229 E0.00248
G1 X69.044 Y88.328 E0.05895
G1 X69.044 Y88.739 E0.00248
G1 X75.534 Y95.229 E0.05544
G1 X75.124 Y95.229 E0.00248
G1 X69.044 Y89.149 E0.05193
G1 X69.044 Y89.560 E0.00248
G1 X74.713 Y95.229 E0.04842
G1 X74.302 Y95.229 E0.00248
G1 X69.044 Y89.971 E0.04491
G1 X69.044 Y90.382 E0.00248
G1 X73.891 Y95.229 E0.04140
G1 X73.480 Y95.229 E0.00248
G1 X69.044 Y90.793 E0.03789
G1 X69.044 Y91.204 E0.00248
G1 X73.069 Y95.229 E0.03438
G1 X72.658 Y95.229 E0.00248
G1 X69.044 Y91.615 E0.03087
G1 X69.044 Y92.026 E0.00248
G1 X72.247 Y95.229 E0.02736
G1 X71.836 Y95.229 E0.00248
G1 X69.044 Y92.436 E0.02385
G1 X69.044 Y92.847 E0.00248
G1 X71.426 Y95.229 E0.02034
G1 X71.015 Y95.229 E0.00248
G1 X69.044 Y93.258 E0.01683
G1 X69.044 Y93.669 E0.00248
G1 X70.604 Y95.229 E0.01332
G1 X70.193 Y95.229 E0.00248
G1 X69.044 Y94.080 E0.00981
G1 X69.044 Y94.491 E0.00248
G1 X69.782 Y95.229 E0.00630
G1 X69.371 Y95.229 E0.00248
G1 X68.914 Y94.772 E0.00391
M204 S1000
; stop printing object simplify_face.stl id:0 copy 0
M106 S84.15
;LAYER_CHANGE
;Z:0.1
;HEIGHT:0.05
;BEFORE_LAYER_CHANGE
G92 E0.0
;0.1


;WIPE_START
G1 F8640.000
G1 X69.371 Y95.229 E-0.14930
G1 X69.782 Y95.229 E-0.09487
G1 X69.044 Y94.491 E-0.24096
G1 X69.044 Y94.080 E-0.09487
G1 X69.595 Y94.631 E-0.17999
;WIPE_END
G1 E-0.04000 F2100.000
G1 Z0.200 F10800.000
;AFTER_LAYER_CHANGE
;0.1
G1 X66.853 Y99.696
G1 Z0.100
G1 E0.80000 F2100.000
;TYPE:Skirt
;WIDTH:0.3
G1 F2400.000
G1 X65.832 Y99.144 E0.00698
G1 X65.227 Y98.563 E0.00504
G1 X64.766 Y97.863 E0.00504
G1 X64.475 Y97.081 E0.00501
G1 X64.364 Y96.250 E0.00504
G1 X64.364 Y66.508 E0.17884
G1 X64.574 Y65.362 E0.00701
G1 X65.129 Y64.333 E0.00703
G1 X65.684 Y63.749 E0.00484
G1 X66.355 Y63.295 E0.00487
G1 X67.104 Y62.998 E0.00484
G1 X67.903 Y62.869 E0.00487
G1 X93.503 Y62.864 E0.15394
G1 X94.196 Y62.929 E0.00419
G1 X94.861 Y63.121 E0.00416
G1 X95.478 Y63.431 E0.00416
