; generated by PrusaSlicer 2.3.0+win64 on 2022-06-23 at 01:34:35 UTC

; 

; external perimeters extrusion width = 0.45mm
; perimeters extrusion width = 0.45mm
; infill extrusion width = 0.45mm
; solid infill extrusion width = 0.45mm
; top infill extrusion width = 0.40mm
; first layer extrusion width = 0.42mm

M73 P0 R111
M73 Q0 S112
M201 X1000 Y1000 Z200 E5000 ; sets maximum accelerations, mm/sec^2
M203 X200 Y200 Z12 E120 ; sets maximum feedrates, mm/sec
M204 P1250 R1250 T1250 ; sets acceleration (P, T) and retract acceleration (R), mm/sec^2
M205 X8.00 Y8.00 Z0.40 E4.50 ; sets the jerk limits, mm/sec
M205 S0 T0 ; sets the minimum extruding and travel feed rate, mm/sec
M107
;TYPE:Custom
M862.3 P "MK3" ; printer model check
M862.1 P0.4 ; nozzle diameter check
M115 U3.9.2 ; tell printer latest fw version
G90 ; use absolute coordinates
M83 ; extruder relative mode
M104 S215 ; set extruder temp
M140 S60 ; set bed temp
M190 S60 ; wait for bed temp
M109 S215 ; wait for extruder temp
G28 W ; home all without mesh bed level
G80 ; mesh bed leveling
G1 Y-3.0 F1000.0 ; go outside print area
G92 E0.0
G1 X60.0 E9.0 F1000.0 ; intro line
G1 X100.0 E12.5 F1000.0 ; intro line
G92 E0.0
M221 S95

; Don't change E values below. Excessive value can damage the printer.
M907 E430 ; set extruder motor current
G21 ; set units to millimeters
G90 ; use absolute coordinates
M83 ; use relative distances for extrusion
M900 K0.05 ; Filament gcode LA 1.5
M900 K30 ; Filament gcode LA 1.0
;LAYER_CHANGE
;Z:0.2
;HEIGHT:0.2
;BEFORE_LAYER_CHANGE
G92 E0.0
;0.2


G1 E-0.80000 F2100.000
G1 Z0.400 F10800.000
;AFTER_LAYER_CHANGE
;0.2
G1 X89.459 Y86.690
G1 Z0.200
G1 E0.80000 F2100.000
M204 S1000
;TYPE:Skirt
;WIDTH:0.42
G1 F1200.000
G1 X90.062 Y86.316 E0.02225
G1 X90.744 Y86.137 E0.02213
G1 X159.004 Y86.123 E2.14023
G1 X159.778 Y86.254 E0.02461
G1 X160.467 Y86.629 E0.02461
G1 X160.996 Y87.209 E0.02461
G1 X161.308 Y87.929 E0.02461
G1 X161.377 Y88.472 E0.01716
G1 X161.376 Y93.572 E0.15991
G1 X161.299 Y94.103 E0.01680
G1 X161.106 Y94.603 E0.01680
G1 X140.905 Y122.922 E1.09068
G1 X140.180 Y123.563 E0.03036
G1 X139.735 Y123.761 E0.01526
G1 X139.255 Y123.863 E0.01538
G1 X110.973 Y123.877 E0.88677
G1 X110.357 Y123.788 E0.01953
G1 X109.784 Y123.543 E0.01953
G1 X109.073 Y122.892 E0.03024
G1 X89.061 Y94.875 E1.07950
G1 X88.777 Y94.342 E0.01894
G1 X88.637 Y93.755 E0.01894
G1 X88.623 Y88.470 E0.16572
G1 X88.709 Y87.868 E0.01906
G1 X88.995 Y87.223 E0.02213
G1 X89.419 Y86.736 E0.02025
; printing object bend.stl id:0 copy 0
;WIPE_START
G1 F8640.000
G1 X90.062 Y86.316 E-0.17714
G1 X90.744 Y86.137 E-0.16298
G1 X92.563 Y86.136 E-0.41988
;WIPE_END
G1 E-0.04000 F2100.000
G1 Z0.600 F10800.000
G1 X91.787 Y89.287
G1 Z0.200
G1 E0.80000 F2100.000
;TYPE:Perimeter
G1 F1200.000
G1 X115.213 Y89.287 E0.73450
G1 X115.213 Y117.287 E0.87792
G1 X134.787 Y117.287 E0.61373
M73 Q0 S111
G1 X134.787 Y89.287 E0.87792
G1 X158.213 Y89.287 E0.73450
G1 X158.213 Y92.713 E0.10741
G1 X138.213 Y92.713 E0.62709
G1 X138.213 Y120.713 E0.87792
G1 X111.787 Y120.713 E0.82856
G1 X111.787 Y92.713 E0.87792
G1 X91.787 Y92.713 E0.62709
G1 X91.787 Y89.347 E0.10553
;WIPE_START
G1 F8640.000
G1 X95.078 Y89.339 E-0.76000
;WIPE_END
G1 E-0.04000 F2100.000
G1 Z0.600 F10800.000
G1 X115.590 Y116.910
G1 Z0.200
G1 E0.80000 F2100.000
;TYPE:External perimeter
G1 F1200.000
G1 X134.410 Y116.910 E0.59009
G1 X134.410 Y88.910 E0.87792
G1 X158.590 Y88.910 E0.75815
G1 X158.590 Y93.090 E0.13106
G1 X138.590 Y93.090 E0.62709
G1 X138.590 Y121.090 E0.87792
G1 X111.410 Y121.090 E0.85221
G1 X111.410 Y93.090 E0.87792
G1 X91.410 Y93.090 E0.62709
G1 X91.410 Y88.910 E0.13106
G1 X115.590 Y88.910 E0.75815
G1 X115.590 Y116.850 E0.87604
G1 X115.684 Y117.299 F10800.000
;WIPE_START
G1 F8640.000
G1 X118.881 Y116.860 E-0.76000
;WIPE_END
G1 E-0.04000 F2100.000
G1 Z0.600 F10800.000
G1 X157.336 Y89.400
G1 Z0.200
G1 E0.80000 F2100.000
;TYPE:Solid infill
;WIDTH:0.420732
G1 F1200.000
G1 X157.930 Y89.994 E0.02640
G1 X157.930 Y90.529 E0.01679
G1 X156.971 Y89.570 E0.04260
G1 X156.437 Y89.570 E0.01679
G1 X157.930 Y91.063 E0.06633
G1 X157.930 Y91.597 E0.01679
G1 X155.903 Y89.570 E0.09007
G1 X155.368 Y89.570 E0.01679
G1 X157.930 Y92.132 E0.11381
G1 X157.930 Y92.430 E0.00938
G1 X157.694 Y92.430 E0.00741
G1 X154.834 Y89.570 E0.12707
G1 X154.300 Y89.570 E0.01679
G1 X157.160 Y92.430 E0.12707
G1 X156.626 Y92.430 E0.01679
G1 X153.766 Y89.570 E0.12707
G1 X153.231 Y89.570 E0.01679
G1 X156.091 Y92.430 E0.12707
G1 X155.557 Y92.430 E0.01679
G1 X152.697 Y89.570 E0.12707
G1 X152.163 Y89.570 E0.01679
G1 X155.023 Y92.430 E0.12707
G1 X154.489 Y92.430 E0.01679
G1 X151.628 Y89.570 E0.12707
G1 X151.094 Y89.570 E0.01679
G1 X153.954 Y92.430 E0.12707
G1 X153.420 Y92.430 E0.01679
G1 X150.560 Y89.570 E0.12707
G1 X150.025 Y89.570 E0.01679
G1 X152.886 Y92.430 E0.12707
G1 X152.351 Y92.430 E0.01679
G1 X149.491 Y89.570 E0.12707
G1 X148.957 Y89.570 E0.01679
G1 X151.817 Y92.430 E0.12707
G1 X151.283 Y92.430 E0.01679
G1 X148.422 Y89.570 E0.12707
G1 X147.888 Y89.570 E0.01679
G1 X150.748 Y92.430 E0.12707
G1 X150.214 Y92.430 E0.01679
G1 X147.354 Y89.570 E0.12707
G1 X146.820 Y89.570 E0.01679
G1 X149.680 Y92.430 E0.12707
G1 X149.145 Y92.430 E0.01679
G1 X146.285 Y89.570 E0.12707
G1 X145.751 Y89.570 E0.01679
G1 X148.611 Y92.430 E0.12707
G1 X148.077 Y92.430 E0.01679
G1 X145.217 Y89.570 E0.12707
G1 X144.682 Y89.570 E0.01679
G1 X147.543 Y92.430 E0.12707
G1 X147.008 Y92.430 E0.01679
G1 X144.148 Y89.570 E0.12707
G1 X143.614 Y89.570 E0.01679
G1 X146.474 Y92.430 E0.12707
G1 X145.940 Y92.430 E0.01679
G1 X143.079 Y89.570 E0.12707
G1 X142.545 Y89.570 E0.01679
G1 X145.405 Y92.430 E0.12707
G1 X144.871 Y92.430 E0.01679
G1 X142.011 Y89.570 E0.12707
G1 X141.476 Y89.570 E0.01679
G1 X144.337 Y92.430 E0.12707
G1 X143.802 Y92.430 E0.01679
G1 X140.942 Y89.570 E0.12707
G1 X140.408 Y89.570 E0.01679
G1 X143.268 Y92.430 E0.12707
G1 X142.734 Y92.430 E0.01679
G1 X139.874 Y89.570 E0.12707
G1 X139.339 Y89.570 E0.01679
G1 X142.199 Y92.430 E0.12707
G1 X141.665 Y92.430 E0.01679
G1 X138.805 Y89.570 E0.12707
G1 X138.271 Y89.570 E0.01679
G1 X141.131 Y92.430 E0.12707
G1 X140.597 Y92.430 E0.01679
G1 X137.736 Y89.570 E0.12707
G1 X137.202 Y89.570 E0.01679
G1 X140.062 Y92.430 E0.12707
G1 X139.528 Y92.430 E0.01679
G1 X136.668 Y89.570 E0.12707
G1 X136.133 Y89.570 E0.01679
G1 X138.994 Y92.430 E0.12707
G1 X138.459 Y92.430 E0.01679
G1 X135.599 Y89.570 E0.12707
G1 X135.070 Y89.570 E0.01663
G1 X137.930 Y92.435 E0.12719
G1 X137.930 Y92.970 E0.01679
G1 X135.070 Y90.109 E0.12707
G1 X135.070 Y90.644 E0.01679
G1 X137.930 Y93.504 E0.12707
G1 X137.930 Y94.038 E0.01679
G1 X135.070 Y91.178 E0.12707
G1 X135.070 Y91.712 E0.01679
G1 X137.930 Y94.572 E0.12707
G1 X137.930 Y95.107 E0.01679
G1 X135.070 Y92.247 E0.12707
M73 P0 R110
G1 X135.070 Y92.781 E0.01679
G1 X137.930 Y95.641 E0.12707
G1 X137.930 Y96.175 E0.01679
G1 X135.070 Y93.315 E0.12707
G1 X135.070 Y93.849 E0.01679
G1 X137.930 Y96.710 E0.12707
G1 X137.930 Y97.244 E0.01679
G1 X135.070 Y94.384 E0.12707
G1 X135.070 Y94.918 E0.01679
G1 X137.930 Y97.778 E0.12707
G1 X137.930 Y98.313 E0.01679
G1 X135.070 Y95.452 E0.12707
G1 X135.070 Y95.987 E0.01679
G1 X137.930 Y98.847 E0.12707
G1 X137.930 Y99.381 E0.01679
G1 X135.070 Y96.521 E0.12707
G1 X135.070 Y97.055 E0.01679
G1 X137.930 Y99.916 E0.12707
G1 X137.930 Y100.450 E0.01679
G1 X135.070 Y97.590 E0.12707
G1 X135.070 Y98.124 E0.01679
G1 X137.930 Y100.984 E0.12707
G1 X137.930 Y101.518 E0.01679
G1 X135.070 Y98.658 E0.12707
G1 X135.070 Y99.192 E0.01679
G1 X137.930 Y102.053 E0.12707
G1 X137.930 Y102.587 E0.01679
G1 X135.070 Y99.727 E0.12707
G1 X135.070 Y100.261 E0.01679
G1 X137.930 Y103.121 E0.12707
G1 X137.930 Y103.656 E0.01679
G1 X135.070 Y100.795 E0.12707
G1 X135.070 Y101.330 E0.01679
G1 X137.930 Y104.190 E0.12707
G1 X137.930 Y104.724 E0.01679
G1 X135.070 Y101.864 E0.12707
G1 X135.070 Y102.398 E0.01679
G1 X137.930 Y105.259 E0.12707
G1 X137.930 Y105.793 E0.01679
G1 X135.070 Y102.933 E0.12707
G1 X135.070 Y103.467 E0.01679
G1 X137.930 Y106.327 E0.12707
G1 X137.930 Y106.862 E0.01679
G1 X135.070 Y104.001 E0.12707
G1 X135.070 Y104.536 E0.01679
G1 X137.930 Y107.396 E0.12707
G1 X137.930 Y107.930 E0.01679
G1 X135.070 Y105.070 E0.12707
G1 X135.070 Y105.604 E0.01679
G1 X137.930 Y108.464 E0.12707
G1 X137.930 Y108.999 E0.01679
G1 X135.070 Y106.138 E0.12707
G1 X135.070 Y106.673 E0.01679
G1 X137.930 Y109.533 E0.12707
G1 X137.930 Y110.067 E0.01679
G1 X135.070 Y107.207 E0.12707
G1 X135.070 Y107.741 E0.01679
G1 X137.930 Y110.602 E0.12707
G1 X137.930 Y111.136 E0.01679
G1 X135.070 Y108.276 E0.12707
G1 X135.070 Y108.810 E0.01679
G1 X137.930 Y111.670 E0.12707
G1 X137.930 Y112.205 E0.01679
G1 X135.070 Y109.344 E0.12707
G1 X135.070 Y109.879 E0.01679
G1 X137.930 Y112.739 E0.12707
G1 X137.930 Y113.273 E0.01679
G1 X135.070 Y110.413 E0.12707
G1 X135.070 Y110.947 E0.01679
G1 X137.930 Y113.807 E0.12707
G1 X137.930 Y114.342 E0.01679
G1 X135.070 Y111.482 E0.12707
G1 X135.070 Y112.016 E0.01679
G1 X137.930 Y114.876 E0.12707
G1 X137.930 Y115.410 E0.01679
G1 X135.070 Y112.550 E0.12707
G1 X135.070 Y113.084 E0.01679
G1 X137.930 Y115.945 E0.12707
G1 X137.930 Y116.479 E0.01679
G1 X135.070 Y113.619 E0.12707
G1 X135.070 Y114.153 E0.01679
G1 X137.930 Y117.013 E0.12707
G1 X137.930 Y117.548 E0.01679
G1 X135.070 Y114.687 E0.12707
G1 X135.070 Y115.222 E0.01679
G1 X137.930 Y118.082 E0.12707
G1 X137.930 Y118.616 E0.01679
G1 X135.070 Y115.756 E0.12707
G1 X135.070 Y116.290 E0.01679
G1 X137.930 Y119.151 E0.12707
G1 X137.930 Y119.685 E0.01679
G1 X135.070 Y116.825 E0.12707
G1 X135.070 Y117.359 E0.01679
G1 X137.930 Y120.219 E0.12707
G1 X137.930 Y120.430 E0.00663
G1 X137.607 Y120.430 E0.01016
G1 X134.747 Y117.570 E0.12707
G1 X134.212 Y117.570 E0.01679
G1 X137.072 Y120.430 E0.12707
M73 Q1 S111
G1 X136.538 Y120.430 E0.01679
G1 X133.678 Y117.570 E0.12707
M73 P1 R110
G1 X133.144 Y117.570 E0.01679
G1 X136.004 Y120.430 E0.12707
G1 X135.470 Y120.430 E0.01679
G1 X132.609 Y117.570 E0.12707
G1 X132.075 Y117.570 E0.01679
G1 X134.935 Y120.430 E0.12707
G1 X134.401 Y120.430 E0.01679
G1 X131.541 Y117.570 E0.12707
G1 X131.006 Y117.570 E0.01679
G1 X133.867 Y120.430 E0.12707
G1 X133.332 Y120.430 E0.01679
G1 X130.472 Y117.570 E0.12707
G1 X129.938 Y117.570 E0.01679
G1 X132.798 Y120.430 E0.12707
G1 X132.264 Y120.430 E0.01679
G1 X129.403 Y117.570 E0.12707
G1 X128.869 Y117.570 E0.01679
G1 X131.729 Y120.430 E0.12707
G1 X131.195 Y120.430 E0.01679
G1 X128.335 Y117.570 E0.12707
G1 X127.801 Y117.570 E0.01679
G1 X130.661 Y120.430 E0.12707
G1 X130.126 Y120.430 E0.01679
G1 X127.266 Y117.570 E0.12707
G1 X126.732 Y117.570 E0.01679
G1 X129.592 Y120.430 E0.12707
G1 X129.058 Y120.430 E0.01679
G1 X126.198 Y117.570 E0.12707
G1 X125.663 Y117.570 E0.01679
G1 X128.524 Y120.430 E0.12707
G1 X127.989 Y120.430 E0.01679
G1 X125.129 Y117.570 E0.12707
G1 X124.595 Y117.570 E0.01679
G1 X127.455 Y120.430 E0.12707
G1 X126.921 Y120.430 E0.01679
G1 X124.060 Y117.570 E0.12707
G1 X123.526 Y117.570 E0.01679
G1 X126.386 Y120.430 E0.12707
G1 X125.852 Y120.430 E0.01679
G1 X122.992 Y117.570 E0.12707
G1 X122.457 Y117.570 E0.01679
G1 X125.318 Y120.430 E0.12707
G1 X124.783 Y120.430 E0.01679
G1 X121.923 Y117.570 E0.12707
G1 X121.389 Y117.570 E0.01679
G1 X124.249 Y120.430 E0.12707
G1 X123.715 Y120.430 E0.01679
G1 X120.855 Y117.570 E0.12707
G1 X120.320 Y117.570 E0.01679
G1 X123.180 Y120.430 E0.12707
G1 X122.646 Y120.430 E0.01679
G1 X119.786 Y117.570 E0.12707
G1 X119.252 Y117.570 E0.01679
G1 X122.112 Y120.430 E0.12707
G1 X121.578 Y120.430 E0.01679
G1 X118.717 Y117.570 E0.12707
G1 X118.183 Y117.570 E0.01679
G1 X121.043 Y120.430 E0.12707
G1 X120.509 Y120.430 E0.01679
G1 X117.649 Y117.570 E0.12707
G1 X117.114 Y117.570 E0.01679
G1 X119.975 Y120.430 E0.12707
G1 X119.440 Y120.430 E0.01679
G1 X116.580 Y117.570 E0.12707
G1 X116.046 Y117.570 E0.01679
G1 X118.906 Y120.430 E0.12707
G1 X118.372 Y120.430 E0.01679
G1 X115.342 Y117.400 E0.13461
;WIPE_START
G1 F8640.000
G1 X117.669 Y119.728 E-0.76000
;WIPE_END
G1 E-0.04000 F2100.000
G1 Z0.600 F10800.000
G1 X115.100 Y89.909
G1 Z0.200
G1 E0.80000 F2100.000
G1 F1200.000
G1 X114.761 Y89.570 E0.01505
G1 X114.227 Y89.570 E0.01679
G1 X114.930 Y90.273 E0.03125
G1 X114.930 Y90.807 E0.01679
G1 X113.693 Y89.570 E0.05498
G1 X113.158 Y89.570 E0.01679
G1 X114.930 Y91.342 E0.07872
G1 X114.930 Y91.876 E0.01679
G1 X112.624 Y89.570 E0.10246
G1 X112.090 Y89.570 E0.01679
G1 X114.930 Y92.410 E0.12620
G1 X114.930 Y92.945 E0.01679
G1 X111.555 Y89.570 E0.14994
G1 X111.021 Y89.570 E0.01679
G1 X114.930 Y93.479 E0.17367
G1 X114.930 Y94.013 E0.01679
G1 X110.487 Y89.570 E0.19741
G1 X109.952 Y89.570 E0.01679
G1 X114.930 Y94.548 E0.22115
G1 X114.930 Y95.082 E0.01679
G1 X109.418 Y89.570 E0.24489
G1 X108.884 Y89.570 E0.01679
G1 X114.930 Y95.616 E0.26863
G1 X114.930 Y96.151 E0.01679
G1 X112.070 Y93.290 E0.12707
G1 X112.070 Y93.825 E0.01679
G1 X114.930 Y96.685 E0.12707
G1 X114.930 Y97.219 E0.01679
G1 X112.070 Y94.359 E0.12707
G1 X112.070 Y94.893 E0.01679
G1 X114.930 Y97.753 E0.12707
G1 X114.930 Y98.288 E0.01679
G1 X112.070 Y95.428 E0.12707
G1 X112.070 Y95.962 E0.01679
G1 X114.930 Y98.822 E0.12707
G1 X114.930 Y99.356 E0.01679
G1 X112.070 Y96.496 E0.12707
M73 Q1 S110
G1 X112.070 Y97.030 E0.01679
G1 X114.930 Y99.891 E0.12707
G1 X114.930 Y100.425 E0.01679
G1 X112.070 Y97.565 E0.12707
G1 X112.070 Y98.099 E0.01679
G1 X114.930 Y100.959 E0.12707
G1 X114.930 Y101.494 E0.01679
G1 X112.070 Y98.633 E0.12707
G1 X112.070 Y99.168 E0.01679
G1 X114.930 Y102.028 E0.12707
G1 X114.930 Y102.562 E0.01679
G1 X112.070 Y99.702 E0.12707
G1 X112.070 Y100.236 E0.01679
G1 X114.930 Y103.097 E0.12707
G1 X114.930 Y103.631 E0.01679
G1 X112.070 Y100.771 E0.12707
G1 X112.070 Y101.305 E0.01679
G1 X114.930 Y104.165 E0.12707
G1 X114.930 Y104.699 E0.01679
G1 X112.070 Y101.839 E0.12707
G1 X112.070 Y102.374 E0.01679
G1 X114.930 Y105.234 E0.12707
G1 X114.930 Y105.768 E0.01679
G1 X112.070 Y102.908 E0.12707
G1 X112.070 Y103.442 E0.01679
G1 X114.930 Y106.302 E0.12707
G1 X114.930 Y106.837 E0.01679
G1 X112.070 Y103.976 E0.12707
G1 X112.070 Y104.511 E0.01679
G1 X114.930 Y107.371 E0.12707
G1 X114.930 Y107.905 E0.01679
G1 X112.070 Y105.045 E0.12707
G1 X112.070 Y105.579 E0.01679
G1 X114.930 Y108.440 E0.12707
G1 X114.930 Y108.974 E0.01679
G1 X112.070 Y106.114 E0.12707
G1 X112.070 Y106.648 E0.01679
G1 X114.930 Y109.508 E0.12707
G1 X114.930 Y110.043 E0.01679
G1 X112.070 Y107.182 E0.12707
G1 X112.070 Y107.717 E0.01679
G1 X114.930 Y110.577 E0.12707
G1 X114.930 Y111.111 E0.01679
G1 X112.070 Y108.251 E0.12707
G1 X112.070 Y108.785 E0.01679
G1 X114.930 Y111.645 E0.12707
G1 X114.930 Y112.180 E0.01679
G1 X112.070 Y109.320 E0.12707
G1 X112.070 Y109.854 E0.01679
G1 X114.930 Y112.714 E0.12707
G1 X114.930 Y113.248 E0.01679
G1 X112.070 Y110.388 E0.12707
G1 X112.070 Y110.922 E0.01679
G1 X114.930 Y113.783 E0.12707
G1 X114.930 Y114.317 E0.01679
G1 X112.070 Y111.457 E0.12707
G1 X112.070 Y111.991 E0.01679
G1 X114.930 Y114.851 E0.12707
G1 X114.930 Y115.386 E0.01679
G1 X112.070 Y112.525 E0.12707
G1 X112.070 Y113.060 E0.01679
G1 X114.930 Y115.920 E0.12707
G1 X114.930 Y116.454 E0.01679
G1 X112.070 Y113.594 E0.12707
G1 X112.070 Y114.128 E0.01679
G1 X115.100 Y117.158 E0.13461
;WIPE_START
G1 F8640.000
G1 X112.772 Y114.831 E-0.76000
;WIPE_END
G1 E-0.04000 F2100.000
G1 Z0.600 F10800.000
G1 X111.900 Y114.493
G1 Z0.200
G1 E0.80000 F2100.000
G1 F1200.000
G1 X117.837 Y120.430 E0.26378
G1 X117.303 Y120.430 E0.01679
G1 X112.070 Y115.197 E0.23250
G1 X112.070 Y115.731 E0.01679
G1 X116.769 Y120.430 E0.20876
G1 X116.234 Y120.430 E0.01679
G1 X112.070 Y116.266 E0.18502
G1 X112.070 Y116.800 E0.01679
G1 X115.700 Y120.430 E0.16129
G1 X115.166 Y120.430 E0.01679
G1 X112.070 Y117.334 E0.13755
G1 X112.070 Y117.868 E0.01679
G1 X114.632 Y120.430 E0.11381
G1 X114.097 Y120.430 E0.01679
G1 X112.070 Y118.403 E0.09007
G1 X112.070 Y118.937 E0.01679
G1 X113.563 Y120.430 E0.06633
G1 X113.029 Y120.430 E0.01679
G1 X112.070 Y119.471 E0.04260
G1 X112.070 Y120.006 E0.01679
G1 X112.664 Y120.600 E0.02640
;WIPE_START
G1 F8640.000
G1 X112.070 Y120.006 E-0.19402
G1 X112.070 Y119.471 E-0.12337
G1 X113.029 Y120.430 E-0.31308
G1 X113.563 Y120.430 E-0.12337
G1 X113.544 Y120.411 E-0.00615
