; generated by PrusaSlicer 2.3.0+win64 on 2021-12-15 at 03:36:19 UTC

; 

; external perimeters extrusion width = 0.45mm
; perimeters extrusion width = 0.45mm
; infill extrusion width = 0.45mm
; solid infill extrusion width = 0.45mm
; top infill extrusion width = 0.40mm
; support material extrusion width = 0.35mm
; first layer extrusion width = 0.42mm

M73 P0 R320
M73 Q0 S320
M201 X1000 Y1000 Z200 E5000 ; sets maximum accelerations, mm/sec^2
M203 X200 Y200 Z12 E120 ; sets maximum feedrates, mm/sec
M204 P1250 R1250 T1250 ; sets acceleration (P, T) and retract acceleration (R), mm/sec^2
M205 X8.00 Y8.00 Z0.40 E4.50 ; sets the jerk limits, mm/sec
M205 S0 T0 ; sets the minimum extruding and travel feed rate, mm/sec
M107
;TYPE:Custom
; M862.3 P "MK3S" ; printer model check
M862.1 P0.4 ; nozzle diameter check
M115 U3.9.0 ; tell printer latest fw version
G90 ; use absolute coordinates
M83 ; extruder relative mode
M104 S215 ; set extruder temp
M140 S60 ; set bed temp
M190 S60 ; wait for bed temp
M109 S215 ; wait for extruder temp
G28 W ; home all without mesh bed level
G80 ; mesh bed leveling
G1 Y-3.0 F1000.0 ; go outside print area
G92 E0.0
G1 X60.0 E9.0 F1000.0 ; intro line
G1 X100.0 E12.5 F1000.0 ; intro line
G92 E0.0
M221 S95
G21 ; set units to millimeters
G90 ; use absolute coordinates
M83 ; use relative distances for extrusion
M900 K0.06 ; Filament gcode LA 1.5
M900 K30 ; Filament gcode LA 1.0
;LAYER_CHANGE
;Z:0.2
;HEIGHT:0.2
;BEFORE_LAYER_CHANGE
G92 E0.0
;0.2


M73 P0 R319
G1 E-0.80000 F2100.000
G1 Z0.600 F10800.000
;AFTER_LAYER_CHANGE
;0.2
G1 X87.495 Y67.567
G1 Z0.200
G1 E0.80000 F2100.000
M204 S1000
;TYPE:Skirt
;WIDTH:0.42
G1 F1200.000
G1 X95.533 Y60.985 E0.32575
G1 X104.703 Y56.093 E0.32588
G1 X114.652 Y53.082 E0.32592
G1 X125.003 Y52.064 E0.32611
G1 X135.347 Y53.082 E0.32592
G1 X145.296 Y56.093 E0.32590
G1 X154.466 Y60.984 E0.32587
G1 X162.504 Y67.566 E0.32573
G1 X169.101 Y75.587 E0.32564
G1 X174.003 Y84.739 E0.32551
G1 X177.022 Y94.670 E0.32545
G1 X178.042 Y104.999 E0.32544
G1 X177.023 Y115.327 E0.32540
G1 X174.004 Y125.259 E0.32547
G1 X169.102 Y134.411 E0.32551
G1 X162.505 Y142.433 E0.32565
G1 X154.467 Y149.015 E0.32575
G1 X145.297 Y153.907 E0.32588
G1 X135.348 Y156.918 E0.32592
G1 X125.000 Y157.936 E0.32602
G1 X114.653 Y156.918 E0.32601
G1 X104.704 Y153.907 E0.32590
G1 X95.534 Y149.016 E0.32587
G1 X87.496 Y142.434 E0.32573
G1 X80.899 Y134.413 E0.32564
G1 X75.997 Y125.261 E0.32552
G1 X72.978 Y115.330 E0.32545
G1 X71.958 Y105.002 E0.32541
G1 X72.977 Y94.673 E0.32544
G1 X75.996 Y84.741 E0.32546
G1 X80.898 Y75.589 E0.32552
G1 X87.457 Y67.614 E0.32377
;WIPE_START
G1 F8640.000
G1 X90.001 Y65.526 E-0.76000
;WIPE_END
G1 E-0.04000 F2100.000
G1 Z0.800 F10800.000
G1 X86.023 Y65.737
G1 Z0.200
G1 E0.80000 F2100.000
G1 F1200.000
G1 X94.446 Y58.903 E0.34008
G1 X104.042 Y53.840 E0.34021
G1 X114.435 Y50.744 E0.34000
G1 X124.731 Y49.731 E0.32439
G1 X125.864 Y49.791 E0.03557
G1 X136.048 Y50.840 E0.32098
G1 X146.420 Y54.031 E0.34025
G1 X155.970 Y59.181 E0.34022
G1 X164.331 Y66.091 E0.34010
G1 X171.181 Y74.498 E0.34002
G1 X176.256 Y84.077 E0.33989
G1 X179.361 Y94.461 E0.33984
G1 X180.377 Y105.251 E0.33982
G1 X179.263 Y116.031 E0.33979
G1 X176.064 Y126.387 E0.33983
G1 X170.903 Y135.919 E0.33988
G1 X163.977 Y144.263 E0.34000
G1 X155.554 Y151.097 E0.34008
G1 X145.957 Y156.160 E0.34021
G1 X135.558 Y159.257 E0.34023
G1 X124.749 Y160.271 E0.34037
G1 X113.953 Y159.160 E0.34032
G1 X103.580 Y155.969 E0.34025
G1 X94.030 Y150.819 E0.34022
G1 X85.669 Y143.909 E0.34009
G1 X78.819 Y135.502 E0.34002
G1 X73.744 Y125.923 E0.33989
G1 X70.639 Y115.539 E0.33984
G1 X69.623 Y104.750 E0.33979
G1 X70.737 Y93.969 E0.33982
G1 X73.936 Y83.613 E0.33983
G1 X79.097 Y74.081 E0.33989
G1 X85.985 Y65.783 E0.33812
G1 X86.272 Y66.022 F10800.000
G1 F1200.000
G1 X94.638 Y59.228 E0.33791
G1 X104.168 Y54.196 E0.33790
G1 X114.490 Y51.118 E0.33772
G1 X124.754 Y50.108 E0.32337
G1 X125.839 Y50.167 E0.03408
G1 X135.954 Y51.206 E0.31883
G1 X146.257 Y54.371 E0.33793
M73 Q0 S319
G1 X155.745 Y59.483 E0.33790
G1 X164.051 Y66.344 E0.33778
G1 X170.857 Y74.691 E0.33770
G1 X175.900 Y84.203 E0.33757
G1 X178.988 Y94.515 E0.33752
G1 X180.000 Y105.231 E0.33750
G1 X178.898 Y115.938 E0.33747
G1 X175.723 Y126.223 E0.33751
G1 X170.600 Y135.693 E0.33756
G1 X163.725 Y143.982 E0.33768
G1 X155.362 Y150.772 E0.33776
G1 X145.832 Y155.804 E0.33790
G1 X135.504 Y158.883 E0.33792
G1 X124.769 Y159.894 E0.33805
G1 X114.046 Y158.794 E0.33800
G1 X103.743 Y155.629 E0.33793
G1 X94.256 Y150.517 E0.33790
G1 X85.949 Y143.656 E0.33778
G1 X79.143 Y135.309 E0.33770
G1 X74.100 Y125.797 E0.33757
G1 X71.012 Y115.485 E0.33752
G1 X70.000 Y104.770 E0.33747
G1 X71.102 Y94.062 E0.33750
G1 X74.277 Y83.777 E0.33751
G1 X79.400 Y74.307 E0.33757
G1 X86.234 Y66.068 E0.33565
G1 X86.522 Y66.306 F10800.000
G1 F1200.000
G1 X94.831 Y59.553 E0.33574
G1 X104.294 Y54.552 E0.33558
G1 X114.545 Y51.491 E0.33544
G1 X124.776 Y50.485 E0.32234
G1 X125.813 Y50.543 E0.03258
G1 X135.862 Y51.572 E0.31670
G1 X146.095 Y54.712 E0.33562
G1 X155.519 Y59.786 E0.33559
G1 X163.770 Y66.596 E0.33546
G1 X170.533 Y74.884 E0.33538
G1 X175.544 Y84.329 E0.33525
G1 X178.614 Y94.569 E0.33520
G1 X179.623 Y105.211 E0.33518
G1 X178.532 Y115.845 E0.33515
M73 P0 R318
G1 X175.383 Y126.061 E0.33519
G1 X170.298 Y135.466 E0.33524
G1 X163.472 Y143.701 E0.33536
G1 X155.169 Y150.447 E0.33545
G1 X145.706 Y155.448 E0.33558
G1 X135.450 Y158.510 E0.33560
G1 X124.789 Y159.517 E0.33574
G1 X114.138 Y158.428 E0.33569
G1 X103.905 Y155.288 E0.33562
G1 X94.481 Y150.214 E0.33559
G1 X86.230 Y143.404 E0.33546
G1 X79.467 Y135.116 E0.33538
G1 X74.456 Y125.671 E0.33525
G1 X71.386 Y115.431 E0.33520
G1 X70.377 Y104.790 E0.33514
G1 X71.468 Y94.155 E0.33518
G1 X74.617 Y83.939 E0.33519
G1 X79.702 Y74.534 E0.33525
G1 X86.483 Y66.352 E0.33319
G1 X86.771 Y66.591 F10800.000
G1 F1200.000
G1 X95.024 Y59.877 E0.33356
G1 X104.419 Y54.908 E0.33327
G1 X114.600 Y51.865 E0.33316
G1 X124.798 Y50.861 E0.32130
G1 X125.787 Y50.920 E0.03106
G1 X135.769 Y51.938 E0.31460
G1 X145.932 Y55.053 E0.33330
G1 X155.293 Y60.088 E0.33327
G1 X163.490 Y66.849 E0.33314
G1 X170.208 Y75.077 E0.33306
G1 X175.189 Y84.455 E0.33293
G1 X178.241 Y94.623 E0.33288
G1 X179.246 Y105.192 E0.33285
G1 X178.166 Y115.751 E0.33282
G1 X175.042 Y125.898 E0.33286
G1 X169.996 Y135.240 E0.33292
G1 X163.220 Y143.420 E0.33305
G1 X154.976 Y150.123 E0.33313
G1 X145.581 Y155.092 E0.33327
G1 X135.396 Y158.136 E0.33329
G1 X124.809 Y159.140 E0.33343
G1 X114.231 Y158.062 E0.33338
G1 X104.068 Y154.947 E0.33331
G1 X94.707 Y149.912 E0.33327
G1 X86.510 Y143.151 E0.33314
G1 X79.792 Y134.923 E0.33306
G1 X74.811 Y125.545 E0.33293
G1 X71.759 Y115.377 E0.33287
G1 X70.754 Y104.810 E0.33282
G1 X71.834 Y94.249 E0.33285
G1 X74.958 Y84.102 E0.33286
G1 X80.004 Y74.760 E0.33293
G1 X86.733 Y66.637 E0.33072
G1 X87.020 Y66.875 F10800.000
G1 F1200.000
G1 X95.217 Y60.202 E0.33139
G1 X104.545 Y55.264 E0.33095
G1 X114.655 Y52.238 E0.33087
G1 X124.820 Y51.238 E0.32025
G1 X125.760 Y51.296 E0.02953
G1 X135.676 Y52.304 E0.31252
G1 X145.770 Y55.394 E0.33099
G1 X155.068 Y60.391 E0.33096
G1 X163.210 Y67.102 E0.33083
G1 X169.884 Y75.270 E0.33074
G1 X174.833 Y84.581 E0.33061
G1 X177.867 Y94.678 E0.33055
G1 X178.869 Y105.172 E0.33053
G1 X177.800 Y115.658 E0.33050
G1 X174.702 Y125.735 E0.33054
G1 X169.694 Y135.014 E0.33060
G1 X162.968 Y143.139 E0.33073
G1 X154.783 Y149.798 E0.33082
G1 X145.455 Y154.736 E0.33095
G1 X135.342 Y157.762 E0.33098
G1 X124.829 Y158.763 E0.33111
G1 X114.324 Y157.696 E0.33107
G1 X104.230 Y154.606 E0.33099
M73 Q0 S318
G1 X94.932 Y149.609 E0.33095
G1 X86.790 Y142.898 E0.33083
G1 X80.116 Y134.730 E0.33074
G1 X75.167 Y125.419 E0.33061
G1 X72.133 Y115.322 E0.33055
G1 X71.131 Y104.829 E0.33050
G1 X72.200 Y94.342 E0.33053
G1 X75.298 Y84.265 E0.33054
G1 X80.306 Y74.986 E0.33061
G1 X86.982 Y66.921 E0.32826
G1 X87.270 Y67.159 F10800.000
G1 F1200.000
G1 X95.409 Y60.526 E0.32922
G1 X104.671 Y55.619 E0.32864
G1 X114.710 Y52.612 E0.32858
G1 X124.841 Y51.615 E0.31919
G1 X125.732 Y51.672 E0.02799
G1 X135.584 Y52.670 E0.31046
G1 X145.608 Y55.735 E0.32868
G1 X154.842 Y60.694 E0.32864
G1 X162.930 Y67.355 E0.32851
G1 X169.560 Y75.464 E0.32842
G1 X174.477 Y84.708 E0.32829
G1 X177.493 Y94.732 E0.32823
G1 X178.492 Y105.152 E0.32821
G1 X177.434 Y115.565 E0.32818
G1 X174.361 Y125.572 E0.32822
G1 X169.391 Y134.788 E0.32828
G1 X162.715 Y142.859 E0.32841
G1 X154.591 Y149.474 E0.32850
G1 X145.329 Y154.381 E0.32864
G1 X135.287 Y157.389 E0.32866
G1 X124.848 Y158.386 E0.32880
G1 X114.416 Y157.330 E0.32875
G1 X104.392 Y154.265 E0.32868
G1 X95.158 Y149.306 E0.32864
G1 X87.070 Y142.645 E0.32851
G1 X80.440 Y134.536 E0.32842
G1 X75.523 Y125.292 E0.32829
G1 X72.507 Y115.268 E0.32823
G1 X71.508 Y104.849 E0.32818
G1 X72.566 Y94.435 E0.32821
G1 X75.639 Y84.428 E0.32822
M73 P0 R317
G1 X80.609 Y75.212 E0.32828
G1 X87.232 Y67.206 E0.32579
G1 X87.790 Y67.702 F10800.000
G1 F1200.000
G1 X95.796 Y61.175 E0.32387
G1 X104.924 Y56.331 E0.32401
G1 X114.820 Y53.359 E0.32400
G1 X124.883 Y52.369 E0.31704
G1 X125.675 Y52.424 E0.02486
G1 X135.399 Y53.402 E0.30644
G1 X145.284 Y56.417 E0.32405
G1 X154.392 Y61.300 E0.32401
G1 X162.369 Y67.862 E0.32387
G1 X168.912 Y75.851 E0.32378
G1 X173.766 Y84.961 E0.32364
G1 X176.746 Y94.842 E0.32359
G1 X177.738 Y105.114 E0.32356
G1 X176.702 Y115.380 E0.32353
G1 X173.679 Y125.248 E0.32358
G1 X168.786 Y134.336 E0.32364
G1 X162.210 Y142.298 E0.32377
G1 X154.204 Y148.825 E0.32387
G1 X145.076 Y153.669 E0.32401
G1 X135.178 Y156.642 E0.32404
G1 X124.887 Y157.632 E0.32417
G1 X114.601 Y156.598 E0.32413
G1 X104.716 Y153.583 E0.32405
G1 X95.608 Y148.700 E0.32401
G1 X87.631 Y142.138 E0.32387
G1 X81.088 Y134.149 E0.32378
G1 X76.234 Y125.039 E0.32365
G1 X73.254 Y115.158 E0.32359
G1 X72.262 Y104.888 E0.32353
G1 X73.298 Y94.620 E0.32357
G1 X76.321 Y84.752 E0.32358
G1 X81.214 Y75.664 E0.32364
G1 X87.752 Y67.749 E0.32189
G1 X88.040 Y67.986 F10800.000
G1 F1200.000
G1 X95.989 Y61.499 E0.32170
G1 X105.050 Y56.687 E0.32169
G1 X114.876 Y53.732 E0.32170
G1 X124.904 Y52.745 E0.31595
G1 X125.644 Y52.800 E0.02327
G1 X135.307 Y53.768 E0.30448
G1 X145.123 Y56.758 E0.32173
G1 X154.167 Y61.603 E0.32169
G1 X162.090 Y68.115 E0.32156
G1 X168.588 Y76.045 E0.32146
G1 X173.410 Y85.088 E0.32132
G1 X176.373 Y94.897 E0.32126
G1 X177.361 Y105.094 E0.32124
G1 X176.336 Y115.288 E0.32121
G1 X173.338 Y125.085 E0.32126
G1 X168.484 Y134.111 E0.32132
G1 X161.957 Y142.017 E0.32145
G1 X154.011 Y148.501 E0.32155
G1 X144.950 Y153.313 E0.32169
G1 X135.124 Y156.268 E0.32173
G1 X124.906 Y157.255 E0.32186
G1 X114.693 Y156.232 E0.32182
G1 X104.877 Y153.242 E0.32173
G1 X95.833 Y148.397 E0.32169
G1 X87.910 Y141.885 E0.32156
G1 X81.412 Y133.955 E0.32146
G1 X76.590 Y124.912 E0.32132
G1 X73.627 Y115.103 E0.32126
G1 X72.639 Y104.907 E0.32121
G1 X73.664 Y94.712 E0.32124
G1 X76.662 Y84.915 E0.32126
G1 X81.516 Y75.889 E0.32132
G1 X88.002 Y68.033 E0.31943
G1 X88.290 Y68.270 F10800.000
G1 F1200.000
G1 X96.182 Y61.824 E0.31952
G1 X105.177 Y57.042 E0.31938
G1 X114.931 Y54.105 E0.31940
G1 X124.924 Y53.122 E0.31485
G1 X125.613 Y53.175 E0.02166
G1 X135.215 Y54.134 E0.30256
G1 X144.961 Y57.099 E0.31942
G1 X153.942 Y61.906 E0.31938
G1 X161.810 Y68.369 E0.31924
G1 X168.264 Y76.239 E0.31914
G1 X173.055 Y85.215 E0.31900
M73 Q0 S317
G1 X175.999 Y94.952 E0.31894
G1 X176.983 Y105.075 E0.31892
G1 X175.970 Y115.195 E0.31889
G1 X172.997 Y124.923 E0.31894
G1 X168.181 Y133.885 E0.31900
G1 X161.704 Y141.737 E0.31914
G1 X153.818 Y148.176 E0.31924
G1 X144.823 Y152.958 E0.31938
G1 X135.069 Y155.895 E0.31941
G1 X124.925 Y156.878 E0.31954
G1 X114.785 Y155.866 E0.31950
G1 X105.039 Y152.901 E0.31942
G1 X96.058 Y148.094 E0.31938
G1 X88.190 Y141.631 E0.31924
G1 X81.736 Y133.761 E0.31914
G1 X76.945 Y124.785 E0.31900
G1 X74.001 Y115.048 E0.31894
G1 X73.017 Y104.926 E0.31889
G1 X74.030 Y94.805 E0.31892
G1 X77.003 Y85.077 E0.31894
G1 X81.819 Y76.115 E0.31900
G1 X88.252 Y68.317 E0.31696
G1 X88.540 Y68.554 F10800.000
G1 F1200.000
G1 X96.376 Y62.148 E0.31735
G1 X105.303 Y57.398 E0.31706
G1 X114.986 Y54.479 E0.31710
G1 X124.944 Y53.499 E0.31373
G1 X135.123 Y54.501 E0.32070
G1 X144.800 Y57.441 E0.31711
G1 X153.717 Y62.210 E0.31706
G1 X161.530 Y68.622 E0.31692
G1 X167.940 Y76.433 E0.31682
G1 X172.699 Y85.342 E0.31668
G1 X175.626 Y95.007 E0.31662
G1 X176.606 Y105.056 E0.31660
G1 X175.604 Y115.103 E0.31657
G1 X172.656 Y124.761 E0.31662
G1 X167.878 Y133.660 E0.31668
G1 X161.451 Y141.457 E0.31682
G1 X153.624 Y147.852 E0.31692
G1 X144.697 Y152.602 E0.31706
G1 X135.014 Y155.521 E0.31710
M73 P0 R316
G1 X124.944 Y156.501 E0.31723
G1 X114.877 Y155.499 E0.31719
G1 X105.200 Y152.559 E0.31711
G1 X96.283 Y147.790 E0.31706
G1 X88.470 Y141.378 E0.31692
G1 X82.060 Y133.567 E0.31682
G1 X77.301 Y124.658 E0.31668
G1 X74.374 Y114.993 E0.31662
G1 X73.394 Y104.945 E0.31657
G1 X74.396 Y94.897 E0.31660
G1 X77.344 Y85.239 E0.31662
G1 X82.122 Y76.340 E0.31668
G1 X88.502 Y68.601 E0.31450
M73 P1 R316
M73 Q1 S317
G1 X88.790 Y68.838 F10800.000
G1 F1200.000
G1 X96.569 Y62.472 E0.31518
G1 X105.430 Y57.754 E0.31475
G1 X115.041 Y54.852 E0.31479
G1 X124.963 Y53.876 E0.31259
G1 X135.031 Y54.867 E0.31720
G1 X144.638 Y57.782 E0.31479
G1 X153.492 Y62.513 E0.31475
G1 X161.251 Y68.876 E0.31461
G1 X167.616 Y76.627 E0.31450
G1 X172.344 Y85.469 E0.31436
G1 X175.252 Y95.062 E0.31430
G1 X176.229 Y105.038 E0.31427
G1 X175.238 Y115.011 E0.31424
G1 X172.315 Y124.599 E0.31430
G1 X167.575 Y133.434 E0.31436
G1 X161.198 Y141.177 E0.31450
G1 X153.431 Y147.528 E0.31460
G1 X144.570 Y152.246 E0.31475
G1 X134.959 Y155.148 E0.31479
G1 X124.962 Y156.124 E0.31491
G1 X114.969 Y155.133 E0.31488
G1 X105.362 Y152.218 E0.31479
G1 X96.508 Y147.487 E0.31475
G1 X88.749 Y141.124 E0.31461
G1 X82.384 Y133.373 E0.31450
G1 X77.656 Y124.531 E0.31436
G1 X74.748 Y114.938 E0.31430
G1 X73.771 Y104.963 E0.31424
G1 X74.762 Y94.989 E0.31428
G1 X77.685 Y85.401 E0.31430
G1 X82.425 Y76.566 E0.31436
G1 X88.752 Y68.884 E0.31203
G1 X89.040 Y69.122 F10800.000
G1 F1200.000
G1 X96.763 Y62.796 E0.31301
G1 X105.557 Y58.109 E0.31243
G1 X115.097 Y55.226 E0.31248
G1 X124.982 Y54.253 E0.31143
G1 X134.940 Y55.233 E0.31373
G1 X144.477 Y58.123 E0.31248
G1 X153.268 Y62.816 E0.31243
G1 X160.971 Y69.130 E0.31229
G1 X167.293 Y76.822 E0.31218
G1 X171.988 Y85.597 E0.31204
G1 X174.879 Y95.117 E0.31198
G1 X175.852 Y105.019 E0.31195
G1 X174.872 Y114.919 E0.31192
G1 X171.974 Y124.438 E0.31197
G1 X167.272 Y133.209 E0.31204
G1 X160.945 Y140.896 E0.31218
G1 X153.237 Y147.204 E0.31229
G1 X144.443 Y151.891 E0.31243
G1 X134.903 Y154.774 E0.31248
G1 X124.981 Y155.747 E0.31260
G1 X115.060 Y154.767 E0.31257
G1 X105.523 Y151.877 E0.31248
G1 X96.733 Y147.184 E0.31243
G1 X89.029 Y140.870 E0.31229
G1 X82.707 Y133.178 E0.31218
G1 X78.012 Y124.403 E0.31204
G1 X75.121 Y114.883 E0.31198
G1 X74.148 Y104.982 E0.31192
G1 X75.128 Y95.081 E0.31195
G1 X78.026 Y85.562 E0.31197
G1 X82.728 Y76.791 E0.31204
G1 X89.002 Y69.168 E0.30957
G1 X89.462 Y69.546 F10800.000
;TYPE:External perimeter
G1 F1200.000
G1 X97.081 Y63.305 E0.30880
M73 Q1 S316
G1 X105.769 Y58.671 E0.30875
G1 X115.195 Y55.818 E0.30880
G1 X125.000 Y54.853 E0.30889
G1 X134.805 Y55.818 E0.30892
G1 X144.231 Y58.671 E0.30880
G1 X152.919 Y63.305 E0.30875
G1 X160.534 Y69.541 E0.30861
G1 X166.784 Y77.140 E0.30849
G1 X171.427 Y85.809 E0.30835
G1 X174.287 Y95.217 E0.30828
G1 X175.253 Y105.000 E0.30826
G1 X174.287 Y114.783 E0.30823
G1 X171.427 Y124.191 E0.30828
G1 X166.784 Y132.860 E0.30835
G1 X160.534 Y140.459 E0.30849
G1 X152.919 Y146.695 E0.30860
G1 X144.231 Y151.329 E0.30875
G1 X134.805 Y154.182 E0.30880
G1 X125.000 Y155.147 E0.30892
G1 X115.195 Y154.182 E0.30889
G1 X105.769 Y151.329 E0.30880
G1 X97.081 Y146.695 E0.30875
G1 X89.466 Y140.459 E0.30860
G1 X83.216 Y132.860 E0.30849
G1 X78.573 Y124.191 E0.30835
G1 X75.713 Y114.783 E0.30828
G1 X74.747 Y105.000 E0.30823
G1 X75.713 Y95.217 E0.30826
G1 X78.572 Y85.809 E0.30828
G1 X83.216 Y77.140 E0.30835
G1 X89.424 Y69.592 E0.30642
G1 X89.848 Y69.650 F10800.000
G1 X89.715 Y69.832
;TYPE:Perimeter
G1 F1200.000
G1 X97.291 Y63.620 E0.30717
G1 X105.914 Y59.021 E0.30642
G1 X115.269 Y56.189 E0.30647
