; generated by PrusaSlicer 2.3.0+win64 on 2022-09-15 at 00:51:33 UTC

; 

; external perimeters extrusion width = 0.60mm
; perimeters extrusion width = 0.50mm
; infill extrusion width = 0.50mm
; solid infill extrusion width = 0.50mm
; top infill extrusion width = 0.45mm
; first layer extrusion width = 0.42mm

M73 P0 R141
M73 Q0 S145
M201 X1000 Y1000 Z200 E5000 ; sets maximum accelerations, mm/sec^2
M203 X200 Y200 Z12 E120 ; sets maximum feedrates, mm/sec
M204 P1250 R1250 T1250 ; sets acceleration (P, T) and retract acceleration (R), mm/sec^2
M205 X8.00 Y8.00 Z0.40 E4.50 ; sets the jerk limits, mm/sec
M205 S0 T0 ; sets the minimum extruding and travel feed rate, mm/sec
M107
;TYPE:Custom
M862.3 P "MK3" ; printer model check
M862.1 P0.4 ; nozzle diameter check
M115 U3.9.2 ; tell printer latest fw version
G90 ; use absolute coordinates
M83 ; extruder relative mode
M104 S215 ; set extruder temp
M140 S60 ; set bed temp
M190 S60 ; wait for bed temp
M109 S215 ; wait for extruder temp
G28 W ; home all without mesh bed level
G80 ; mesh bed leveling
G1 Y-3.0 F1000.0 ; go outside print area
G92 E0.0
G1 X60.0 E9.0 F1000.0 ; intro line
G1 X100.0 E12.5 F1000.0 ; intro line
G92 E0.0
M221 S95

; Don't change E values below. Excessive value can damage the printer.

M907 E538 ; set extruder motor current
G21 ; set units to millimeters
G90 ; use absolute coordinates
M83 ; use relative distances for extrusion
M900 K0.05 ; Filament gcode LA 1.5
M900 K30 ; Filament gcode LA 1.0
;LAYER_CHANGE
;Z:0.2
;HEIGHT:0.2
;BEFORE_LAYER_CHANGE
G92 E0.0
;0.2


M73 Q0 S144
G1 E-0.80000 F2100.000
G1 Z0.400 F10800.000
;AFTER_LAYER_CHANGE
;0.2
G1 X51.093 Y65.803
G1 Z0.200
G1 E0.80000 F2100.000
M204 S1000
;TYPE:Skirt
;WIDTH:0.42
G1 F1200.000
G1 X51.995 Y65.623 E0.02884
G1 X198.004 Y65.623 E4.57800
G1 X198.888 Y65.795 E0.02825
G1 X199.642 Y66.281 E0.02813
G1 X200.162 Y67.013 E0.02813
G1 X200.374 Y67.888 E0.02825
G1 X200.377 Y110.011 E1.32073
G1 X200.318 Y110.525 E0.01621
G1 X200.150 Y111.014 E0.01621
G1 X199.887 Y111.446 E0.01585
G1 X199.536 Y111.815 E0.01597
G1 X161.528 Y143.821 E1.55795
G1 X160.909 Y144.197 E0.02272
G1 X160.007 Y144.377 E0.02884
G1 X89.636 Y144.349 E2.20643
G1 X89.080 Y144.192 E0.01811
G1 X51.046 Y128.177 E1.29393
G1 X50.302 Y127.663 E0.02837
G1 X49.803 Y126.908 E0.02837
G1 X49.623 Y126.006 E0.02884
G1 X49.623 Y67.950 E1.82029
G1 X49.737 Y67.273 E0.02154
G1 X50.039 Y66.656 E0.02154
G1 X50.506 Y66.151 E0.02154
G1 X51.042 Y65.833 E0.01954
; printing object Fantastic Uusam.stl id:3 copy 0
;WIPE_START
G1 F8640.000
G1 X51.995 Y65.623 E-0.22549
G1 X54.310 Y65.623 E-0.53451
;WIPE_END
G1 E-0.04000 F2100.000
G1 Z0.600 F10800.000
G1 X128.787 Y68.787
G1 Z0.200
G1 E0.80000 F2100.000
;TYPE:Perimeter
G1 F1200.000
G1 X197.213 Y68.787 E2.14544
G1 X197.213 Y77.213 E0.26419
G1 X128.787 Y77.213 E2.14544
G1 X128.787 Y68.847 E0.26231
G1 X128.410 Y68.410 F10800.000
;TYPE:External perimeter
G1 F1200.000
G1 X197.590 Y68.410 E2.16909
G1 X197.590 Y77.590 E0.28783
G1 X128.410 Y77.590 E2.16909
M73 P0 R140
G1 X128.410 Y68.470 E0.28595
G1 X128.810 Y68.428 F10800.000
;WIPE_START
G1 F8640.000
G1 X131.701 Y68.467 E-0.76000
;WIPE_END
G1 E-0.04000 F2100.000
G1 Z0.600 F10800.000
G1 X196.335 Y68.900
G1 Z0.200
G1 E0.80000 F2100.000
;TYPE:Solid infill
;WIDTH:0.421072
G1 F1200.000
G1 X196.930 Y69.495 E0.02645
G1 X196.930 Y70.030 E0.01682
G1 X195.970 Y69.070 E0.04269
G1 X195.435 Y69.070 E0.01682
G1 X196.930 Y70.565 E0.06647
G1 X196.930 Y71.099 E0.01682
G1 X194.901 Y69.070 E0.09025
G1 X194.366 Y69.070 E0.01682
G1 X196.930 Y71.634 E0.11403
G1 X196.930 Y72.169 E0.01682
G1 X193.831 Y69.070 E0.13781
G1 X193.296 Y69.070 E0.01682
G1 X196.930 Y72.704 E0.16159
G1 X196.930 Y73.239 E0.01682
G1 X192.761 Y69.070 E0.18537
G1 X192.227 Y69.070 E0.01682
G1 X196.930 Y73.773 E0.20915
G1 X196.930 Y74.308 E0.01682
G1 X191.692 Y69.070 E0.23293
G1 X191.157 Y69.070 E0.01682
G1 X196.930 Y74.843 E0.25671
G1 X196.930 Y75.378 E0.01682
G1 X190.622 Y69.070 E0.28050
G1 X190.087 Y69.070 E0.01682
G1 X196.930 Y75.913 E0.30428
G1 X196.930 Y76.447 E0.01682
G1 X189.553 Y69.070 E0.32806
G1 X189.018 Y69.070 E0.01682
G1 X196.878 Y76.930 E0.34953
G1 X196.343 Y76.930 E0.01682
G1 X188.483 Y69.070 E0.34953
G1 X187.948 Y69.070 E0.01682
G1 X195.809 Y76.930 E0.34953
G1 X195.274 Y76.930 E0.01682
G1 X187.414 Y69.070 E0.34953
G1 X186.879 Y69.070 E0.01682
G1 X194.739 Y76.930 E0.34953
G1 X194.204 Y76.930 E0.01682
G1 X186.344 Y69.070 E0.34953
G1 X185.809 Y69.070 E0.01682
G1 X193.669 Y76.930 E0.34953
G1 X193.135 Y76.930 E0.01682
G1 X185.274 Y69.070 E0.34953
G1 X184.740 Y69.070 E0.01682
G1 X192.600 Y76.930 E0.34953
G1 X192.065 Y76.930 E0.01682
G1 X184.205 Y69.070 E0.34953
G1 X183.670 Y69.070 E0.01682
G1 X191.530 Y76.930 E0.34953
G1 X190.995 Y76.930 E0.01682
G1 X183.135 Y69.070 E0.34953
G1 X182.600 Y69.070 E0.01682
G1 X190.461 Y76.930 E0.34953
G1 X189.926 Y76.930 E0.01682
G1 X182.066 Y69.070 E0.34953
G1 X181.531 Y69.070 E0.01682
G1 X189.391 Y76.930 E0.34953
G1 X188.856 Y76.930 E0.01682
G1 X180.996 Y69.070 E0.34953
G1 X180.461 Y69.070 E0.01682
G1 X188.322 Y76.930 E0.34953
G1 X187.787 Y76.930 E0.01682
G1 X179.927 Y69.070 E0.34953
G1 X179.392 Y69.070 E0.01682
G1 X187.252 Y76.930 E0.34953
G1 X186.717 Y76.930 E0.01682
G1 X178.857 Y69.070 E0.34953
G1 X178.322 Y69.070 E0.01682
G1 X186.182 Y76.930 E0.34953
G1 X185.648 Y76.930 E0.01682
G1 X177.787 Y69.070 E0.34953
G1 X177.253 Y69.070 E0.01682
G1 X185.113 Y76.930 E0.34953
G1 X184.578 Y76.930 E0.01682
G1 X176.718 Y69.070 E0.34953
G1 X176.183 Y69.070 E0.01682
G1 X184.043 Y76.930 E0.34953
M73 Q0 S143
G1 X183.508 Y76.930 E0.01682
G1 X175.648 Y69.070 E0.34953
G1 X175.113 Y69.070 E0.01682
G1 X182.974 Y76.930 E0.34953
G1 X182.439 Y76.930 E0.01682
G1 X174.579 Y69.070 E0.34953
G1 X174.044 Y69.070 E0.01682
G1 X181.904 Y76.930 E0.34953
G1 X181.369 Y76.930 E0.01682
G1 X173.509 Y69.070 E0.34953
G1 X172.974 Y69.070 E0.01682
G1 X180.835 Y76.930 E0.34953
G1 X180.300 Y76.930 E0.01682
G1 X172.440 Y69.070 E0.34953
G1 X171.905 Y69.070 E0.01682
G1 X179.765 Y76.930 E0.34953
G1 X179.230 Y76.930 E0.01682
G1 X171.370 Y69.070 E0.34953
G1 X170.835 Y69.070 E0.01682
G1 X178.695 Y76.930 E0.34953
G1 X178.161 Y76.930 E0.01682
G1 X170.300 Y69.070 E0.34953
G1 X169.766 Y69.070 E0.01682
G1 X177.626 Y76.930 E0.34953
G1 X177.091 Y76.930 E0.01682
G1 X169.231 Y69.070 E0.34953
G1 X168.696 Y69.070 E0.01682
G1 X176.556 Y76.930 E0.34953
G1 X176.021 Y76.930 E0.01682
G1 X168.161 Y69.070 E0.34953
G1 X167.626 Y69.070 E0.01682
G1 X175.487 Y76.930 E0.34953
G1 X174.952 Y76.930 E0.01682
G1 X167.092 Y69.070 E0.34953
G1 X166.557 Y69.070 E0.01682
G1 X174.417 Y76.930 E0.34953
G1 X173.882 Y76.930 E0.01682
G1 X166.022 Y69.070 E0.34953
G1 X165.487 Y69.070 E0.01682
G1 X173.348 Y76.930 E0.34953
G1 X172.813 Y76.930 E0.01682
G1 X164.952 Y69.070 E0.34953
G1 X164.418 Y69.070 E0.01682
G1 X172.278 Y76.930 E0.34953
G1 X171.743 Y76.930 E0.01682
G1 X163.883 Y69.070 E0.34953
G1 X163.348 Y69.070 E0.01682
G1 X171.208 Y76.930 E0.34953
G1 X170.674 Y76.930 E0.01682
G1 X162.813 Y69.070 E0.34953
G1 X162.279 Y69.070 E0.01682
G1 X170.139 Y76.930 E0.34953
G1 X169.604 Y76.930 E0.01682
G1 X161.744 Y69.070 E0.34953
G1 X161.209 Y69.070 E0.01682
G1 X169.069 Y76.930 E0.34953
G1 X168.534 Y76.930 E0.01682
G1 X160.674 Y69.070 E0.34953
G1 X160.139 Y69.070 E0.01682
G1 X168.000 Y76.930 E0.34953
G1 X167.465 Y76.930 E0.01682
G1 X159.605 Y69.070 E0.34953
G1 X159.070 Y69.070 E0.01682
G1 X166.930 Y76.930 E0.34953
G1 X166.395 Y76.930 E0.01682
G1 X158.535 Y69.070 E0.34953
G1 X158.000 Y69.070 E0.01682
G1 X165.860 Y76.930 E0.34953
M73 P1 R140
G1 X165.326 Y76.930 E0.01682
G1 X157.465 Y69.070 E0.34953
G1 X156.931 Y69.070 E0.01682
G1 X164.791 Y76.930 E0.34953
G1 X164.256 Y76.930 E0.01682
G1 X156.396 Y69.070 E0.34953
M73 Q1 S143
G1 X155.861 Y69.070 E0.01682
G1 X163.721 Y76.930 E0.34953
G1 X163.187 Y76.930 E0.01682
G1 X155.326 Y69.070 E0.34953
G1 X154.792 Y69.070 E0.01682
G1 X162.652 Y76.930 E0.34953
G1 X162.117 Y76.930 E0.01682
G1 X154.257 Y69.070 E0.34953
G1 X153.722 Y69.070 E0.01682
G1 X161.582 Y76.930 E0.34953
G1 X161.047 Y76.930 E0.01682
G1 X153.187 Y69.070 E0.34953
G1 X152.652 Y69.070 E0.01682
G1 X160.513 Y76.930 E0.34953
G1 X159.978 Y76.930 E0.01682
G1 X152.118 Y69.070 E0.34953
G1 X151.583 Y69.070 E0.01682
G1 X159.443 Y76.930 E0.34953
G1 X158.908 Y76.930 E0.01682
G1 X151.048 Y69.070 E0.34953
G1 X150.513 Y69.070 E0.01682
G1 X158.373 Y76.930 E0.34953
G1 X157.839 Y76.930 E0.01682
G1 X149.978 Y69.070 E0.34953
G1 X149.444 Y69.070 E0.01682
G1 X157.304 Y76.930 E0.34953
G1 X156.769 Y76.930 E0.01682
G1 X148.909 Y69.070 E0.34953
G1 X148.374 Y69.070 E0.01682
G1 X156.234 Y76.930 E0.34953
G1 X155.700 Y76.930 E0.01682
G1 X147.839 Y69.070 E0.34953
G1 X147.304 Y69.070 E0.01682
G1 X155.165 Y76.930 E0.34953
G1 X154.630 Y76.930 E0.01682
G1 X146.770 Y69.070 E0.34953
G1 X146.235 Y69.070 E0.01682
G1 X154.095 Y76.930 E0.34953
G1 X153.560 Y76.930 E0.01682
G1 X145.700 Y69.070 E0.34953
G1 X145.165 Y69.070 E0.01682
G1 X153.026 Y76.930 E0.34953
G1 X152.491 Y76.930 E0.01682
G1 X144.631 Y69.070 E0.34953
G1 X144.096 Y69.070 E0.01682
G1 X151.956 Y76.930 E0.34953
G1 X151.421 Y76.930 E0.01682
G1 X143.561 Y69.070 E0.34953
G1 X143.026 Y69.070 E0.01682
G1 X150.886 Y76.930 E0.34953
G1 X150.352 Y76.930 E0.01682
G1 X142.491 Y69.070 E0.34953
G1 X141.957 Y69.070 E0.01682
G1 X149.817 Y76.930 E0.34953
M73 P1 R139
G1 X149.282 Y76.930 E0.01682
G1 X141.422 Y69.070 E0.34953
G1 X140.887 Y69.070 E0.01682
G1 X148.747 Y76.930 E0.34953
G1 X148.212 Y76.930 E0.01682
G1 X140.352 Y69.070 E0.34953
G1 X139.817 Y69.070 E0.01682
G1 X147.678 Y76.930 E0.34953
G1 X147.143 Y76.930 E0.01682
G1 X139.283 Y69.070 E0.34953
G1 X138.748 Y69.070 E0.01682
G1 X146.608 Y76.930 E0.34953
G1 X146.073 Y76.930 E0.01682
G1 X138.213 Y69.070 E0.34953
G1 X137.678 Y69.070 E0.01682
G1 X145.539 Y76.930 E0.34953
G1 X145.004 Y76.930 E0.01682
G1 X137.144 Y69.070 E0.34953
G1 X136.609 Y69.070 E0.01682
G1 X144.469 Y76.930 E0.34953
G1 X143.934 Y76.930 E0.01682
G1 X136.074 Y69.070 E0.34953
G1 X135.539 Y69.070 E0.01682
G1 X143.399 Y76.930 E0.34953
G1 X142.865 Y76.930 E0.01682
G1 X135.004 Y69.070 E0.34953
G1 X134.470 Y69.070 E0.01682
G1 X142.330 Y76.930 E0.34953
G1 X141.795 Y76.930 E0.01682
G1 X133.935 Y69.070 E0.34953
G1 X133.400 Y69.070 E0.01682
G1 X141.260 Y76.930 E0.34953
G1 X140.725 Y76.930 E0.01682
G1 X132.865 Y69.070 E0.34953
G1 X132.330 Y69.070 E0.01682
G1 X140.191 Y76.930 E0.34953
G1 X139.656 Y76.930 E0.01682
G1 X131.796 Y69.070 E0.34953
G1 X131.261 Y69.070 E0.01682
G1 X139.121 Y76.930 E0.34953
G1 X138.586 Y76.930 E0.01682
G1 X130.726 Y69.070 E0.34953
G1 X130.191 Y69.070 E0.01682
G1 X138.052 Y76.930 E0.34953
G1 X137.517 Y76.930 E0.01682
G1 X129.656 Y69.070 E0.34953
G1 X129.122 Y69.070 E0.01682
G1 X136.982 Y76.930 E0.34953
G1 X136.447 Y76.930 E0.01682
G1 X129.070 Y69.553 E0.32805
G1 X129.070 Y70.088 E0.01682
G1 X135.912 Y76.930 E0.30427
G1 X135.378 Y76.930 E0.01682
G1 X129.070 Y70.622 E0.28049
G1 X129.070 Y71.157 E0.01682
G1 X134.843 Y76.930 E0.25671
G1 X134.308 Y76.930 E0.01682
G1 X129.070 Y71.692 E0.23293
G1 X129.070 Y72.227 E0.01682
G1 X133.773 Y76.930 E0.20915
G1 X133.238 Y76.930 E0.01682
G1 X129.070 Y72.762 E0.18537
G1 X129.070 Y73.296 E0.01682
G1 X132.704 Y76.930 E0.16159
G1 X132.169 Y76.930 E0.01682
G1 X129.070 Y73.831 E0.13780
G1 X129.070 Y74.366 E0.01682
G1 X131.634 Y76.930 E0.11402
G1 X131.099 Y76.930 E0.01682
G1 X129.070 Y74.901 E0.09024
G1 X129.070 Y75.436 E0.01682
G1 X130.564 Y76.930 E0.06646
G1 X130.030 Y76.930 E0.01682
G1 X129.070 Y75.970 E0.04268
G1 X129.070 Y76.505 E0.01682
G1 X129.665 Y77.100 E0.02645
; stop printing object Fantastic Uusam.stl id:3 copy 0
; printing object Fantastic Uusam.stl id:4 copy 0
;WIPE_START
G1 F8640.000
G1 X129.070 Y76.505 E-0.19421
G1 X129.070 Y75.970 E-0.12348
G1 X130.030 Y76.930 E-0.31343
G1 X130.564 Y76.930 E-0.12348
G1 X130.548 Y76.914 E-0.00540
;WIPE_END
G1 E-0.04000 F2100.000
G1 Z0.600 F10800.000
G1 X128.787 Y84.787
G1 Z0.200
G1 E0.80000 F2100.000
;TYPE:Perimeter
;WIDTH:0.42
G1 F1200.000
G1 X197.213 Y84.787 E2.14544
M73 Q1 S142
G1 X197.213 Y93.213 E0.26419
G1 X128.787 Y93.213 E2.14544
G1 X128.787 Y84.847 E0.26231
G1 X128.410 Y84.410 F10800.000
;TYPE:External perimeter
G1 F1200.000
G1 X197.590 Y84.410 E2.16909
G1 X197.590 Y93.590 E0.28783
G1 X128.410 Y93.590 E2.16909
G1 X128.410 Y84.470 E0.28595
G1 X128.810 Y84.428 F10800.000
;WIPE_START
G1 F8640.000
G1 X131.701 Y84.467 E-0.76000
;WIPE_END
G1 E-0.04000 F2100.000
G1 Z0.600 F10800.000
G1 X196.335 Y84.900
G1 Z0.200
G1 E0.80000 F2100.000
;TYPE:Solid infill
;WIDTH:0.421072
G1 F1200.000
G1 X196.930 Y85.495 E0.02645
G1 X196.930 Y86.030 E0.01682
G1 X195.970 Y85.070 E0.04269
G1 X195.435 Y85.070 E0.01682
G1 X196.930 Y86.565 E0.06647
G1 X196.930 Y87.099 E0.01682
G1 X194.901 Y85.070 E0.09025
G1 X194.366 Y85.070 E0.01682
G1 X196.930 Y87.634 E0.11403
G1 X196.930 Y88.169 E0.01682
G1 X193.831 Y85.070 E0.13781
G1 X193.296 Y85.070 E0.01682
G1 X196.930 Y88.704 E0.16159
G1 X196.930 Y89.239 E0.01682
G1 X192.761 Y85.070 E0.18537
G1 X192.227 Y85.070 E0.01682
G1 X196.930 Y89.773 E0.20915
G1 X196.930 Y90.308 E0.01682
G1 X191.692 Y85.070 E0.23293
G1 X191.157 Y85.070 E0.01682
G1 X196.930 Y90.843 E0.25671
G1 X196.930 Y91.378 E0.01682
G1 X190.622 Y85.070 E0.28050
G1 X190.087 Y85.070 E0.01682
G1 X196.930 Y91.913 E0.30428
G1 X196.930 Y92.447 E0.01682
G1 X189.553 Y85.070 E0.32806
G1 X189.018 Y85.070 E0.01682
G1 X196.878 Y92.930 E0.34953
G1 X196.343 Y92.930 E0.01682
G1 X188.483 Y85.070 E0.34953
G1 X187.948 Y85.070 E0.01682
G1 X195.809 Y92.930 E0.34953
G1 X195.274 Y92.930 E0.01682
G1 X187.414 Y85.070 E0.34953
G1 X186.879 Y85.070 E0.01682
G1 X194.739 Y92.930 E0.34953
G1 X194.204 Y92.930 E0.01682
G1 X186.344 Y85.070 E0.34953
G1 X185.809 Y85.070 E0.01682
G1 X193.669 Y92.930 E0.34953
G1 X193.135 Y92.930 E0.01682
G1 X185.274 Y85.070 E0.34953
G1 X184.740 Y85.070 E0.01682
G1 X192.600 Y92.930 E0.34953
G1 X192.065 Y92.930 E0.01682
G1 X184.205 Y85.070 E0.34953
G1 X183.670 Y85.070 E0.01682
G1 X191.530 Y92.930 E0.34953
G1 X190.995 Y92.930 E0.01682
G1 X183.135 Y85.070 E0.34953
G1 X182.600 Y85.070 E0.01682
G1 X190.461 Y92.930 E0.34953
G1 X189.926 Y92.930 E0.01682
G1 X182.066 Y85.070 E0.34953
G1 X181.531 Y85.070 E0.01682
G1 X189.391 Y92.930 E0.34953
G1 X188.856 Y92.930 E0.01682
G1 X180.996 Y85.070 E0.34953
G1 X180.461 Y85.070 E0.01682
G1 X188.322 Y92.930 E0.34953
G1 X187.787 Y92.930 E0.01682
G1 X179.927 Y85.070 E0.34953
G1 X179.392 Y85.070 E0.01682
G1 X187.252 Y92.930 E0.34953
G1 X186.717 Y92.930 E0.01682
G1 X178.857 Y85.070 E0.34953
G1 X178.322 Y85.070 E0.01682
G1 X186.182 Y92.930 E0.34953
G1 X185.648 Y92.930 E0.01682
G1 X177.787 Y85.070 E0.34953
G1 X177.253 Y85.070 E0.01682
G1 X185.113 Y92.930 E0.34953
G1 X184.578 Y92.930 E0.01682
G1 X176.718 Y85.070 E0.34953
G1 X176.183 Y85.070 E0.01682
G1 X184.043 Y92.930 E0.34953
G1 X183.508 Y92.930 E0.01682
G1 X175.648 Y85.070 E0.34953
G1 X175.113 Y85.070 E0.01682
G1 X182.974 Y92.930 E0.34953
G1 X182.439 Y92.930 E0.01682
G1 X174.579 Y85.070 E0.34953
G1 X174.044 Y85.070 E0.01682
G1 X181.904 Y92.930 E0.34953
G1 X181.369 Y92.930 E0.01682
G1 X173.509 Y85.070 E0.34953
G1 X172.974 Y85.070 E0.01682
G1 X180.835 Y92.930 E0.34953
G1 X180.300 Y92.930 E0.01682
G1 X172.440 Y85.070 E0.34953
G1 X171.905 Y85.070 E0.01682
G1 X179.765 Y92.930 E0.34953
G1 X179.230 Y92.930 E0.01682
G1 X171.370 Y85.070 E0.34953
M73 P1 R138
G1 X170.835 Y85.070 E0.01682
G1 X178.695 Y92.930 E0.34953
G1 X178.161 Y92.930 E0.01682
G1 X170.300 Y85.070 E0.34953
G1 X169.766 Y85.070 E0.01682
G1 X177.626 Y92.930 E0.34953
G1 X177.091 Y92.930 E0.01682
G1 X169.231 Y85.070 E0.34953
G1 X168.696 Y85.070 E0.01682
G1 X176.556 Y92.930 E0.34953
G1 X176.021 Y92.930 E0.01682
G1 X168.161 Y85.070 E0.34953
G1 X167.626 Y85.070 E0.01682
G1 X175.487 Y92.930 E0.34953
G1 X174.952 Y92.930 E0.01682
G1 X167.092 Y85.070 E0.34953
G1 X166.557 Y85.070 E0.01682
G1 X174.417 Y92.930 E0.34953
G1 X173.882 Y92.930 E0.01682
G1 X166.022 Y85.070 E0.34953
G1 X165.487 Y85.070 E0.01682
G1 X173.348 Y92.930 E0.34953
G1 X172.813 Y92.930 E0.01682
G1 X164.952 Y85.070 E0.34953
M73 P2 R138
G1 X164.418 Y85.070 E0.01682
G1 X172.278 Y92.930 E0.34953
