; generated by PrusaSlicer 2.3.0+win64 on 2022-01-22 at 03:03:20 UTC

; 

; external perimeters extrusion width = 0.45mm
; perimeters extrusion width = 0.45mm
; infill extrusion width = 0.45mm
; solid infill extrusion width = 0.45mm
; top infill extrusion width = 0.40mm
; support material extrusion width = 0.35mm
; first layer extrusion width = 0.42mm

M73 P0 R156
M73 Q0 S158
M201 X1000 Y1000 Z200 E5000 ; sets maximum accelerations, mm/sec^2
M203 X200 Y200 Z12 E120 ; sets maximum feedrates, mm/sec
M204 P1250 R1250 T1250 ; sets acceleration (P, T) and retract acceleration (R), mm/sec^2
M205 X8.00 Y8.00 Z0.40 E4.50 ; sets the jerk limits, mm/sec
M205 S0 T0 ; sets the minimum extruding and travel feed rate, mm/sec
M107
;TYPE:Custom
; M862.3 P "MK3S" ; printer model check
M862.1 P0.4 ; nozzle diameter check
M115 U3.9.0 ; tell printer latest fw version
G90 ; use absolute coordinates
M83 ; extruder relative mode
M104 S215 ; set extruder temp
M140 S60 ; set bed temp
M190 S60 ; wait for bed temp
M109 S215 ; wait for extruder temp
G28 W ; home all without mesh bed level
G80 ; mesh bed leveling
G1 Y-3.0 F1000.0 ; go outside print area
G92 E0.0
G1 X60.0 E9.0 F1000.0 ; intro line
G1 X100.0 E12.5 F1000.0 ; intro line
G92 E0.0
M221 S95
G21 ; set units to millimeters
G90 ; use absolute coordinates
M83 ; use relative distances for extrusion
M900 K0.06 ; Filament gcode LA 1.5
M900 K30 ; Filament gcode LA 1.0
;LAYER_CHANGE
;Z:0.2
;HEIGHT:0.2
;BEFORE_LAYER_CHANGE
G92 E0.0
;0.2


G1 E-0.80000 F2100.000
G1 Z0.600 F10800.000
;AFTER_LAYER_CHANGE
;0.2
G1 X107.560 Y37.556
G1 Z0.200
G1 E0.80000 F2100.000
M204 S1000
;TYPE:Skirt
;WIDTH:0.42
G1 F1200.000
G1 X108.187 Y37.101 E0.02430
G1 X112.846 Y34.772 E0.16330
G1 X113.537 Y34.565 E0.02260
G1 X179.250 Y34.543 E2.06041
G1 X179.757 Y34.597 E0.01597
G1 X180.244 Y34.760 E0.01609
G1 X184.972 Y37.173 E0.16645
G1 X188.382 Y39.855 E0.13603
G1 X188.700 Y40.249 E0.01585
G1 X188.926 Y40.701 E0.01585
G1 X190.557 Y45.402 E0.15600
G1 X190.671 Y45.972 E0.01823
G1 X190.677 Y186.062 E4.39244
G1 X190.502 Y186.954 E0.02849
G1 X188.148 Y191.766 E0.16799
G1 X187.685 Y192.386 E0.02426
G1 X185.038 Y194.824 E0.11283
G1 X180.286 Y197.257 E0.16738
G1 X179.567 Y197.473 E0.02355
G1 X113.861 Y197.494 E2.06016
M73 Q0 S157
G1 X112.969 Y197.319 E0.02849
G1 X107.966 Y194.810 E0.17550
G1 X105.074 Y192.251 E0.12108
G1 X104.600 Y191.436 E0.02954
G1 X103.068 Y186.578 E0.15972
G1 X102.971 Y186.043 E0.01704
G1 X102.966 Y45.975 E4.39175
G1 X103.141 Y45.083 E0.02849
G1 X105.556 Y40.329 E0.16721
G1 X107.525 Y37.604 E0.10538
; printing object Case.stl id:0 copy 0
;WIPE_START
G1 F8640.000
G1 X108.187 Y37.101 E-0.19214
G1 X110.387 Y36.001 E-0.56786
;WIPE_END
G1 E-0.04000 F2100.000
G1 Z0.800 F10800.000
G1 X105.343 Y45.978
G1 Z0.200
G1 E0.80000 F2100.000
;TYPE:Support material
G1 F1200.000
G1 X105.343 Y185.888 E4.38678
G1 X106.097 Y185.888 E0.02365
G1 X106.097 Y46.148 E4.38146
G1 X106.851 Y46.148 E0.02365
G1 X106.851 Y190.672 E4.53146
;WIPE_START
M73 P0 R155
G1 F8640.000
G1 X106.851 Y187.381 E-0.76000
;WIPE_END
G1 E-0.04000 F2100.000
G1 Z0.800 F10800.000
G1 X109.805 Y187.676
G1 Z0.200
G1 E0.80000 F2100.000
;TYPE:Support material interface
;WIDTH:0.35
G1 F1200.000
G1 X109.805 Y51.420 E3.47913
G1 X109.298 Y51.420 E0.01295
G1 X109.298 Y180.617 E3.29887
G1 X108.791 Y180.617 E0.01295
G1 X108.791 Y51.420 E3.29887
G1 X108.284 Y51.420 E0.01295
G1 X108.284 Y180.617 E3.29887
G1 X107.777 Y180.617 E0.01295
G1 X107.777 Y51.282 E3.30240
;WIPE_START
M73 Q0 S156
G1 F8640.000
G1 X107.777 Y54.573 E-0.76000
;WIPE_END
G1 E-0.04000 F2100.000
G1 Z0.800 F10800.000
G1 X141.751 Y183.156
G1 Z0.200
G1 E0.80000 F2100.000
G1 F1200.000
G1 X141.751 Y182.231 E0.02364
G1 X142.258 Y182.231 E0.01295
G1 X142.258 Y183.603 E0.03504
G1 X142.521 Y183.955 E0.01121
G1 X142.765 Y184.199 E0.00881
G1 X142.765 Y182.231 E0.05025
G1 X143.272 Y182.231 E0.01295
G1 X143.272 Y184.706 E0.06319
G1 X143.392 Y184.825 E0.00432
G1 X143.779 Y185.115 E0.01236
G1 X143.779 Y182.231 E0.07366
G1 X144.286 Y182.231 E0.01295
G1 X144.286 Y185.495 E0.08335
G1 X144.378 Y185.563 E0.00292
G1 X144.793 Y185.790 E0.01209
G1 X144.793 Y182.231 E0.09089
G1 X145.300 Y182.231 E0.01295
G1 X145.300 Y186.067 E0.09796
G1 X145.459 Y186.154 E0.00460
G1 X145.807 Y186.284 E0.00951
G1 X145.807 Y182.231 E0.10349
G1 X146.315 Y182.231 E0.01295
G1 X146.315 Y186.473 E0.10832
G1 X146.613 Y186.584 E0.00812
G1 X146.822 Y186.630 E0.00546
G1 X146.822 Y182.231 E0.11232
G1 X147.329 Y182.231 E0.01295
G1 X147.329 Y186.740 E0.11513
G1 X147.836 Y186.847 E0.01323
G1 X147.836 Y182.231 E0.11788
G1 X148.343 Y182.231 E0.01295
G1 X148.343 Y186.884 E0.11880
G1 X148.850 Y186.920 E0.01298
G1 X148.850 Y182.231 E0.11973
G1 X149.357 Y182.231 E0.01295
G1 X149.357 Y186.935 E0.12011
G1 X149.864 Y186.935 E0.01295
G1 X149.864 Y182.231 E0.12011
G1 X150.371 Y182.231 E0.01295
G1 X150.371 Y186.935 E0.12011
G1 X150.878 Y186.935 E0.01295
G1 X150.878 Y182.231 E0.12011
G1 X151.385 Y182.231 E0.01295
G1 X151.385 Y186.935 E0.12011
G1 X151.892 Y186.935 E0.01295
G1 X151.892 Y182.231 E0.12011
G1 X152.399 Y182.231 E0.01295
G1 X152.399 Y186.935 E0.12011
G1 X152.907 Y186.935 E0.01295
G1 X152.907 Y182.231 E0.12011
G1 X153.414 Y182.231 E0.01295
G1 X153.414 Y186.935 E0.12011
G1 X153.921 Y186.935 E0.01295
G1 X153.921 Y182.231 E0.12011
G1 X154.428 Y182.231 E0.01295
G1 X154.428 Y186.935 E0.12011
G1 X154.935 Y186.935 E0.01295
G1 X154.935 Y182.231 E0.12011
G1 X155.442 Y182.231 E0.01295
G1 X155.442 Y186.935 E0.12011
M73 P1 R155
G1 X155.949 Y186.935 E0.01295
G1 X155.949 Y182.231 E0.12011
M73 Q1 S156
G1 X156.456 Y182.231 E0.01295
G1 X156.456 Y186.935 E0.12011
G1 X156.963 Y186.935 E0.01295
G1 X156.963 Y182.231 E0.12011
G1 X157.470 Y182.231 E0.01295
G1 X157.470 Y186.935 E0.12011
G1 X157.977 Y186.935 E0.01295
G1 X157.977 Y182.231 E0.12011
G1 X158.484 Y182.231 E0.01295
G1 X158.484 Y186.935 E0.12011
G1 X158.991 Y186.935 E0.01295
G1 X158.991 Y182.231 E0.12011
G1 X159.499 Y182.231 E0.01295
G1 X159.499 Y186.935 E0.12011
G1 X160.006 Y186.935 E0.01295
G1 X160.006 Y182.231 E0.12011
G1 X160.513 Y182.231 E0.01295
G1 X160.513 Y186.935 E0.12011
G1 X161.020 Y186.935 E0.01295
G1 X161.020 Y182.231 E0.12011
G1 X161.527 Y182.231 E0.01295
G1 X161.527 Y186.935 E0.12011
G1 X162.034 Y186.935 E0.01295
G1 X162.034 Y182.231 E0.12011
G1 X162.541 Y182.231 E0.01295
G1 X162.541 Y186.935 E0.12011
G1 X163.048 Y186.935 E0.01295
G1 X163.048 Y182.231 E0.12011
G1 X163.555 Y182.231 E0.01295
G1 X163.555 Y186.935 E0.12011
G1 X164.062 Y186.935 E0.01295
G1 X164.062 Y182.231 E0.12011
G1 X164.569 Y182.231 E0.01295
G1 X164.569 Y186.935 E0.12011
G1 X165.076 Y186.935 E0.01295
G1 X165.076 Y182.231 E0.12011
G1 X165.584 Y182.231 E0.01295
G1 X165.584 Y186.935 E0.12011
G1 X166.091 Y186.935 E0.01295
G1 X166.091 Y182.231 E0.12011
G1 X166.598 Y182.231 E0.01295
G1 X166.598 Y186.935 E0.12011
G1 X167.105 Y186.935 E0.01295
G1 X167.105 Y182.231 E0.12011
G1 X167.612 Y182.231 E0.01295
G1 X167.612 Y186.935 E0.12011
G1 X168.119 Y186.935 E0.01295
G1 X168.119 Y182.231 E0.12011
G1 X168.626 Y182.231 E0.01295
G1 X168.626 Y186.935 E0.12011
G1 X169.133 Y186.935 E0.01295
G1 X169.133 Y182.231 E0.12011
G1 X169.640 Y182.231 E0.01295
G1 X169.640 Y186.935 E0.12011
G1 X170.147 Y186.935 E0.01295
G1 X170.147 Y182.231 E0.12011
G1 X170.654 Y182.231 E0.01295
G1 X170.654 Y186.935 E0.12011
G1 X171.161 Y186.935 E0.01295
G1 X171.161 Y182.231 E0.12011
G1 X171.668 Y182.231 E0.01295
G1 X171.668 Y186.919 E0.11971
G1 X172.176 Y186.883 E0.01298
G1 X172.176 Y182.231 E0.11878
G1 X172.683 Y182.231 E0.01295
G1 X172.691 Y186.846 E0.11784
G1 X173.190 Y186.737 E0.01303
G1 X173.190 Y182.231 E0.11507
G1 X173.697 Y182.231 E0.01295
G1 X173.697 Y186.627 E0.11226
G1 X173.895 Y186.584 E0.00517
G1 X174.204 Y186.469 E0.00843
G1 X174.204 Y179.924 E0.16712
G1 X174.711 Y179.924 E0.01295
G1 X174.711 Y186.280 E0.16229
G1 X175.048 Y186.154 E0.00920
G1 X175.218 Y186.061 E0.00493
G1 X175.218 Y179.924 E0.15671
G1 X175.725 Y179.924 E0.01295
G1 X175.725 Y185.784 E0.14964
G1 X176.129 Y185.563 E0.01176
G1 X176.232 Y185.486 E0.00328
G1 X176.232 Y146.869 E0.98605
G1 X176.633 Y146.766 E0.01057
G1 X176.739 Y146.846 E0.00338
G1 X176.739 Y185.107 E0.97695
G1 X177.115 Y184.825 E0.01200
G1 X177.246 Y184.694 E0.00473
G1 X177.246 Y147.258 E0.95589
M73 P1 R154
G1 X177.753 Y147.765 E0.01831
G1 X177.753 Y184.187 E0.92999
G1 X177.986 Y183.955 E0.00841
G1 X178.260 Y183.588 E0.01169
G1 X178.260 Y148.364 E0.89939
G1 X178.768 Y149.063 E0.02205
G1 X178.768 Y182.889 E0.86370
G1 X179.275 Y181.961 E0.02702
G1 X179.275 Y149.992 E0.81628
G1 X179.745 Y151.219 E0.03355
G1 X179.782 Y151.388 E0.00442
G1 X179.782 Y181.030 E0.75688
;WIPE_START
G1 F8640.000
G1 X179.782 Y177.739 E-0.76000
;WIPE_END
G1 E-0.04000 F2100.000
G1 Z0.800 F10800.000
G1 X185.867 Y180.755
G1 Z0.200
G1 E0.80000 F2100.000
G1 F1200.000
G1 X185.867 Y51.420 E3.30240
G1 X185.360 Y51.420 E0.01295
G1 X185.360 Y180.617 E3.29887
G1 X184.853 Y180.617 E0.01295
G1 X184.853 Y51.420 E3.29887
G1 X184.345 Y51.420 E0.01295
G1 X184.345 Y180.617 E3.29887
M73 Q1 S155
G1 X183.838 Y180.617 E0.01295
G1 X183.838 Y51.420 E3.29887
G1 X183.735 Y51.420 E0.00264
G1 X183.735 Y44.499 E0.17673
G1 X183.331 Y44.499 E0.01030
G1 X183.331 Y52.356 E0.20062
G1 X183.184 Y51.384 E0.02510
G1 X183.005 Y50.588 E0.02084
G1 X182.824 Y49.957 E0.01676
G1 X182.824 Y44.499 E0.13937
G1 X182.317 Y44.499 E0.01295
G1 X182.317 Y48.602 E0.10478
G1 X182.144 Y48.214 E0.01085
G1 X181.810 Y47.589 E0.01810
G1 X181.810 Y44.499 E0.07891
G1 X181.428 Y44.499 E0.00976
G1 X181.428 Y42.192 E0.05891
G1 X181.303 Y42.192 E0.00319
G1 X181.303 Y46.790 E0.11740
G1 X180.796 Y46.114 E0.02156
G1 X180.796 Y42.192 E0.10016
G1 X180.289 Y42.192 E0.01295
G1 X180.289 Y45.528 E0.08518
G1 X179.782 Y45.012 E0.01847
G1 X179.782 Y42.192 E0.07201
G1 X179.275 Y42.192 E0.01295
G1 X179.275 Y44.554 E0.06032
G1 X178.768 Y44.150 E0.01656
G1 X178.768 Y42.192 E0.04999
G1 X178.260 Y42.192 E0.01295
G1 X178.260 Y43.795 E0.04093
G1 X177.753 Y43.472 E0.01535
G1 X177.753 Y42.192 E0.03268
G1 X177.246 Y42.192 E0.01295
G1 X177.246 Y43.201 E0.02578
G1 X176.739 Y42.949 E0.01446
G1 X176.739 Y39.885 E0.07826
G1 X176.232 Y39.885 E0.01295
G1 X176.232 Y42.731 E0.07268
G1 X175.725 Y42.543 E0.01381
G1 X175.725 Y39.885 E0.06789
G1 X175.218 Y39.885 E0.01295
G1 X175.218 Y42.377 E0.06363
G1 X174.711 Y42.223 E0.01353
G1 X174.711 Y39.885 E0.05971
G1 X174.204 Y39.885 E0.01295
G1 X174.204 Y42.107 E0.05673
G1 X173.697 Y41.990 E0.01328
G1 X173.697 Y39.885 E0.05376
G1 X173.190 Y39.885 E0.01295
G1 X173.190 Y41.912 E0.05175
G1 X172.683 Y41.838 E0.01308
G1 X172.683 Y39.885 E0.04988
G1 X172.176 Y39.885 E0.01295
G1 X172.176 Y41.765 E0.04801
G1 X171.668 Y41.720 E0.01300
G1 X171.668 Y39.885 E0.04686
G1 X171.161 Y39.885 E0.01295
G1 X171.161 Y41.683 E0.04593
G1 X170.654 Y41.647 E0.01298
G1 X170.654 Y39.885 E0.04499
G1 X170.147 Y39.885 E0.01295
G1 X170.147 Y41.617 E0.04423
G1 X169.640 Y41.603 E0.01295
G1 X169.640 Y39.885 E0.04387
G1 X169.133 Y39.885 E0.01295
G1 X169.133 Y41.592 E0.04360
G1 X168.626 Y41.588 E0.01295
G1 X168.626 Y39.885 E0.04350
G1 X168.119 Y39.885 E0.01295
G1 X168.119 Y41.589 E0.04351
G1 X167.612 Y41.594 E0.01295
G1 X167.612 Y39.885 E0.04363
G1 X167.105 Y39.885 E0.01295
G1 X167.105 Y41.594 E0.04365
G1 X166.626 Y41.607 E0.01224
G1 X166.598 Y41.621 E0.00081
G1 X166.598 Y39.885 E0.04435
G1 X166.091 Y39.885 E0.01295
G1 X166.091 Y41.632 E0.04460
G1 X165.584 Y41.630 E0.01295
G1 X165.584 Y39.885 E0.04457
G1 X165.076 Y39.885 E0.01295
G1 X165.076 Y41.629 E0.04453
G1 X164.569 Y41.627 E0.01295
G1 X164.569 Y39.885 E0.04450
G1 X164.062 Y39.885 E0.01295
G1 X164.062 Y41.626 E0.04446
G1 X163.555 Y41.624 E0.01295
G1 X163.555 Y39.885 E0.04442
G1 X163.048 Y39.885 E0.01295
G1 X163.048 Y41.623 E0.04439
G1 X162.541 Y41.622 E0.01295
G1 X162.541 Y39.885 E0.04435
G1 X162.034 Y39.885 E0.01295
G1 X162.034 Y41.620 E0.04431
G1 X161.527 Y41.619 E0.01295
G1 X161.527 Y39.885 E0.04428
G1 X161.020 Y39.885 E0.01295
G1 X161.020 Y41.617 E0.04424
G1 X160.513 Y41.616 E0.01295
G1 X160.513 Y39.885 E0.04420
G1 X160.006 Y39.885 E0.01295
G1 X160.006 Y41.614 E0.04417
G1 X159.499 Y41.613 E0.01295
G1 X159.499 Y39.885 E0.04413
G1 X158.991 Y39.885 E0.01295
G1 X158.991 Y41.612 E0.04409
G1 X158.484 Y41.610 E0.01295
G1 X158.484 Y39.885 E0.04406
G1 X157.977 Y39.885 E0.01295
G1 X157.977 Y41.609 E0.04402
G1 X157.470 Y41.607 E0.01295
G1 X157.470 Y39.885 E0.04398
G1 X156.963 Y39.885 E0.01295
G1 X156.963 Y41.606 E0.04395
G1 X156.456 Y41.604 E0.01295
G1 X156.456 Y39.885 E0.04391
G1 X155.949 Y39.885 E0.01295
G1 X155.949 Y41.603 E0.04387
G1 X155.442 Y41.601 E0.01295
G1 X155.442 Y39.885 E0.04384
G1 X154.935 Y39.885 E0.01295
G1 X154.935 Y41.603 E0.04387
G1 X154.428 Y41.605 E0.01295
G1 X154.428 Y39.885 E0.04392
G1 X153.921 Y39.885 E0.01295
G1 X153.921 Y41.607 E0.04398
G1 X153.453 Y41.609 E0.01195
G1 X153.414 Y41.609 E0.00100
G1 X153.414 Y39.885 E0.04403
G1 X152.907 Y39.885 E0.01295
G1 X152.907 Y41.609 E0.04403
G1 X152.399 Y41.609 E0.01295
G1 X152.399 Y39.885 E0.04403
G1 X151.892 Y39.885 E0.01295
G1 X151.892 Y41.609 E0.04403
G1 X151.385 Y41.609 E0.01295
G1 X151.385 Y39.885 E0.04403
G1 X150.878 Y39.885 E0.01295
G1 X150.878 Y41.609 E0.04403
G1 X150.371 Y41.609 E0.01295
G1 X150.371 Y39.885 E0.04403
G1 X149.864 Y39.885 E0.01295
G1 X149.864 Y41.609 E0.04403
G1 X149.357 Y41.609 E0.01295
G1 X149.357 Y39.885 E0.04403
G1 X148.850 Y39.885 E0.01295
G1 X148.850 Y41.609 E0.04403
G1 X148.343 Y41.609 E0.01295
G1 X148.343 Y39.885 E0.04403
G1 X147.836 Y39.885 E0.01295
G1 X147.836 Y41.609 E0.04403
G1 X147.329 Y41.609 E0.01295
G1 X147.329 Y39.885 E0.04403
G1 X146.822 Y39.885 E0.01295
G1 X146.822 Y41.609 E0.04403
G1 X146.315 Y41.609 E0.01295
G1 X146.315 Y39.885 E0.04403
G1 X145.807 Y39.885 E0.01295
G1 X145.807 Y41.609 E0.04403
G1 X145.300 Y41.609 E0.01295
G1 X145.300 Y39.885 E0.04403
G1 X144.793 Y39.885 E0.01295
G1 X144.793 Y41.609 E0.04403
G1 X144.286 Y41.609 E0.01295
G1 X144.286 Y39.885 E0.04403
G1 X143.779 Y39.885 E0.01295
G1 X143.779 Y41.609 E0.04403
G1 X143.272 Y41.609 E0.01295
G1 X143.272 Y39.885 E0.04403
G1 X142.765 Y39.885 E0.01295
G1 X142.765 Y41.609 E0.04403
G1 X142.258 Y41.609 E0.01295
G1 X142.258 Y39.885 E0.04403
G1 X141.751 Y39.885 E0.01295
G1 X141.751 Y41.609 E0.04403
G1 X141.244 Y41.609 E0.01295
G1 X141.244 Y39.885 E0.04403
G1 X140.737 Y39.885 E0.01295
G1 X140.737 Y41.609 E0.04403
G1 X140.230 Y41.609 E0.01295
G1 X140.230 Y39.885 E0.04403
G1 X139.722 Y39.885 E0.01295
G1 X139.722 Y41.607 E0.04398
G1 X139.215 Y41.605 E0.01295
G1 X139.215 Y39.885 E0.04392
G1 X138.708 Y39.885 E0.01295
G1 X138.708 Y41.603 E0.04387
G1 X138.201 Y41.601 E0.01295
G1 X138.201 Y39.885 E0.04384
G1 X137.694 Y39.885 E0.01295
G1 X137.694 Y41.603 E0.04387
G1 X137.187 Y41.604 E0.01295
G1 X137.187 Y39.885 E0.04391
G1 X136.680 Y39.885 E0.01295
G1 X136.680 Y41.606 E0.04395
G1 X136.173 Y41.607 E0.01295
G1 X136.173 Y39.885 E0.04398
G1 X135.666 Y39.885 E0.01295
G1 X135.666 Y41.609 E0.04402
G1 X135.159 Y41.610 E0.01295
G1 X135.159 Y39.885 E0.04406
G1 X134.652 Y39.885 E0.01295
G1 X134.652 Y41.611 E0.04409
G1 X134.145 Y41.613 E0.01295
G1 X134.145 Y39.885 E0.04413
G1 X133.638 Y39.885 E0.01295
G1 X133.638 Y41.614 E0.04416
G1 X133.130 Y41.616 E0.01295
G1 X133.130 Y39.885 E0.04420
G1 X132.623 Y39.885 E0.01295
G1 X132.623 Y41.617 E0.04424
G1 X132.116 Y41.619 E0.01295
G1 X132.116 Y39.885 E0.04427
G1 X131.609 Y39.885 E0.01295
G1 X131.609 Y41.620 E0.04431
G1 X131.102 Y41.621 E0.01295
G1 X131.102 Y39.885 E0.04435
G1 X130.595 Y39.885 E0.01295
G1 X130.595 Y41.623 E0.04438
G1 X130.088 Y41.624 E0.01295
G1 X130.088 Y39.885 E0.04442
G1 X129.581 Y39.885 E0.01295
G1 X129.581 Y41.626 E0.04446
G1 X129.074 Y41.627 E0.01295
G1 X129.074 Y39.885 E0.04449
G1 X128.567 Y39.885 E0.01295
G1 X128.567 Y41.629 E0.04453
G1 X128.060 Y41.630 E0.01295
G1 X128.060 Y39.885 E0.04457
G1 X127.553 Y39.885 E0.01295
G1 X127.553 Y41.631 E0.04460
G1 X127.077 Y41.633 E0.01216
G1 X127.046 Y41.612 E0.00095
G1 X127.046 Y39.885 E0.04411
G1 X126.538 Y39.885 E0.01295
G1 X126.538 Y41.598 E0.04376
G1 X126.031 Y41.591 E0.01295
G1 X126.031 Y39.885 E0.04356
G1 X125.524 Y39.885 E0.01295
G1 X125.524 Y41.586 E0.04345
