; generated by PrusaSlicer 2.3.0+win64 on 2022-02-18 at 01:46:12 UTC

; 

; external perimeters extrusion width = 0.60mm
; perimeters extrusion width = 0.50mm
; infill extrusion width = 0.50mm
; solid infill extrusion width = 0.50mm
; top infill extrusion width = 0.45mm
; first layer extrusion width = 0.42mm

M73 P0 R30
M73 Q0 S30
M201 X1000 Y1000 Z200 E5000 ; sets maximum accelerations, mm/sec^2
M203 X200 Y200 Z12 E120 ; sets maximum feedrates, mm/sec
M204 P1250 R1250 T1250 ; sets acceleration (P, T) and retract acceleration (R), mm/sec^2
M205 X8.00 Y8.00 Z0.40 E4.50 ; sets the jerk limits, mm/sec
M205 S0 T0 ; sets the minimum extruding and travel feed rate, mm/sec
M107
;TYPE:Custom
; M862.3 P "MK3S" ; printer model check
M862.1 P0.4 ; nozzle diameter check
M115 U3.9.0 ; tell printer latest fw version
G90 ; use absolute coordinates
M83 ; extruder relative mode
M104 S215 ; set extruder temp
M140 S60 ; set bed temp
M190 S60 ; wait for bed temp
M109 S215 ; wait for extruder temp
G28 W ; home all without mesh bed level
G80 ; mesh bed leveling
G1 Y-3.0 F1000.0 ; go outside print area
G92 E0.0
G1 X60.0 E9.0 F1000.0 ; intro line
G1 X100.0 E12.5 F1000.0 ; intro line
G92 E0.0
M221 S95
G21 ; set units to millimeters
G90 ; use absolute coordinates
M83 ; use relative distances for extrusion
M900 K0.06 ; Filament gcode LA 1.5
M900 K30 ; Filament gcode LA 1.0
;LAYER_CHANGE
;Z:0.2
;HEIGHT:0.2
;BEFORE_LAYER_CHANGE
G92 E0.0
;0.2


G1 E-0.80000 F2100.000
G1 Z0.600 F10800.000
;AFTER_LAYER_CHANGE
;0.2
G1 X98.828 Y78.670
G1 Z0.200
G1 E0.80000 F2100.000
M204 S1000
;TYPE:Skirt
;WIDTH:0.42
G1 F1200.000
G1 X99.576 Y77.769 E0.03671
G1 X100.277 Y77.138 E0.02960
G1 X101.020 Y76.623 E0.02832
G1 X101.858 Y76.188 E0.02960
G1 X102.965 Y75.804 E0.03675
G1 X103.896 Y75.625 E0.02973
G1 X104.798 Y75.569 E0.02832
G1 X105.720 Y75.627 E0.02896
G1 X106.757 Y75.838 E0.03320
G1 X107.749 Y76.191 E0.03302
G1 X108.569 Y76.617 E0.02896
G1 X109.312 Y77.130 E0.02832
G1 X110.012 Y77.758 E0.02947
G1 X110.763 Y78.658 E0.03675
G1 X111.248 Y79.444 E0.02896
G1 X111.625 Y80.274 E0.02858
G1 X111.890 Y81.124 E0.02794
G1 X114.635 Y92.358 E0.36260
G1 X114.782 Y93.186 E0.02636
G1 X114.833 Y94.053 E0.02722
G1 X114.636 Y95.730 E0.05293
G1 X111.893 Y106.961 E0.36251
G1 X111.630 Y107.807 E0.02778
G1 X111.251 Y108.646 E0.02885
G1 X110.772 Y109.426 E0.02872
G1 X110.024 Y110.326 E0.03671
G1 X109.322 Y110.958 E0.02960
G1 X108.579 Y111.472 E0.02832
G1 X107.764 Y111.898 E0.02883
G1 X106.765 Y112.255 E0.03328
G1 X105.732 Y112.467 E0.03306
G1 X104.806 Y112.527 E0.02909
G1 X103.884 Y112.469 E0.02896
G1 X102.842 Y112.258 E0.03333
G1 X101.850 Y111.904 E0.03302
G1 X101.030 Y111.479 E0.02896
G1 X100.287 Y110.966 E0.02832
G1 X99.587 Y110.338 E0.02947
G1 X98.836 Y109.438 E0.03674
G1 X98.352 Y108.652 E0.02896
G1 X97.975 Y107.822 E0.02858
G1 X97.709 Y106.972 E0.02794
G1 X94.965 Y95.737 E0.36260
G1 X94.817 Y94.909 E0.02636
G1 X94.766 Y94.043 E0.02722
G1 X94.963 Y92.366 E0.05293
G1 X97.706 Y81.135 E0.36251
G1 X97.970 Y80.285 E0.02791
G1 X98.348 Y79.450 E0.02872
G1 X98.796 Y78.721 E0.02684
G1 X99.117 Y78.917 F10800.000
G1 F1200.000
G1 X99.848 Y78.031 E0.03602
G1 X100.512 Y77.433 E0.02804
G1 X101.213 Y76.947 E0.02673
G1 X102.007 Y76.535 E0.02804
G1 X103.066 Y76.167 E0.03518
G1 X103.945 Y75.999 E0.02804
G1 X104.799 Y75.946 E0.02685
G1 X105.669 Y76.001 E0.02732
G1 X106.656 Y76.202 E0.03160
G1 X107.603 Y76.539 E0.03150
G1 X108.379 Y76.943 E0.02744
G1 X109.098 Y77.442 E0.02744
G1 X109.841 Y78.125 E0.03165
G1 X110.475 Y78.902 E0.03144
G1 X110.925 Y79.639 E0.02708
G1 X111.274 Y80.413 E0.02661
G1 X111.525 Y81.219 E0.02647
G1 X114.266 Y92.437 E0.36209
G1 X114.456 Y94.054 E0.05104
G1 X114.268 Y95.648 E0.05033
G1 X111.528 Y106.868 E0.36212
G1 X111.279 Y107.672 E0.02640
G1 X110.928 Y108.449 E0.02674
G1 X110.468 Y109.203 E0.02769
G1 X109.752 Y110.065 E0.03514
G1 X109.090 Y110.661 E0.02792
G1 X108.386 Y111.149 E0.02685
G1 X107.614 Y111.552 E0.02732
G1 X106.663 Y111.892 E0.03166
G1 X105.681 Y112.093 E0.03143
G1 X104.804 Y112.150 E0.02756
G1 X103.931 Y112.095 E0.02744
G1 X102.943 Y111.894 E0.03160
G1 X101.997 Y111.557 E0.03150
G1 X101.224 Y111.155 E0.02732
G1 X100.501 Y110.654 E0.02756
G1 X99.761 Y109.973 E0.03153
G1 X99.125 Y109.193 E0.03156
G1 X98.674 Y108.456 E0.02708
G1 X98.325 Y107.683 E0.02661
G1 X98.074 Y106.877 E0.02647
G1 X95.333 Y95.658 E0.36209
G1 X95.143 Y94.042 E0.05104
G1 X95.331 Y92.447 E0.05033
G1 X98.072 Y81.228 E0.36212
G1 X98.321 Y80.424 E0.02640
G1 X98.671 Y79.646 E0.02674
G1 X99.086 Y78.968 E0.02492
; printing object JIAN-TEST_PRINT.stl id:0 copy 0
;WIPE_START
G1 F8640.000
G1 X99.848 Y78.031 E-0.27897
G1 X100.512 Y77.433 E-0.20647
G1 X101.213 Y76.947 E-0.19682
G1 X101.512 Y76.792 E-0.07774
;WIPE_END
G1 E-0.04000 F2100.000
G1 Z0.800 F10800.000
G1 X101.414 Y80.701
G1 Z0.200
G1 E0.80000 F2100.000
;TYPE:External perimeter
G1 F1200.000
G1 X101.731 Y80.272 E0.01673
G1 X102.101 Y79.889 E0.01668
G1 X102.518 Y79.560 E0.01664
G1 X102.882 Y79.337 E0.01341
G1 X103.125 Y79.215 E0.00852
G1 X103.619 Y79.027 E0.01657
G1 X104.137 Y78.904 E0.01668
G1 X104.667 Y78.852 E0.01668
G1 X105.195 Y78.869 E0.01658
G1 X105.465 Y78.905 E0.00853
G1 X105.883 Y78.999 E0.01345
G1 X106.476 Y79.216 E0.01979
G1 X106.942 Y79.468 E0.01662
G1 X107.167 Y79.621 E0.00852
G1 X107.499 Y79.890 E0.01341
G1 X107.868 Y80.272 E0.01664
G1 X108.185 Y80.699 E0.01668
G1 X108.441 Y81.164 E0.01663
G1 X108.582 Y81.508 E0.01167
G1 X108.705 Y81.911 E0.01322
G1 X111.439 Y93.100 E0.36112
G1 X111.526 Y93.592 E0.01567
G1 X111.552 Y93.997 E0.01274
G1 X111.527 Y94.503 E0.01587
G1 X111.439 Y94.996 E0.01571
G1 X108.706 Y106.182 E0.36104
M73 P1 R30
M73 Q1 S30
G1 X108.634 Y106.437 E0.00832
G1 X108.482 Y106.838 E0.01345
G1 X108.186 Y107.395 E0.01979
G1 X107.868 Y107.824 E0.01673
G1 X107.498 Y108.206 E0.01668
G1 X107.082 Y108.535 E0.01664
G1 X106.717 Y108.759 E0.01341
G1 X106.474 Y108.881 E0.00852
G1 X105.980 Y109.069 E0.01657
G1 X105.462 Y109.191 E0.01668
G1 X104.933 Y109.244 E0.01668
G1 X104.404 Y109.227 E0.01658
G1 X104.135 Y109.191 E0.00853
G1 X103.716 Y109.096 E0.01345
G1 X103.123 Y108.880 E0.01979
G1 X102.657 Y108.627 E0.01662
G1 X102.432 Y108.475 E0.00852
G1 X102.100 Y108.205 E0.01341
G1 X101.731 Y107.824 E0.01664
G1 X101.415 Y107.396 E0.01668
G1 X101.158 Y106.932 E0.01663
G1 X101.018 Y106.587 E0.01167
G1 X100.894 Y106.184 E0.01322
G1 X98.161 Y94.996 E0.36112
G1 X98.073 Y94.504 E0.01567
G1 X98.048 Y94.098 E0.01274
G1 X98.073 Y93.593 E0.01587
G1 X98.161 Y93.100 E0.01571
G1 X100.894 Y81.914 E0.36104
G1 X100.965 Y81.658 E0.00832
G1 X101.117 Y81.258 E0.01345
G1 X101.386 Y80.754 E0.01790
G1 X101.230 Y80.345 F10800.000
G1 X101.246 Y80.678
G1 F1200.000
G1 X101.520 Y80.276 E0.01524
G1 X101.681 Y80.085 E0.00782
G1 X102.130 Y79.653 E0.01953
G1 X102.457 Y79.407 E0.01283
G1 X102.668 Y79.273 E0.00783
G1 X103.226 Y78.997 E0.01953
G1 X103.612 Y78.861 E0.01283
G1 X103.855 Y78.797 E0.00788
G1 X104.363 Y78.713 E0.01614
G1 X104.981 Y78.694 E0.01938
G1 X105.493 Y78.747 E0.01614
G1 X105.739 Y78.796 E0.00788
G1 X106.133 Y78.908 E0.01283
G1 X106.704 Y79.148 E0.01943
G1 X107.144 Y79.408 E0.01603
G1 X107.553 Y79.723 E0.01618
G1 X107.737 Y79.894 E0.00787
G1 X108.013 Y80.196 E0.01283
G1 X108.374 Y80.700 E0.01943
G1 X108.613 Y81.153 E0.01606
G1 X108.761 Y81.535 E0.01284
G1 X108.864 Y81.884 E0.01141
G1 X111.592 Y93.049 E0.36037
G1 X111.683 Y93.548 E0.01590
G1 X111.713 Y94.048 E0.01570
G1 X111.683 Y94.548 E0.01570
G1 X111.592 Y95.047 E0.01590
G1 X108.864 Y106.212 E0.36037
G1 X108.761 Y106.561 E0.01141
G1 X108.613 Y106.941 E0.01279
G1 X108.316 Y107.486 E0.01946
G1 X108.079 Y107.820 E0.01283
G1 X107.918 Y108.012 E0.00787
G1 X107.552 Y108.373 E0.01613
G1 X107.055 Y108.745 E0.01943
G1 X106.701 Y108.949 E0.01283
G1 X106.474 Y109.057 E0.00788
G1 X105.990 Y109.233 E0.01614
G1 X105.385 Y109.365 E0.01943
G1 X104.728 Y109.405 E0.02065
G1 X104.109 Y109.348 E0.01949
G1 X103.607 Y109.233 E0.01614
G1 X103.369 Y109.154 E0.00788
G1 X102.992 Y108.994 E0.01283
G1 X102.454 Y108.686 E0.01943
G1 X102.046 Y108.372 E0.01614
G1 X101.862 Y108.202 E0.00787
G1 X101.586 Y107.899 E0.01283
G1 X101.225 Y107.396 E0.01943
G1 X100.987 Y106.942 E0.01606
G1 X100.838 Y106.561 E0.01284
G1 X100.735 Y106.212 E0.01141
G1 X98.007 Y95.047 E0.36037
G1 X97.917 Y94.548 E0.01590
G1 X97.887 Y94.048 E0.01570
G1 X97.917 Y93.548 E0.01570
G1 X98.007 Y93.049 E0.01590
G1 X100.735 Y81.884 E0.36037
G1 X100.838 Y81.535 E0.01141
G1 X100.986 Y81.155 E0.01279
G1 X101.218 Y80.730 E0.01516
G1 X101.646 Y80.687 F10800.000
;WIPE_START
G1 F8640.000
G1 X101.520 Y80.276 E-0.12603
G1 X101.681 Y80.085 E-0.05762
G1 X102.130 Y79.653 E-0.14385
G1 X102.457 Y79.407 E-0.09450
G1 X102.668 Y79.273 E-0.05766
G1 X103.226 Y78.997 E-0.14382
G1 X103.612 Y78.861 E-0.09449
G1 X103.788 Y78.815 E-0.04202
;WIPE_END
G1 E-0.04000 F2100.000
G1 Z0.800 F10800.000
G1 X102.426 Y81.636
G1 Z0.200
G1 E0.80000 F2100.000
G1 F1200.000
G1 X102.653 Y81.273 E0.01343
G1 X102.935 Y80.953 E0.01338
G1 X103.201 Y80.726 E0.01096
G1 X103.562 Y80.499 E0.01338
G1 X103.957 Y80.332 E0.01343
G1 X104.371 Y80.230 E0.01337
G1 X104.669 Y80.201 E0.00939
G1 X105.015 Y80.204 E0.01086
G1 X105.437 Y80.272 E0.01340
G1 X105.843 Y80.407 E0.01343
G1 X106.222 Y80.605 E0.01338
G1 X106.505 Y80.810 E0.01096
G1 X106.811 Y81.107 E0.01338
G1 X107.067 Y81.450 E0.01343
G1 X107.265 Y81.830 E0.01343
G1 X107.397 Y82.229 E0.01317
G1 X110.131 Y93.419 E0.36119
G1 X110.185 Y93.717 E0.00949
G1 X110.205 Y93.990 E0.00860
G1 X110.194 Y94.301 E0.00975
G1 X110.131 Y94.675 E0.01190
G1 X107.397 Y105.866 E0.36119
G1 X107.294 Y106.188 E0.01059
G1 X107.173 Y106.461 E0.00939
G1 X106.946 Y106.823 E0.01337
G1 X106.663 Y107.144 E0.01343
G1 X106.334 Y107.416 E0.01337
G1 X106.036 Y107.597 E0.01096
G1 X105.643 Y107.764 E0.01338
G1 X105.227 Y107.866 E0.01343
G1 X104.800 Y107.900 E0.01343
G1 X104.374 Y107.866 E0.01339
G1 X104.036 Y107.788 E0.01086
G1 X103.754 Y107.687 E0.00939
G1 X103.378 Y107.491 E0.01331
G1 X103.095 Y107.286 E0.01096
G1 X102.788 Y106.989 E0.01338
G1 X102.532 Y106.646 E0.01343
G1 X102.334 Y106.266 E0.01343
G1 X102.202 Y105.867 E0.01317
G1 X99.468 Y94.677 E0.36119
G1 X99.415 Y94.379 E0.00949
G1 X99.394 Y94.105 E0.00860
G1 X99.405 Y93.795 E0.00975
G1 X99.468 Y93.420 E0.01190
G1 X102.259 Y82.031 E0.36768
G1 X102.402 Y81.691 E0.01155
G1 X102.203 Y81.304 F10800.000
G1 X102.844 Y80.818
G1 F1200.000
G1 X102.990 Y80.688 E0.00613
G1 X103.321 Y80.452 E0.01276
G1 X103.680 Y80.266 E0.01265
G1 X104.061 Y80.134 E0.01265
G1 X104.455 Y80.057 E0.01260
G1 X104.943 Y80.040 E0.01531
G1 X105.342 Y80.088 E0.01260
G1 X105.731 Y80.193 E0.01265
G1 X106.102 Y80.353 E0.01265
G1 X106.446 Y80.563 E0.01265
G1 X106.757 Y80.820 E0.01265
G1 X107.029 Y81.118 E0.01265
G1 X107.255 Y81.452 E0.01265
G1 X107.432 Y81.815 E0.01265
G1 X107.557 Y82.206 E0.01288
G1 X110.284 Y93.368 E0.36026
G1 X110.352 Y93.757 E0.01239
G1 X110.365 Y94.146 E0.01220
G1 X110.336 Y94.452 E0.00964
G1 X110.285 Y94.727 E0.00876
G1 X107.557 Y105.890 E0.36031
G1 X107.432 Y106.281 E0.01288
G1 X107.255 Y106.644 E0.01265
G1 X107.029 Y106.978 E0.01265
G1 X106.758 Y107.275 E0.01259
G1 X106.376 Y107.581 E0.01536
G1 X105.923 Y107.828 E0.01617
G1 X105.539 Y107.962 E0.01276
G1 X105.143 Y108.039 E0.01265
G1 X104.741 Y108.059 E0.01260
G1 X104.256 Y108.007 E0.01531
G1 X103.868 Y107.902 E0.01260
G1 X103.497 Y107.743 E0.01265
G1 X103.153 Y107.533 E0.01265
G1 X102.842 Y107.276 E0.01265
G1 X102.571 Y106.978 E0.01265
G1 X102.345 Y106.644 E0.01265
G1 X102.168 Y106.281 E0.01265
G1 X102.042 Y105.890 E0.01288
G1 X99.315 Y94.728 E0.36026
G1 X99.248 Y94.339 E0.01239
G1 X99.235 Y93.951 E0.01217
G1 X99.275 Y93.561 E0.01228
G1 X99.314 Y93.371 E0.00609
G1 X102.042 Y82.206 E0.36038
G1 X102.168 Y81.815 E0.01288
G1 X102.344 Y81.454 E0.01259
G1 X102.625 Y81.053 E0.01537
G1 X102.803 Y80.862 E0.00817
G1 X103.033 Y80.868 F10800.000
;WIPE_START
G1 F8640.000
G1 X102.990 Y80.688 E-0.05895
G1 X103.321 Y80.452 E-0.09400
G1 X103.680 Y80.266 E-0.09313
G1 X104.061 Y80.134 E-0.09313
G1 X104.455 Y80.057 E-0.09278
G1 X104.943 Y80.040 E-0.11275
G1 X105.342 Y80.088 E-0.09278
G1 X105.731 Y80.193 E-0.09313
G1 X105.848 Y80.244 E-0.02935
;WIPE_END
G1 E-0.04000 F2100.000
G1 Z0.800 F10800.000
G1 X104.314 Y81.633
G1 Z0.200
G1 E0.80000 F2100.000
G1 F1200.000
G1 X104.550 Y81.566 E0.00771
G1 X104.760 Y81.542 E0.00662
G1 X105.133 Y81.583 E0.01176
G1 X105.331 Y81.654 E0.00661
G1 X105.547 Y81.770 E0.00768
G1 X105.825 Y82.024 E0.01181
G1 X105.946 Y82.198 E0.00662
G1 X106.050 Y82.416 E0.00758
G1 X108.824 Y93.743 E0.36565
G1 X108.860 Y94.009 E0.00842
G1 X108.825 Y94.349 E0.01073
G1 X106.064 Y105.635 E0.36429
G1 X105.920 Y105.942 E0.01064
G1 X105.768 Y106.135 E0.00768
G1 X105.612 Y106.277 E0.00662
G1 X105.286 Y106.463 E0.01177
G1 X105.049 Y106.530 E0.00771
G1 X104.839 Y106.554 E0.00662
G1 X104.467 Y106.512 E0.01176
G1 X104.268 Y106.441 E0.00661
G1 X104.052 Y106.325 E0.00768
G1 X103.774 Y106.071 E0.01181
G1 X103.654 Y105.898 E0.00662
G1 X103.550 Y105.680 E0.00758
G1 X100.775 Y94.353 E0.36565
G1 X100.739 Y94.087 E0.00842
G1 X100.774 Y93.746 E0.01073
G1 X103.536 Y82.461 E0.36429
G1 X103.680 Y82.153 E0.01064
G1 X103.831 Y81.961 E0.00768
G1 X103.988 Y81.819 E0.00662
G1 X104.262 Y81.662 E0.00989
G1 X104.348 Y81.389 F10800.000
;WIPE_START
G1 F8640.000
G1 X104.550 Y81.566 E-0.07027
G1 X104.760 Y81.542 E-0.04874
G1 X105.133 Y81.583 E-0.08663
G1 X105.331 Y81.654 E-0.04869
G1 X105.547 Y81.770 E-0.05655
G1 X105.825 Y82.024 E-0.08694
G1 X105.946 Y82.198 E-0.04874
G1 X106.050 Y82.416 E-0.05582
G1 X106.315 Y83.500 E-0.25761
;WIPE_END
G1 E-0.04000 F2100.000
G1 Z0.800 F10800.000
G1 X106.133 Y82.208
G1 Z0.200
G1 E0.80000 F2100.000
G1 F1200.000
G1 X106.207 Y82.384 E0.00599
G1 X108.977 Y93.687 E0.36489
G1 X109.009 Y93.874 E0.00593
G1 X109.019 Y94.085 E0.00664
G1 X108.975 Y94.413 E0.01035
G1 X106.207 Y105.712 E0.36475
G1 X106.133 Y105.887 E0.00599
G1 X106.022 Y106.075 E0.00682
G1 X105.842 Y106.288 E0.00875
G1 X105.699 Y106.411 E0.00591
G1 X105.462 Y106.558 E0.00876
G1 X105.260 Y106.640 E0.00682
G1 X105.076 Y106.688 E0.00598
G1 X104.800 Y106.713 E0.00869
G1 X104.524 Y106.688 E0.00869
G1 X104.339 Y106.640 E0.00598
G1 X104.138 Y106.558 E0.00682
G1 X103.900 Y106.411 E0.00876
G1 X103.757 Y106.288 E0.00591
G1 X103.577 Y106.075 E0.00875
G1 X103.467 Y105.887 E0.00682
G1 X103.392 Y105.712 E0.00599
G1 X100.623 Y94.408 E0.36489
M73 Q2 S30
G1 X100.590 Y94.222 E0.00593
G1 X100.580 Y94.010 E0.00664
G1 X100.624 Y93.683 E0.01035
G1 X103.391 Y82.386 E0.36468
M73 P2 R30
G1 X103.506 Y82.134 E0.00870
G1 X103.611 Y81.975 E0.00598
G1 X103.754 Y81.811 E0.00681
G1 X103.971 Y81.635 E0.00876
G1 X104.134 Y81.539 E0.00591
G1 X104.392 Y81.439 E0.00870
G1 X104.664 Y81.388 E0.00868
G1 X104.855 Y81.384 E0.00599
G1 X105.072 Y81.407 E0.00683
G1 X105.340 Y81.484 E0.00874
G1 X105.513 Y81.564 E0.00598
G1 X105.698 Y81.683 E0.00690
G1 X105.842 Y81.808 E0.00597
G1 X106.022 Y82.021 E0.00875
G1 X106.102 Y82.157 E0.00494
G1 X106.030 Y82.369 F10800.000
; stop printing object JIAN-TEST_PRINT.stl id:0 copy 0
M106 S255
;LAYER_CHANGE
;Z:0.5
;HEIGHT:0.3
;BEFORE_LAYER_CHANGE
G92 E0.0
;0.5


;WIPE_START
G1 F8640.000
G1 X106.207 Y82.384 E-0.05787
G1 X106.931 Y85.338 E-0.70213
;WIPE_END
G1 E-0.04000 F2100.000
G1 Z0.800 F10800.000
;AFTER_LAYER_CHANGE
;0.5
M104 S210 ; set temperature
G1 X112.582 Y83.957
G1 Z0.500
G1 E0.80000 F2100.000
;TYPE:Skirt
G1 F1737
G1 X114.635 Y92.358 E0.38360
G1 X114.782 Y93.186 E0.03730
G1 X114.833 Y94.053 E0.03850
G1 X114.636 Y95.730 E0.07488
G1 X111.893 Y106.961 E0.51281
G1 X111.630 Y107.807 E0.03930
G1 X111.251 Y108.646 E0.04081
G1 X110.772 Y109.426 E0.04062
G1 X110.024 Y110.326 E0.05192
G1 X109.322 Y110.958 E0.04188
G1 X108.579 Y111.472 E0.04006
G1 X107.764 Y111.898 E0.04079
G1 X106.765 Y112.255 E0.04708
G1 X105.732 Y112.467 E0.04677
G1 X104.806 Y112.527 E0.04115
G1 X103.884 Y112.469 E0.04097
G1 X102.842 Y112.258 E0.04715
G1 X101.850 Y111.904 E0.04671
G1 X101.030 Y111.479 E0.04097
G1 X100.287 Y110.966 E0.04006
G1 X99.587 Y110.338 E0.04170
G1 X98.836 Y109.438 E0.05198
G1 X98.352 Y108.652 E0.04097
G1 X97.975 Y107.822 E0.04043
G1 X97.709 Y106.972 E0.03952
G1 X94.965 Y95.737 E0.51295
