; generated by PrusaSlicer 2.1.1+win64 on 2021-12-17 at 13:56:45 UTC

; 

; external perimeters extrusion width = 0.45mm
; perimeters extrusion width = 0.45mm
; infill extrusion width = 0.45mm
; solid infill extrusion width = 0.45mm
; top infill extrusion width = 0.40mm
; support material extrusion width = 0.35mm
; first layer extrusion width = 0.42mm

M201 X9000 Y9000 Z500 E10000 ; sets maximum accelerations, mm/sec^2
M203 X500 Y500 Z12 E120 ; sets maximum feedrates, mm/sec
M204 P1500 R1500 T1500 ; sets acceleration (P, T) and retract acceleration (R), mm/sec^2
M205 X10.00 Y10.00 Z0.20 E2.50 ; sets the jerk limits, mm/sec
M205 S0 T0 ; sets the minimum extruding and travel feed rate, mm/sec
M107
M104 S200 ; set temperature
G28 ; home all axes
G1 Z5 F5000 ; lift nozzle
M109 S200 ; set temperature and wait for it to be reached
G21 ; set units to millimeters
G90 ; use absolute coordinates
M82 ; use absolute distances for extrusion
G92 E0
; Filament gcode
G1 Z0.150 F7800.000
G1 E-2.00000 F2400.00000
G92 E0
G1 X68.615 Y64.036 F7800.000
G1 E2.00000 F2400.00000
G1 F1800
G1 X69.232 Y63.311 E2.02303
G1 X83.295 Y49.247 E2.50403
G1 X84.008 Y48.635 E2.52675
G1 X84.806 Y48.138 E2.54948
G1 X102.582 Y39.081 E3.03198
G1 X103.415 Y38.733 E3.05382
G1 X104.408 Y38.490 E3.07854
G1 X124.055 Y35.379 E3.55963
G1 X125.005 Y35.306 E3.58266
G1 X125.948 Y35.379 E3.60553
G1 X145.652 Y38.500 E4.08801
G1 X146.546 Y38.721 E4.11030
G1 X147.398 Y39.071 E4.13258
G1 X165.152 Y48.117 E4.61447
G1 X165.963 Y48.615 E4.63749
G1 X166.688 Y49.232 E4.66052
G1 X180.752 Y63.295 E5.14152
G1 X181.364 Y64.008 E5.16425
G1 X181.861 Y64.806 E5.18698
G1 X190.919 Y82.581 E5.66948
G1 X191.267 Y83.415 E5.69132
G1 X191.510 Y84.408 E5.71605
G1 X194.621 Y104.055 E6.19714
G1 X194.694 Y104.999 E6.22001
G1 X194.621 Y105.948 E6.24304
G1 X191.510 Y125.591 E6.72403
G1 X191.266 Y126.587 E6.74883
G1 X190.920 Y127.415 E6.77053
G1 X181.863 Y145.191 E7.25303
G1 X181.366 Y145.988 E7.27576
G1 X180.752 Y146.704 E7.29855
G1 X166.686 Y160.769 E7.77963
G1 X165.966 Y161.382 E7.80250
G1 X165.155 Y161.881 E7.82553
G1 X147.401 Y170.927 E8.30743
G1 X146.549 Y171.278 E8.32972
G1 X145.649 Y171.500 E8.35215
G1 X125.945 Y174.621 E8.83463
G1 X125.002 Y174.694 E8.85751
G1 X124.052 Y174.621 E8.88053
G1 X104.408 Y171.510 E9.36155
G1 X103.412 Y171.266 E9.38635
G1 X102.584 Y170.920 E9.40804
G1 X84.808 Y161.863 E9.89054
G1 X84.011 Y161.366 E9.91327
G1 X83.295 Y160.752 E9.93607
G1 X69.230 Y146.686 E10.41714
G1 X68.617 Y145.966 E10.44002
G1 X68.118 Y145.155 E10.46305
G1 X59.072 Y127.401 E10.94495
G1 X58.720 Y126.543 E10.96738
G1 X58.500 Y125.648 E10.98966
G1 X55.379 Y105.945 E11.47213
G1 X55.306 Y105.002 E11.49501
G1 X55.379 Y104.052 E11.51804
G1 X58.500 Y84.347 E12.00054
G1 X58.721 Y83.453 E12.02282
G1 X59.071 Y82.601 E12.04511
G1 X68.119 Y64.841 E12.52715
G1 X68.584 Y64.087 E12.54857
G1 E10.54857 F2400.00000
G92 E0
G1 X187.502 Y105.000 F7800.000
G1 E2.00000 F2400.00000
G1 F1800
G1 X184.443 Y124.314 E2.47292
G1 X175.565 Y141.737 E2.94587
G1 X161.737 Y155.565 E3.41879
G1 X144.314 Y164.443 E3.89174
G1 X125.000 Y167.502 E4.36466
G1 X105.685 Y164.443 E4.83760
G1 X88.262 Y155.565 E5.31055
G1 X74.434 Y141.737 E5.78347
G1 X65.557 Y124.314 E6.25641
G1 X62.498 Y105.000 E6.72933
G1 X65.557 Y85.685 E7.20227
G1 X74.434 Y68.262 E7.67521
G1 X88.262 Y54.434 E8.14813
G1 X105.685 Y45.557 E8.62107
G1 X125.000 Y42.498 E9.09401
G1 X144.314 Y45.557 E9.56693
G1 X161.737 Y54.434 E10.03987
G1 X175.565 Y68.262 E10.51280
G1 X184.443 Y85.685 E10.98574
G1 X187.493 Y104.941 E11.45723
G1 X187.885 Y104.939 F7800.000
G1 F1800
G1 X187.895 Y105.000 E11.45872
G1 X184.816 Y124.435 E11.93461
G1 X175.882 Y141.968 E12.41053
G1 X161.968 Y155.882 E12.88642
G1 X144.435 Y164.816 E13.36234
G1 X125.000 Y167.895 E13.83823
G1 X105.564 Y164.816 E14.31415
G1 X88.031 Y155.882 E14.79006
G1 X74.117 Y141.968 E15.26596
G1 X65.184 Y124.435 E15.74187
G1 X62.105 Y105.000 E16.21776
G1 X65.184 Y85.564 E16.69367
G1 X74.117 Y68.031 E17.16958
G1 X88.031 Y54.117 E17.64548
G1 X105.564 Y45.184 E18.12138
G1 X125.000 Y42.105 E18.59730
G1 X144.435 Y45.184 E19.07319
G1 X161.968 Y54.117 E19.54909
G1 X175.882 Y68.031 E20.02499
G1 X184.816 Y85.564 E20.50091
G1 X187.876 Y104.880 E20.97389
G1 X188.268 Y104.879 F7800.000
G1 F1800
G1 X188.287 Y105.000 E20.97686
G1 X185.190 Y124.556 E21.45572
G1 X176.200 Y142.199 E21.93461
G1 X162.199 Y156.200 E22.41348
G1 X144.556 Y165.190 E22.89236
G1 X125.000 Y168.287 E23.37123
G1 X105.443 Y165.190 E23.85011
G1 X87.800 Y156.200 E24.32900
G1 X73.799 Y142.199 E24.80787
G1 X64.810 Y124.556 E25.28674
G1 X61.713 Y105.000 E25.76561
G1 X64.810 Y85.443 E26.24449
G1 X73.799 Y67.800 E26.72337
G1 X87.800 Y53.799 E27.20224
G1 X105.443 Y44.810 E27.68112
G1 X125.000 Y41.713 E28.16000
G1 X144.556 Y44.810 E28.63887
G1 X162.199 Y53.799 E29.11774
G1 X176.200 Y67.800 E29.59661
G1 X185.190 Y85.443 E30.07550
G1 X188.259 Y104.819 E30.54996
G1 X188.177 Y104.961 F7800.000
G1 E28.54996 F2400.00000
G92 E0
G1 X184.297 Y85.655 F7800.000
G1 E2.00000 F2400.00000
G1 F1800
G1 X144.745 Y46.103 E3.35646
G1 X144.223 Y45.837 E3.37069
G1 X143.874 Y45.782 E3.37925
G1 X184.218 Y86.126 E4.76291
G1 X184.322 Y86.780 E4.77895
G1 X143.220 Y45.678 E6.18856
G1 X142.567 Y45.575 E6.20461
G1 X184.425 Y87.433 E7.64018
G1 X184.529 Y88.087 E7.65623
G1 X141.913 Y45.471 E9.11776
G1 X141.260 Y45.368 E9.13380
G1 X184.632 Y88.740 E10.62130
G1 X184.736 Y89.394 E10.63734
G1 X140.607 Y45.264 E12.15080
G1 X139.953 Y45.161 E12.16684
G1 X184.839 Y90.047 E13.70625
G1 X184.943 Y90.700 E13.72230
G1 X139.300 Y45.057 E15.28767
G1 X138.646 Y44.954 E15.30371
G1 X185.046 Y91.354 E16.89505
G1 X185.150 Y92.007 E16.91109
G1 X137.993 Y44.850 E18.52838
G1 X137.339 Y44.747 E18.54443
G1 X185.253 Y92.661 E20.18768
G1 X185.357 Y93.314 E20.20373
G1 X136.686 Y44.643 E21.87294
G1 X136.032 Y44.540 E21.88898
G1 X185.460 Y93.968 E23.58416
G1 X185.564 Y94.621 E23.60020
G1 X135.379 Y44.436 E25.32133
G1 X134.726 Y44.333 E25.33738
G1 X185.667 Y95.275 E27.08447
G1 X185.771 Y95.928 E27.10051
G1 X134.072 Y44.229 E28.87357
G1 X133.419 Y44.126 E28.88961
G1 X185.874 Y96.581 E30.68862
G1 X185.978 Y97.235 E30.70467
G1 X132.765 Y44.022 E32.52964
G1 X132.112 Y43.919 E32.54568
G1 X186.081 Y97.888 E34.39661
G1 X186.185 Y98.542 E34.41266
G1 X131.458 Y43.815 E36.28955
G1 X130.805 Y43.712 E36.30559
G1 X186.288 Y99.195 E38.20845
G1 X186.392 Y99.849 E38.22449
G1 X130.151 Y43.608 E40.15330
G1 X129.498 Y43.505 E40.16935
G1 X186.495 Y100.502 E42.12412
G1 X186.599 Y101.155 E42.14016
G1 X128.845 Y43.401 E44.12089
G1 X128.191 Y43.298 E44.13694
G1 X186.702 Y101.809 E46.14363
G1 X186.806 Y102.462 E46.15967
G1 X127.538 Y43.194 E48.19232
G1 X126.884 Y43.091 E48.20837
G1 X186.909 Y103.116 E50.26698
G1 X187.013 Y103.769 E50.28302
G1 X126.231 Y42.987 E52.36759
G1 X125.577 Y42.884 E52.38364
G1 X187.116 Y104.423 E54.49417
G1 X187.208 Y105.000 E54.50834
G1 X187.199 Y105.055 E54.50970
G1 X124.945 Y42.801 E56.64477
G1 X124.470 Y42.876 E56.65642
G1 X187.124 Y105.530 E58.80519
G1 X187.048 Y106.005 E58.81685
G1 X123.995 Y42.952 E60.97932
G1 X123.520 Y43.027 E60.99097
G1 X186.973 Y106.480 E63.16715
G1 X186.898 Y106.954 E63.17880
G1 X123.046 Y43.102 E65.36868
G1 X122.571 Y43.177 E65.38033
G1 X186.823 Y107.429 E67.58391
G1 X186.748 Y107.904 E67.59557
G1 X122.096 Y43.252 E69.81285
G1 X121.621 Y43.327 E69.82451
G1 X186.673 Y108.379 E72.05549
G1 X186.597 Y108.853 E72.06715
G1 X121.147 Y43.403 E74.31184
G1 X120.672 Y43.478 E74.32349
G1 X186.522 Y109.328 E76.58188
G1 X186.447 Y109.803 E76.59354
G1 X120.197 Y43.553 E78.86564
G1 X119.722 Y43.628 E78.87729
G1 X186.372 Y110.277 E81.16309
G1 X186.297 Y110.752 E81.17475
G1 X119.248 Y43.703 E83.47425
G1 X118.773 Y43.779 E83.48590
G1 X186.221 Y111.227 E85.79911
G1 X186.146 Y111.702 E85.81076
G1 X118.298 Y43.854 E88.13767
G1 X117.823 Y43.929 E88.14932
G1 X186.071 Y112.176 E90.48993
G1 X185.996 Y112.651 E90.50159
G1 X117.349 Y44.004 E92.85590
G1 X116.874 Y44.079 E92.86756
G1 X185.921 Y113.126 E95.23557
G1 X185.845 Y113.601 E95.24723
G1 X116.399 Y44.155 E97.62895
G1 X115.924 Y44.230 E97.64061
G1 X185.770 Y114.075 E100.03603
G1 X185.695 Y114.550 E100.04768
G1 X115.450 Y44.305 E102.45681
G1 X114.975 Y44.380 E102.46846
G1 X185.620 Y115.025 E104.89129
G1 X185.545 Y115.500 E104.90295
G1 X114.500 Y44.455 E107.33948
G1 X114.025 Y44.531 E107.35113
G1 X185.469 Y115.974 E109.80137
G1 X185.394 Y116.449 E109.81302
G1 X113.551 Y44.606 E112.27696
G1 X113.076 Y44.681 E112.28862
G1 X185.319 Y116.924 E114.76626
G1 X185.244 Y117.399 E114.77791
G1 X112.601 Y44.756 E117.26926
G1 X112.126 Y44.831 E117.28091
G1 X185.169 Y117.873 E119.78596
G1 X185.093 Y118.348 E119.79761
G1 X111.652 Y44.907 E122.31636
G1 X111.177 Y44.982 E122.32802
G1 X185.018 Y118.823 E124.86047
G1 X184.943 Y119.298 E124.87213
G1 X110.702 Y45.057 E127.41828
G1 X110.227 Y45.132 E127.42994
G1 X184.868 Y119.772 E129.98980
G1 X184.793 Y120.247 E130.00145
G1 X109.753 Y45.207 E132.57501
G1 X109.278 Y45.282 E132.58667
G1 X184.717 Y120.722 E135.17393
G1 X184.642 Y121.197 E135.18559
G1 X108.803 Y45.358 E137.78656
G1 X108.328 Y45.433 E137.79821
G1 X184.567 Y121.671 E140.41288
G1 X184.492 Y122.146 E140.42454
G1 X107.854 Y45.508 E143.05291
G1 X107.379 Y45.583 E143.06457
G1 X184.417 Y122.621 E145.70665
G1 X184.341 Y123.096 E145.71830
G1 X106.904 Y45.658 E148.37408
G1 X106.430 Y45.734 E148.38574
G1 X184.266 Y123.570 E151.05522
G1 X184.191 Y124.045 E151.06688
G1 X105.955 Y45.809 E153.75006
G1 X105.776 Y45.837 E153.75444
G1 X105.549 Y45.953 E153.76063
G1 X184.047 Y124.451 E156.45278
G1 X183.861 Y124.815 E156.46270
G1 X105.185 Y46.139 E159.16098
G1 X104.820 Y46.324 E159.17089
G1 X183.675 Y125.179 E161.87530
G1 X183.490 Y125.544 E161.88522
G1 X104.456 Y46.510 E164.59576
G1 X104.092 Y46.695 E164.60567
G1 X183.304 Y125.908 E167.32234
G1 X183.119 Y126.272 E167.33225
G1 X103.727 Y46.881 E170.05505
G1 X103.363 Y47.067 E170.06496
G1 X182.933 Y126.637 E172.79389
G1 X182.747 Y127.001 E172.80380
G1 X102.999 Y47.252 E175.53885
G1 X102.634 Y47.438 E175.54877
G1 X182.562 Y127.365 E178.28995
G1 X182.376 Y127.730 E178.29986
G1 X102.270 Y47.624 E181.04717
G1 X101.906 Y47.809 E181.05709
G1 X182.190 Y128.094 E183.81052
G1 X182.005 Y128.458 E183.82044
G1 X101.541 Y47.995 E186.58000
G1 X101.177 Y48.180 E186.58992
G1 X181.819 Y128.822 E189.35561
G1 X181.633 Y129.187 E189.36553
G1 X100.813 Y48.366 E192.13735
G1 X100.448 Y48.552 E192.14726
G1 X181.448 Y129.551 E194.92521
G1 X181.262 Y129.915 E194.93513
G1 X100.084 Y48.737 E197.71921
G1 X99.720 Y48.923 E197.72912
G1 X181.077 Y130.280 E200.51933
G1 X180.891 Y130.644 E200.52924
G1 X99.355 Y49.109 E203.32558
G1 X98.991 Y49.294 E203.33549
G1 X180.705 Y131.008 E206.13796
G1 X180.520 Y131.373 E206.14787
G1 X98.627 Y49.480 E208.95646
G1 X98.262 Y49.665 E208.96638
G1 X180.334 Y131.737 E211.78110
G1 X180.148 Y132.101 E211.79101
G1 X97.898 Y49.851 E214.61186
G1 X97.534 Y50.037 E214.62178
G1 X179.963 Y132.466 E217.44875
G1 X179.777 Y132.830 E217.45867
G1 X97.170 Y50.222 E220.29177
G1 X96.805 Y50.408 E220.30169
G1 X179.591 Y133.194 E223.14092
G1 X179.406 Y133.558 E223.15084
G1 X96.441 Y50.593 E225.99620
G1 X96.077 Y50.779 E226.00611
G1 X179.220 Y133.923 E228.85760
G1 X179.035 Y134.287 E228.86752
G1 X95.712 Y50.965 E231.72514
G1 X95.348 Y51.150 E231.73505
G1 X178.849 Y134.651 E234.59880
G1 X178.663 Y135.016 E234.60871
G1 X94.984 Y51.336 E237.47859
G1 X94.619 Y51.522 E237.48851
G1 X178.478 Y135.380 E240.36451
G1 X178.292 Y135.744 E240.37442
G1 X94.255 Y51.707 E243.25655
G1 X93.891 Y51.893 E243.26647
G1 X178.106 Y136.109 E246.15473
G1 X177.921 Y136.473 E246.16465
G1 X93.526 Y52.078 E249.05903
G1 X93.162 Y52.264 E249.06895
G1 X177.735 Y136.837 E251.96947
G1 X177.550 Y137.202 E251.97938
G1 X92.798 Y52.450 E254.88603
G1 X92.433 Y52.635 E254.89594
G1 X177.364 Y137.566 E257.80871
G1 X177.178 Y137.930 E257.81863
G1 X92.069 Y52.821 E260.73753
G1 X91.705 Y53.007 E260.74745
G1 X176.993 Y138.294 E263.67248
G1 X176.807 Y138.659 E263.68239
G1 X91.340 Y53.192 E266.61355
G1 X90.976 Y53.378 E266.62347
G1 X176.621 Y139.023 E269.56075
G1 X176.436 Y139.387 E269.57067
G1 X90.612 Y53.563 E272.51408
G1 X90.247 Y53.749 E272.52400
G1 X176.250 Y139.752 E275.47354
G1 X176.064 Y140.116 E275.48346
G1 X89.883 Y53.935 E278.43913
G1 X89.519 Y54.120 E278.44904
G1 X175.879 Y140.480 E281.41084
G1 X175.693 Y140.845 E281.42076
G1 X89.154 Y54.306 E284.38869
G1 X88.790 Y54.491 E284.39860
G1 X175.508 Y141.209 E287.37266
G1 X175.326 Y141.564 E287.38233
G1 X88.428 Y54.679 E290.36237
G1 X88.153 Y54.954 E290.37180
G1 X175.045 Y141.846 E293.35183
G1 X174.770 Y142.121 E293.36126
G1 X87.878 Y55.229 E296.34130
G1 X87.603 Y55.504 E296.35073
G1 X174.495 Y142.396 E299.33076
G1 X174.220 Y142.671 E299.34019
G1 X87.328 Y55.779 E302.32023
G1 X87.053 Y56.054 E302.32966
G1 X173.945 Y142.946 E305.30969
G1 X173.670 Y143.221 E305.31912
G1 X86.778 Y56.329 E308.29916
G1 X86.503 Y56.604 E308.30859
G1 X173.395 Y143.496 E311.28863
G1 X173.120 Y143.771 E311.29806
G1 X86.228 Y56.879 E314.27809
G1 X85.953 Y57.154 E314.28752
G1 X172.845 Y144.046 E317.26756
G1 X172.570 Y144.321 E317.27699
G1 X85.678 Y57.429 E320.25702
G1 X85.403 Y57.704 E320.26645
G1 X172.295 Y144.596 E323.24649
G1 X172.020 Y144.871 E323.25592
G1 X85.128 Y57.979 E326.23595
G1 X84.853 Y58.254 E326.24538
G1 X171.745 Y145.146 E329.22542
G1 X171.470 Y145.421 E329.23485
G1 X84.578 Y58.529 E332.21488
G1 X84.303 Y58.804 E332.22431
G1 X171.195 Y145.696 E335.20435
G1 X170.920 Y145.971 E335.21378
G1 X84.028 Y59.079 E338.19381
G1 X83.753 Y59.354 E338.20325
G1 X170.645 Y146.246 E341.18328
G1 X170.370 Y146.521 E341.19271
G1 X83.478 Y59.629 E344.17275
G1 X83.203 Y59.904 E344.18218
G1 X170.095 Y146.796 E347.16221
G1 X169.820 Y147.071 E347.17164
G1 X82.928 Y60.179 E350.15168
G1 X82.654 Y60.454 E350.16111
G1 X169.545 Y147.345 E353.14114
G1 X169.270 Y147.620 E353.15057
G1 X82.379 Y60.729 E356.13061
G1 X82.104 Y61.004 E356.14004
G1 X168.995 Y147.895 E359.12007
G1 X168.720 Y148.170 E359.12950
G1 X81.829 Y61.279 E362.10954
G1 X81.554 Y61.554 E362.11897
G1 X168.445 Y148.445 E365.09900
G1 X168.170 Y148.720 E365.10844
G1 X81.279 Y61.829 E368.08847
G1 X81.004 Y62.103 E368.09790
G1 X167.896 Y148.995 E371.07794
G1 X167.621 Y149.270 E371.08737
G1 X80.729 Y62.378 E374.06740
G1 X80.454 Y62.653 E374.07683
G1 X167.346 Y149.545 E377.05687
G1 X167.071 Y149.820 E377.06630
G1 X80.179 Y62.928 E380.04633
G1 X79.904 Y63.203 E380.05576
G1 X166.796 Y150.095 E383.03580
G1 X166.521 Y150.370 E383.04523
G1 X79.629 Y63.478 E386.02526
G1 X79.354 Y63.753 E386.03469
G1 X166.246 Y150.645 E389.01473
G1 X165.971 Y150.920 E389.02416
G1 X79.079 Y64.028 E392.00419
G1 X78.804 Y64.303 E392.01363
G1 X165.696 Y151.195 E394.99366
G1 X165.421 Y151.470 E395.00309
G1 X78.529 Y64.578 E397.98313
G1 X78.254 Y64.853 E397.99256
G1 X165.146 Y151.745 E400.97259
G1 X164.871 Y152.020 E400.98202
G1 X77.979 Y65.128 E403.96206
G1 X77.704 Y65.403 E403.97149
G1 X164.596 Y152.295 E406.95152
G1 X164.321 Y152.570 E406.96095
G1 X77.429 Y65.678 E409.94099
G1 X77.154 Y65.953 E409.95042
G1 X164.046 Y152.845 E412.93045
G1 X163.771 Y153.120 E412.93988
G1 X76.879 Y66.228 E415.91992
G1 X76.604 Y66.503 E415.92935
G1 X163.496 Y153.395 E418.90939
G1 X163.221 Y153.670 E418.91882
G1 X76.329 Y66.778 E421.89885
G1 X76.054 Y67.053 E421.90828
G1 X162.946 Y153.945 E424.88832
G1 X162.671 Y154.220 E424.89775
G1 X75.779 Y67.328 E427.87778
G1 X75.504 Y67.603 E427.88721
G1 X162.396 Y154.495 E430.86725
G1 X162.121 Y154.770 E430.87668
G1 X75.229 Y67.878 E433.85671
G1 X74.954 Y68.153 E433.86614
G1 X161.846 Y155.045 E436.84618
G1 X161.571 Y155.320 E436.85561
G1 X74.679 Y68.428 E439.83564
G1 X74.492 Y68.790 E439.84554
G1 X161.209 Y155.507 E442.81960
G1 X160.845 Y155.693 E442.82951
G1 X74.306 Y69.154 E445.79744
G1 X74.120 Y69.519 E445.80736
G1 X160.480 Y155.879 E448.76916
G1 X160.116 Y156.064 E448.77908
G1 X73.935 Y69.883 E451.73475
G1 X73.749 Y70.247 E451.74466
G1 X159.752 Y156.250 E454.69421
G1 X159.388 Y156.436 E454.70413
G1 X73.563 Y70.612 E457.64754
G1 X73.378 Y70.976 E457.65746
G1 X159.023 Y156.621 E460.59475
G1 X158.659 Y156.807 E460.60466
G1 X73.192 Y71.340 E463.53582
