; generated by PrusaSlicer 2.3.0+win64 on 2022-07-19 at 21:32:18 UTC

; 

; external perimeters extrusion width = 0.45mm
; perimeters extrusion width = 0.45mm
; infill extrusion width = 0.45mm
; solid infill extrusion width = 0.45mm
; top infill extrusion width = 0.40mm
; first layer extrusion width = 0.42mm

M73 P0 R84
M73 Q0 S85
M201 X1000 Y1000 Z200 E5000 ; sets maximum accelerations, mm/sec^2
M203 X200 Y200 Z12 E120 ; sets maximum feedrates, mm/sec
M204 P1250 R1250 T1250 ; sets acceleration (P, T) and retract acceleration (R), mm/sec^2
M205 X8.00 Y8.00 Z0.40 E4.50 ; sets the jerk limits, mm/sec
M205 S0 T0 ; sets the minimum extruding and travel feed rate, mm/sec
M107
;TYPE:Custom
M862.3 P "MK3" ; printer model check
M862.1 P0.4 ; nozzle diameter check
M115 U3.9.2 ; tell printer latest fw version
G90 ; use absolute coordinates
M83 ; extruder relative mode
M104 S215 ; set extruder temp
M140 S60 ; set bed temp
M190 S60 ; wait for bed temp
M109 S215 ; wait for extruder temp
G28 W ; home all without mesh bed level
G80 ; mesh bed leveling
G1 Y-3.0 F1000.0 ; go outside print area
G92 E0.0
G1 X60.0 E9.0 F1000.0 ; intro line
G1 X100.0 E12.5 F1000.0 ; intro line
G92 E0.0
M221 S95

; Don't change E values below. Excessive value can damage the printer.

M907 E538 ; set extruder motor current
G21 ; set units to millimeters
G90 ; use absolute coordinates
M83 ; use relative distances for extrusion
M900 K0.05 ; Filament gcode LA 1.5
M900 K30 ; Filament gcode LA 1.0
;LAYER_CHANGE
;Z:0.2
;HEIGHT:0.2
;BEFORE_LAYER_CHANGE
G92 E0.0
;0.2


G1 E-0.80000 F2100.000
G1 Z0.400 F10800.000
;AFTER_LAYER_CHANGE
;0.2
G1 X71.293 Y77.724
G1 Z0.200
G1 E0.80000 F2100.000
M204 S1000
;TYPE:Skirt
;WIDTH:0.42
G1 F1200.000
G1 X71.965 Y77.623 E0.02130
G1 X151.981 Y77.623 E2.50886
G1 X152.591 Y77.704 E0.01929
G1 X153.160 Y77.938 E0.01929
G1 X179.160 Y92.949 E0.94132
G1 X179.572 Y93.255 E0.01609
G1 X179.909 Y93.642 E0.01609
G1 X180.220 Y94.267 E0.02190
G1 X180.335 Y94.952 E0.02178
G1 X180.335 Y115.061 E0.63049
G1 X180.256 Y115.610 E0.01740
G1 X180.050 Y116.129 E0.01752
G1 X179.731 Y116.584 E0.01740
G1 X179.316 Y116.951 E0.01740
G1 X153.156 Y132.064 E0.94725
G1 X152.288 Y132.357 E0.02872
G1 X71.947 Y132.377 E2.51904
M73 P0 R83
G1 X71.375 Y132.299 E0.01811
G1 X70.835 Y132.084 E0.01823
G1 X70.363 Y131.745 E0.01823
G1 X69.988 Y131.301 E0.01823
G1 X69.701 Y130.684 E0.02130
G1 X69.601 Y130.016 E0.02119
G1 X69.601 Y79.970 E1.56918
M73 Q0 S84
G1 X69.678 Y79.397 E0.01811
G1 X69.893 Y78.857 E0.01823
G1 X70.233 Y78.385 E0.01823
G1 X70.677 Y78.010 E0.01823
G1 X71.239 Y77.749 E0.01942
; printing object C:/Users/samue/AppData/Local/Temp/Neutron/Body1.stl id:0 copy 0
;WIPE_START
G1 F8640.000
G1 X71.965 Y77.623 E-0.17023
G1 X74.519 Y77.623 E-0.58977
;WIPE_END
G1 E-0.04000 F2100.000
G1 Z0.600 F10800.000
G1 X122.934 Y101.551
G1 Z0.200
G1 E0.80000 F2100.000
;TYPE:Perimeter
G1 F1200.000
G1 X131.364 Y101.551 E0.26434
G1 X131.804 Y101.137 E0.01894
G1 X132.212 Y100.843 E0.01576
G1 X132.651 Y100.598 E0.01576
G1 X133.115 Y100.404 E0.01576
G1 X133.597 Y100.264 E0.01576
G1 X134.093 Y100.179 E0.01576
G1 X134.568 Y100.152 E0.01491
G1 X135.094 Y100.179 E0.01654
G1 X135.591 Y100.265 E0.01581
G1 X136.074 Y100.405 E0.01576
G1 X136.538 Y100.599 E0.01576
G1 X136.976 Y100.845 E0.01576
G1 X137.384 Y101.138 E0.01576
G1 X137.824 Y101.552 E0.01894
G1 X146.254 Y101.556 E0.26434
G1 X146.254 Y107.631 E0.19045
G1 X137.823 Y107.626 E0.26435
G1 X137.384 Y108.041 E0.01894
G1 X136.975 Y108.334 E0.01577
G1 X136.537 Y108.580 E0.01577
G1 X136.073 Y108.774 E0.01577
G1 X135.590 Y108.914 E0.01577
G1 X135.094 Y108.999 E0.01577
G1 X134.592 Y109.028 E0.01577
G1 X134.090 Y108.999 E0.01577
G1 X133.595 Y108.914 E0.01577
G1 X133.112 Y108.773 E0.01577
G1 X132.648 Y108.579 E0.01577
G1 X132.209 Y108.333 E0.01577
G1 X131.801 Y108.039 E0.01577
G1 X131.362 Y107.625 E0.01894
G1 X122.931 Y107.625 E0.26435
G1 X122.934 Y101.611 E0.18857
G1 X123.311 Y101.928 F10800.000
;TYPE:External perimeter
G1 F1200.000
G1 X131.535 Y101.928 E0.25787
G1 X131.701 Y101.739 E0.00787
G1 X132.042 Y101.430 E0.01442
G1 X132.415 Y101.162 E0.01442
G1 X132.816 Y100.938 E0.01442
G1 X133.241 Y100.760 E0.01442
G1 X133.682 Y100.632 E0.01442
G1 X134.135 Y100.554 E0.01442
G1 X134.569 Y100.530 E0.01361
G1 X135.053 Y100.555 E0.01520
G1 X135.507 Y100.633 E0.01444
G1 X135.948 Y100.761 E0.01442
G1 X136.372 Y100.939 E0.01442
G1 X136.773 Y101.163 E0.01442
G1 X137.147 Y101.432 E0.01442
G1 X137.487 Y101.741 E0.01442
G1 X137.653 Y101.929 E0.00787
G1 X145.877 Y101.933 E0.25787
G1 X145.877 Y107.253 E0.16680
G1 X137.653 Y107.249 E0.25787
G1 X137.487 Y107.438 E0.00787
G1 X137.146 Y107.747 E0.01442
G1 X136.773 Y108.015 E0.01442
G1 X136.371 Y108.240 E0.01442
G1 X135.947 Y108.418 E0.01442
G1 X135.505 Y108.546 E0.01442
G1 X135.052 Y108.624 E0.01442
G1 X134.592 Y108.650 E0.01442
G1 X134.133 Y108.624 E0.01442
G1 X133.680 Y108.546 E0.01442
G1 X133.238 Y108.417 E0.01442
G1 X132.814 Y108.239 E0.01442
G1 X132.412 Y108.014 E0.01442
G1 X132.039 Y107.746 E0.01442
G1 X131.698 Y107.436 E0.01442
G1 X131.533 Y107.248 E0.00787
G1 X123.308 Y107.248 E0.25787
G1 X123.311 Y101.988 E0.16492
G1 X123.180 Y101.550 F10800.000
;WIPE_START
G1 F8640.000
G1 X126.602 Y101.964 E-0.76000
;WIPE_END
G1 E-0.04000 F2100.000
G1 Z0.600 F10800.000
G1 X116.254 Y101.556
G1 Z0.200
G1 E0.80000 F2100.000
;TYPE:Perimeter
G1 F1200.000
G1 X116.254 Y107.631 E0.19045
G1 X107.823 Y107.626 E0.26435
G1 X107.384 Y108.041 E0.01894
G1 X106.975 Y108.334 E0.01577
G1 X106.537 Y108.580 E0.01577
G1 X106.073 Y108.774 E0.01577
G1 X105.590 Y108.914 E0.01577
G1 X105.094 Y108.999 E0.01577
G1 X104.592 Y109.028 E0.01577
G1 X104.090 Y108.999 E0.01577
G1 X103.595 Y108.914 E0.01577
G1 X103.112 Y108.773 E0.01577
G1 X102.648 Y108.579 E0.01577
G1 X102.209 Y108.333 E0.01577
G1 X101.801 Y108.039 E0.01577
G1 X101.362 Y107.625 E0.01894
G1 X92.931 Y107.625 E0.26435
G1 X92.934 Y101.551 E0.19045
G1 X101.364 Y101.551 E0.26434
G1 X101.804 Y101.137 E0.01894
G1 X102.212 Y100.843 E0.01576
G1 X102.651 Y100.598 E0.01576
G1 X103.115 Y100.404 E0.01576
G1 X103.597 Y100.264 E0.01576
G1 X104.093 Y100.179 E0.01576
G1 X104.568 Y100.152 E0.01491
G1 X105.094 Y100.179 E0.01654
G1 X105.591 Y100.265 E0.01581
G1 X106.074 Y100.405 E0.01576
G1 X106.538 Y100.599 E0.01576
G1 X106.976 Y100.845 E0.01576
G1 X107.384 Y101.138 E0.01576
G1 X107.824 Y101.552 E0.01894
G1 X116.194 Y101.556 E0.26246
G1 X115.877 Y101.933 F10800.000
;TYPE:External perimeter
G1 F1200.000
G1 X115.877 Y107.253 E0.16680
G1 X107.653 Y107.249 E0.25787
G1 X107.487 Y107.438 E0.00787
G1 X107.146 Y107.747 E0.01442
G1 X106.773 Y108.015 E0.01442
G1 X106.371 Y108.240 E0.01442
G1 X105.947 Y108.418 E0.01442
G1 X105.505 Y108.546 E0.01442
G1 X105.052 Y108.624 E0.01442
G1 X104.592 Y108.650 E0.01442
G1 X104.133 Y108.624 E0.01442
G1 X103.680 Y108.546 E0.01442
G1 X103.238 Y108.417 E0.01442
G1 X102.814 Y108.239 E0.01442
G1 X102.412 Y108.014 E0.01442
G1 X102.039 Y107.746 E0.01442
G1 X101.698 Y107.436 E0.01442
G1 X101.533 Y107.248 E0.00787
G1 X93.308 Y107.248 E0.25787
G1 X93.311 Y101.928 E0.16680
G1 X101.535 Y101.928 E0.25787
G1 X101.701 Y101.739 E0.00787
G1 X102.042 Y101.430 E0.01442
G1 X102.415 Y101.162 E0.01442
G1 X102.816 Y100.938 E0.01442
G1 X103.241 Y100.760 E0.01442
G1 X103.682 Y100.632 E0.01442
G1 X104.135 Y100.554 E0.01442
G1 X104.569 Y100.530 E0.01361
G1 X105.053 Y100.555 E0.01520
G1 X105.507 Y100.633 E0.01444
G1 X105.948 Y100.761 E0.01442
G1 X106.372 Y100.939 E0.01442
G1 X106.773 Y101.163 E0.01442
G1 X107.147 Y101.432 E0.01442
G1 X107.487 Y101.741 E0.01442
G1 X107.653 Y101.929 E0.00787
G1 X115.817 Y101.933 E0.25599
G1 X116.277 Y101.936 F10800.000
;WIPE_START
G1 F8640.000
G1 X115.855 Y105.224 E-0.76000
;WIPE_END
G1 E-0.04000 F2100.000
G1 Z0.600 F10800.000
G1 X72.765 Y80.787
G1 Z0.200
G1 E0.80000 F2100.000
;TYPE:Perimeter
G1 F1200.000
G1 X151.767 Y80.787 E2.47705
G1 X177.171 Y95.454 E0.91977
G1 X177.171 Y114.546 E0.59859
G1 X151.767 Y129.213 E0.91977
G1 X72.765 Y129.213 E2.47705
G1 X72.765 Y80.847 E1.51648
M73 P1 R83
M73 Q1 S84
G1 X72.388 Y80.410 F10800.000
;TYPE:External perimeter
G1 F1200.000
G1 X151.868 Y80.410 E2.49204
G1 X177.548 Y95.237 E0.92976
G1 X177.548 Y114.763 E0.61224
G1 X151.868 Y129.590 E0.92976
G1 X72.388 Y129.590 E2.49204
G1 X72.388 Y80.470 E1.54012
G1 X72.781 Y80.483 F10800.000
;WIPE_START
G1 F8640.000
G1 X75.679 Y80.468 E-0.76000
;WIPE_END
G1 E-0.04000 F2100.000
G1 Z0.600 F10800.000
G1 X177.058 Y96.291
G1 Z0.200
G1 E0.80000 F2100.000
;TYPE:Solid infill
;WIDTH:0.420668
G1 F1200.000
G1 X175.696 Y94.929 E0.06051
G1 X174.432 Y94.199 E0.04584
G1 X176.889 Y96.656 E0.10912
G1 X176.889 Y97.190 E0.01678
G1 X173.168 Y93.470 E0.16526
G1 X171.904 Y92.740 E0.04584
G1 X176.889 Y97.724 E0.22141
G1 X176.889 Y98.259 E0.01678
G1 X170.640 Y92.010 E0.27755
G1 X169.376 Y91.280 E0.04584
G1 X176.889 Y98.793 E0.33370
G1 X176.889 Y99.327 E0.01678
G1 X168.112 Y90.551 E0.38985
G1 X166.848 Y89.821 E0.04584
G1 X176.889 Y99.861 E0.44599
G1 X176.889 Y100.395 E0.01678
G1 X165.584 Y89.091 E0.50214
G1 X164.320 Y88.361 E0.04584
G1 X176.889 Y100.930 E0.55828
G1 X176.889 Y101.464 E0.01678
G1 X163.056 Y87.632 E0.61443
G1 X161.792 Y86.902 E0.04584
G1 X176.889 Y101.998 E0.67058
G1 X176.889 Y102.532 E0.01678
G1 X160.528 Y86.172 E0.72672
G1 X159.264 Y85.442 E0.04584
G1 X176.889 Y103.067 E0.78287
M73 P1 R82
G1 X176.889 Y103.601 E0.01678
G1 X158.000 Y84.713 E0.83901
G1 X156.736 Y83.983 E0.04584
G1 X176.889 Y104.135 E0.89516
G1 X176.889 Y104.669 E0.01678
G1 X155.473 Y83.253 E0.95130
G1 X154.209 Y82.523 E0.04584
G1 X176.889 Y105.203 E1.00745
M73 Q1 S83
G1 X176.889 Y105.738 E0.01678
G1 X152.945 Y81.794 E1.06360
G1 X151.687 Y81.070 E0.04559
G1 X176.889 Y106.272 E1.11948
G1 X176.889 Y106.806 E0.01678
G1 X151.152 Y81.070 E1.14321
G1 X150.618 Y81.070 E0.01678
G1 X176.889 Y107.340 E1.16694
G1 X176.889 Y107.874 E0.01678
G1 X150.084 Y81.070 E1.19067
G1 X149.550 Y81.070 E0.01678
G1 X176.889 Y108.409 E1.21440
G1 X176.889 Y108.943 E0.01678
G1 X149.015 Y81.070 E1.23813
G1 X148.481 Y81.070 E0.01678
G1 X176.889 Y109.477 E1.26186
G1 X176.889 Y110.011 E0.01678
G1 X147.947 Y81.070 E1.28559
G1 X147.413 Y81.070 E0.01678
G1 X176.889 Y110.546 E1.30932
M73 P2 R82
M73 Q2 S83
G1 X176.889 Y111.080 E0.01678
G1 X146.879 Y81.070 E1.33305
G1 X146.344 Y81.070 E0.01678
G1 X176.889 Y111.614 E1.35678
G1 X176.889 Y112.148 E0.01678
G1 X145.810 Y81.070 E1.38051
G1 X145.276 Y81.070 E0.01678
G1 X176.889 Y112.682 E1.40424
G1 X176.889 Y113.217 E0.01678
G1 X144.742 Y81.070 E1.42797
G1 X144.208 Y81.070 E0.01678
G1 X176.889 Y113.751 E1.45170
G1 X176.889 Y114.285 E0.01678
G1 X143.673 Y81.070 E1.47543
G1 X143.139 Y81.070 E0.01678
G1 X176.611 Y114.542 E1.48685
G1 X176.273 Y114.738 E0.01228
G1 X142.605 Y81.070 E1.49554
G1 X142.071 Y81.070 E0.01678
G1 X175.934 Y114.933 E1.50422
G1 X175.595 Y115.129 E0.01228
G1 X141.536 Y81.070 E1.51291
G1 X141.002 Y81.070 E0.01678
G1 X175.257 Y115.324 E1.52159
G1 X174.918 Y115.520 E0.01228
G1 X140.468 Y81.070 E1.53028
G1 X139.934 Y81.070 E0.01678
G1 X174.579 Y115.715 E1.53897
G1 X174.241 Y115.911 E0.01228
G1 X139.400 Y81.070 E1.54765
M73 P2 R81
G1 X138.865 Y81.070 E0.01678
G1 X173.902 Y116.107 E1.55634
G1 X173.563 Y116.302 E0.01228
G1 X138.331 Y81.070 E1.56502
M73 Q2 S82
G1 X137.797 Y81.070 E0.01678
G1 X173.225 Y116.498 E1.57371
G1 X172.886 Y116.693 E0.01228
G1 X137.263 Y81.070 E1.58240
G1 X136.729 Y81.070 E0.01678
G1 X172.547 Y116.889 E1.59108
G1 X172.209 Y117.084 E0.01228
G1 X136.194 Y81.070 E1.59977
M73 P3 R81
M73 Q3 S82
G1 X135.660 Y81.070 E0.01678
G1 X171.870 Y117.280 E1.60845
G1 X171.531 Y117.475 E0.01228
G1 X135.126 Y81.070 E1.61714
G1 X134.592 Y81.070 E0.01678
G1 X171.193 Y117.671 E1.62582
G1 X170.854 Y117.866 E0.01228
G1 X134.057 Y81.070 E1.63451
G1 X133.523 Y81.070 E0.01678
G1 X170.515 Y118.062 E1.64320
G1 X170.177 Y118.257 E0.01228
G1 X132.989 Y81.070 E1.65188
G1 X132.455 Y81.070 E0.01678
G1 X169.838 Y118.453 E1.66057
G1 X169.499 Y118.649 E0.01228
G1 X131.921 Y81.070 E1.66925
G1 X131.386 Y81.070 E0.01678
G1 X169.161 Y118.844 E1.67794
G1 X168.822 Y119.040 E0.01228
G1 X130.852 Y81.070 E1.68663
G1 X130.318 Y81.070 E0.01678
G1 X168.483 Y119.235 E1.69531
G1 X168.144 Y119.431 E0.01228
G1 X129.784 Y81.070 E1.70400
G1 X129.249 Y81.070 E0.01678
G1 X167.806 Y119.626 E1.71268
G1 X167.467 Y119.822 E0.01228
G1 X128.715 Y81.070 E1.72137
G1 X128.181 Y81.070 E0.01678
G1 X167.128 Y120.017 E1.73005
G1 X166.790 Y120.213 E0.01228
G1 X127.647 Y81.070 E1.73874
M73 P3 R80
G1 X127.113 Y81.070 E0.01678
G1 X166.451 Y120.408 E1.74743
G1 X166.112 Y120.604 E0.01228
G1 X126.578 Y81.070 E1.75611
M73 P4 R80
M73 Q3 S81
G1 X126.044 Y81.070 E0.01678
G1 X165.774 Y120.799 E1.76480
M73 Q4 S81
G1 X165.435 Y120.995 E0.01228
G1 X146.537 Y102.097 E0.83945
G1 X146.537 Y102.631 E0.01678
G1 X165.096 Y121.190 E0.82440
G1 X164.758 Y121.386 E0.01228
G1 X146.537 Y103.166 E0.80936
G1 X146.537 Y103.700 E0.01678
G1 X164.419 Y121.582 E0.79431
G1 X164.080 Y121.777 E0.01228
G1 X146.537 Y104.234 E0.77927
G1 X146.537 Y104.768 E0.01678
G1 X163.742 Y121.973 E0.76422
G1 X163.403 Y122.168 E0.01228
G1 X146.537 Y105.302 E0.74918
G1 X146.537 Y105.837 E0.01678
G1 X163.064 Y122.364 E0.73414
G1 X162.726 Y122.559 E0.01228
G1 X146.537 Y106.371 E0.71909
G1 X146.537 Y106.905 E0.01678
G1 X162.387 Y122.755 E0.70405
G1 X162.048 Y122.950 E0.01228
G1 X146.537 Y107.439 E0.68900
G1 X146.537 Y107.913 E0.01489
G1 X146.477 Y107.913 E0.00189
G1 X161.710 Y123.146 E0.67663
G1 X161.371 Y123.341 E0.01228
G1 X145.943 Y107.913 E0.68533
G1 X145.408 Y107.913 E0.01679
G1 X161.032 Y123.537 E0.69402
G1 X160.694 Y123.732 E0.01228
G1 X144.874 Y107.913 E0.70272
G1 X144.339 Y107.912 E0.01679
G1 X160.355 Y123.928 E0.71142
G1 X160.016 Y124.124 E0.01228
G1 X143.805 Y107.912 E0.72012
G1 X143.270 Y107.912 E0.01679
G1 X159.677 Y124.319 E0.72881
G1 X159.339 Y124.515 E0.01228
G1 X142.736 Y107.912 E0.73751
G1 X142.201 Y107.911 E0.01679
G1 X159.000 Y124.710 E0.74621
G1 X158.661 Y124.906 E0.01228
G1 X141.667 Y107.911 E0.75490
G1 X141.132 Y107.911 E0.01679
G1 X158.323 Y125.101 E0.76360
G1 X157.984 Y125.297 E0.01228
G1 X140.598 Y107.911 E0.77230
G1 X140.063 Y107.910 E0.01679
G1 X157.645 Y125.492 E0.78100
G1 X157.307 Y125.688 E0.01228
G1 X139.529 Y107.910 E0.78969
G1 X138.994 Y107.910 E0.01679
G1 X156.968 Y125.883 E0.79839
G1 X156.629 Y126.079 E0.01228
G1 X138.460 Y107.910 E0.80709
G1 X137.930 Y107.914 E0.01664
G1 X156.291 Y126.274 E0.81557
G1 X155.952 Y126.470 E0.01228
G1 X137.655 Y108.173 E0.81274
G1 X137.356 Y108.409 E0.01195
G1 X155.613 Y126.666 E0.81098
G1 X155.275 Y126.861 E0.01228
G1 X137.037 Y108.624 E0.81011
G1 X136.695 Y108.815 E0.01233
G1 X154.936 Y127.057 E0.81029
G1 X154.597 Y127.252 E0.01228
G1 X136.321 Y108.976 E0.81182
G1 X135.923 Y109.112 E0.01322
G1 X154.259 Y127.448 E0.81448
G1 X153.920 Y127.643 E0.01228
G1 X135.494 Y109.218 E0.81847
G1 X135.029 Y109.286 E0.01478
G1 X153.581 Y127.839 E0.82411
G1 X153.243 Y128.034 E0.01228
G1 X134.515 Y109.306 E0.83190
G1 X133.933 Y109.259 E0.01833
G1 X152.904 Y128.230 E0.84270
M73 P5 R80
G1 X152.565 Y128.425 E0.01228
G1 X133.247 Y109.107 E0.85813
G1 X133.017 Y109.040 E0.00750
G1 X132.524 Y108.833 E0.01680
G1 X132.330 Y108.725 E0.00697
G1 X152.227 Y128.621 E0.88379
M73 Q5 S81
G1 X151.888 Y128.816 E0.01228
G1 X130.979 Y107.908 E0.92877
M73 P5 R79
G1 X130.445 Y107.908 E0.01678
G1 X151.467 Y128.930 E0.93382
G1 X150.933 Y128.930 E0.01678
G1 X129.911 Y107.908 E0.93382
G1 X129.376 Y107.908 E0.01678
G1 X150.399 Y128.930 E0.93382
M73 Q5 S80
G1 X149.865 Y128.930 E0.01678
G1 X128.842 Y107.908 E0.93382
G1 X128.308 Y107.908 E0.01678
G1 X149.330 Y128.930 E0.93382
G1 X148.796 Y128.930 E0.01678
G1 X127.774 Y107.908 E0.93382
G1 X127.240 Y107.908 E0.01678
G1 X148.262 Y128.930 E0.93382
G1 X147.728 Y128.930 E0.01678
G1 X126.705 Y107.908 E0.93382
G1 X126.171 Y107.908 E0.01678
G1 X147.194 Y128.930 E0.93382
G1 X146.659 Y128.930 E0.01678
G1 X125.637 Y107.908 E0.93382
G1 X125.103 Y107.908 E0.01678
G1 X146.125 Y128.930 E0.93382
G1 X145.591 Y128.930 E0.01678
G1 X124.568 Y107.908 E0.93382
G1 X124.034 Y107.908 E0.01678
G1 X145.057 Y128.930 E0.93382
G1 X144.523 Y128.930 E0.01678
