; generated by PrusaSlicer 2.3.0+win64 on 2021-11-24 at 01:07:36 UTC

; 

; external perimeters extrusion width = 0.25mm
; perimeters extrusion width = 0.25mm
; infill extrusion width = 0.25mm
; solid infill extrusion width = 0.25mm
; top infill extrusion width = 0.25mm
; first layer extrusion width = 0.30mm

M73 P0 R68
M73 Q0 S68
M201 X1000 Y1000 Z200 E5000 ; sets maximum accelerations, mm/sec^2
M203 X200 Y200 Z12 E120 ; sets maximum feedrates, mm/sec
M204 P1250 R1250 T1250 ; sets acceleration (P, T) and retract acceleration (R), mm/sec^2
M205 X8.00 Y8.00 Z0.40 E4.50 ; sets the jerk limits, mm/sec
M205 S0 T0 ; sets the minimum extruding and travel feed rate, mm/sec
M107
;TYPE:Custom
M862.3 P "MK3" ; printer model check
M862.1 P0.25 ; nozzle diameter check
M115 U3.9.2 ; tell printer latest fw version
G90 ; use absolute coordinates
M83 ; extruder relative mode
M104 S215 ; set extruder temp
M140 S60 ; set bed temp
M190 S60 ; wait for bed temp
M109 S215 ; wait for extruder temp
G28 W ; home all without mesh bed level
G80 ; mesh bed leveling
G1 Y-3.0 F1000.0 ; go outside print area
G92 E0.0
G1 X60.0 E8.0 F700.0 ; intro line
M73 P0 R67
G1 X100.0 E12.5 F700.0 ; intro line
G92 E0.0
M221 S95

; Don't change E value below. Excessive value can damage the printer.
M907 E430 ; set extruder motor current
G21 ; set units to millimeters
G90 ; use absolute coordinates
M83 ; use relative distances for extrusion
M900 K0.05 ; Filament gcode LA 1.5
M900 K30 ; Filament gcode LA 1.0
;LAYER_CHANGE
;Z:0.2
;HEIGHT:0.2
;BEFORE_LAYER_CHANGE
G92 E0.0
;0.2


G1 E-0.80000 F2100.000
G1 Z0.150 F10800.000
G1 Z0.200
;AFTER_LAYER_CHANGE
;0.2
G1 Z0.350
G1 X97.769 Y103.182
G1 Z0.200
G1 E0.80000 F2100.000
M204 S500
;TYPE:Skirt
;WIDTH:0.3
G1 F1200.000
G1 X98.233 Y102.314 E0.02105
G1 X99.017 Y101.427 E0.02530
G1 X118.300 Y83.611 E0.56120
G1 X118.816 Y83.245 E0.01353
G1 X119.626 Y82.976 E0.01825
G1 X137.277 Y80.458 E0.38112
G1 X150.004 Y80.448 E0.27206
M73 Q0 S67
G1 X150.922 Y80.624 E0.01998
G1 X151.716 Y81.125 E0.02006
G1 X152.270 Y81.882 E0.02006
G1 X152.508 Y82.786 E0.01998
G1 X152.514 Y110.791 E0.59864
G1 X152.307 Y113.153 E0.05069
G1 X151.548 Y115.756 E0.05796
G1 X150.543 Y117.850 E0.04965
G1 X149.098 Y119.933 E0.05420
G1 X147.314 Y121.873 E0.05633
G1 X145.340 Y123.540 E0.05524
G1 X142.758 Y125.236 E0.06603
G1 X140.228 Y126.522 E0.06067
G1 X137.335 Y127.667 E0.06652
G1 X134.374 Y128.522 E0.06587
G1 X131.374 Y129.127 E0.06543
G1 X128.275 Y129.507 E0.06674
G1 X124.555 Y129.512 E0.07951
G1 X121.286 Y128.883 E0.07116
G1 X118.109 Y127.679 E0.07263
G1 X114.654 Y125.727 E0.08482
G1 X111.784 Y123.607 E0.07628
G1 X109.018 Y121.113 E0.07961
G1 X106.542 Y118.538 E0.07636
G1 X104.354 Y116.042 E0.07096
G1 X102.460 Y113.701 E0.06435
G1 X100.859 Y111.672 E0.05525
G1 X99.554 Y109.798 E0.04882
G1 X98.507 Y107.953 E0.04536
G1 X97.780 Y106.327 E0.03807
G1 X97.489 Y104.770 E0.03386
G1 X97.524 Y104.212 E0.01195
G1 X97.760 Y103.219 E0.02183
M204 S1000
G1 X98.009 Y103.278 F10800.000
M204 S500
G1 F1200.000
G1 X98.439 Y102.467 E0.01961
G1 X99.191 Y101.617 E0.02427
G1 X118.474 Y83.800 E0.56121
G1 X118.946 Y83.467 E0.01234
G1 X119.665 Y83.230 E0.01619
G1 X137.299 Y80.714 E0.38076
G1 X150.004 Y80.705 E0.27158
G1 X150.833 Y80.865 E0.01806
G1 X151.546 Y81.318 E0.01806
G1 X152.043 Y82.002 E0.01806
G1 X152.253 Y82.821 E0.01806
G1 X152.257 Y110.790 E0.59787
G1 X152.051 Y113.124 E0.05010
G1 X151.314 Y115.651 E0.05626
G1 X150.322 Y117.720 E0.04904
G1 X148.894 Y119.777 E0.05353
G1 X147.136 Y121.687 E0.05550
G1 X145.172 Y123.345 E0.05495
G1 X142.631 Y125.012 E0.06496
G1 X140.124 Y126.287 E0.06011
G1 X137.265 Y127.419 E0.06574
G1 X134.323 Y128.270 E0.06546
G1 X131.336 Y128.873 E0.06515
G1 X128.247 Y129.251 E0.06652
G1 X124.600 Y129.259 E0.07796
G1 X121.357 Y128.636 E0.07059
G1 X118.202 Y127.439 E0.07213
G1 X114.803 Y125.517 E0.08347
G1 X111.945 Y123.406 E0.07595
G1 X109.198 Y120.930 E0.07906
G1 X106.733 Y118.367 E0.07601
G1 X104.551 Y115.877 E0.07077
G1 X102.661 Y113.540 E0.06425
G1 X101.065 Y111.519 E0.05505
G1 X99.766 Y109.652 E0.04863
G1 X98.730 Y107.826 E0.04486
G1 X98.026 Y106.252 E0.03686
G1 X97.746 Y104.770 E0.03226
G1 X97.777 Y104.256 E0.01100
G1 X98.001 Y103.314 E0.02069
M204 S1000
; printing object Neat Blad.stl id:0 copy 0
;WIPE_START
G1 F8640.000
G1 X98.439 Y102.467 E-0.22021
G1 X99.191 Y101.617 E-0.26219
G1 X100.074 Y100.801 E-0.27760
;WIPE_END
G1 E-0.04000 F2100.000
G1 Z0.350 F10800.000
G1 X120.664 Y99.798
G1 Z0.200
G1 E0.80000 F2100.000
M204 S500
;TYPE:Perimeter
G1 F1200.000
G1 X120.664 Y86.127 E0.29225
G1 X131.836 Y86.127 E0.23881
G1 X131.836 Y99.798 E0.29225
G1 X120.702 Y99.798 E0.23801
M204 S1000
G1 X120.407 Y100.055 F10800.000
M204 S500
G1 F1200.000
G1 X120.407 Y85.870 E0.30324
G1 X132.093 Y85.870 E0.24980
G1 X132.093 Y100.055 E0.30324
G1 X120.445 Y100.055 E0.24900
M204 S1000
G1 X120.150 Y100.312 F10800.000
M204 S500
;TYPE:External perimeter
G1 F1200.000
G1 X120.150 Y85.612 E0.31423
G1 X132.350 Y85.612 E0.26079
G1 X132.350 Y100.312 E0.31423
G1 X120.188 Y100.312 E0.25999
M204 S1000
G1 X120.207 Y100.069 F10800.000
;WIPE_START
G1 F8640.000
G1 X120.179 Y97.021 E-0.76000
;WIPE_END
G1 E-0.04000 F2100.000
G1 Z0.350 F10800.000
G1 X131.234 Y86.204
G1 Z0.200
G1 E0.80000 F2100.000
M204 S500
;TYPE:Solid infill
;WIDTH:0.3024
G1 F1200.000
G1 X131.643 Y86.613 E0.01248
G1 X131.643 Y86.980 E0.00792
G1 X130.983 Y86.319 E0.02015
G1 X130.616 Y86.319 E0.00792
G1 X131.643 Y87.347 E0.03135
G1 X131.643 Y87.714 E0.00792
G1 X130.249 Y86.319 E0.04254
G1 X129.882 Y86.319 E0.00792
G1 X131.643 Y88.081 E0.05374
G1 X131.643 Y88.448 E0.00792
G1 X129.515 Y86.319 E0.06494
G1 X129.148 Y86.319 E0.00792
G1 X131.643 Y88.815 E0.07614
G1 X131.643 Y89.182 E0.00792
G1 X128.781 Y86.319 E0.08733
G1 X128.414 Y86.319 E0.00792
G1 X131.643 Y89.549 E0.09853
G1 X131.643 Y89.916 E0.00792
G1 X128.047 Y86.319 E0.10973
G1 X127.680 Y86.319 E0.00792
G1 X131.643 Y90.282 E0.12092
G1 X131.643 Y90.649 E0.00792
G1 X127.313 Y86.319 E0.13212
G1 X126.946 Y86.319 E0.00792
G1 X131.643 Y91.016 E0.14332
G1 X131.643 Y91.383 E0.00792
G1 X126.579 Y86.319 E0.15451
G1 X126.212 Y86.319 E0.00792
G1 X131.643 Y91.750 E0.16571
G1 X131.643 Y92.117 E0.00792
G1 X125.845 Y86.319 E0.17691
G1 X125.478 Y86.319 E0.00792
G1 X131.643 Y92.484 E0.18811
G1 X131.643 Y92.851 E0.00792
M73 Q1 S67
G1 X125.111 Y86.319 E0.19930
M73 P1 R67
G1 X124.744 Y86.319 E0.00792
G1 X131.643 Y93.218 E0.21050
G1 X131.643 Y93.585 E0.00792
G1 X124.377 Y86.319 E0.22170
G1 X124.010 Y86.319 E0.00792
G1 X131.643 Y93.952 E0.23289
G1 X131.643 Y94.319 E0.00792
G1 X123.643 Y86.319 E0.24409
G1 X123.276 Y86.319 E0.00792
G1 X131.643 Y94.686 E0.25529
G1 X131.643 Y95.053 E0.00792
G1 X122.910 Y86.319 E0.26648
G1 X122.543 Y86.319 E0.00792
G1 X131.643 Y95.420 E0.27768
G1 X131.643 Y95.787 E0.00792
G1 X122.176 Y86.319 E0.28888
G1 X121.809 Y86.319 E0.00792
G1 X131.643 Y96.154 E0.30008
G1 X131.643 Y96.521 E0.00792
G1 X121.442 Y86.319 E0.31127
G1 X121.075 Y86.319 E0.00792
G1 X131.643 Y96.888 E0.32247
G1 X131.643 Y97.255 E0.00792
G1 X120.857 Y86.469 E0.32911
G1 X120.857 Y86.836 E0.00792
G1 X131.643 Y97.622 E0.32911
G1 X131.643 Y97.989 E0.00792
G1 X120.857 Y87.203 E0.32911
G1 X120.857 Y87.569 E0.00792
G1 X131.643 Y98.356 E0.32911
G1 X131.643 Y98.723 E0.00792
G1 X120.857 Y87.936 E0.32911
G1 X120.857 Y88.303 E0.00792
G1 X131.643 Y99.090 E0.32911
G1 X131.643 Y99.456 E0.00792
G1 X120.857 Y88.670 E0.32911
G1 X120.857 Y89.037 E0.00792
G1 X131.425 Y99.606 E0.32247
G1 X131.058 Y99.606 E0.00792
G1 X120.857 Y89.404 E0.31127
G1 X120.857 Y89.771 E0.00792
G1 X130.691 Y99.606 E0.30007
G1 X130.324 Y99.606 E0.00792
G1 X120.857 Y90.138 E0.28888
G1 X120.857 Y90.505 E0.00792
G1 X129.957 Y99.606 E0.27768
G1 X129.590 Y99.606 E0.00792
G1 X120.857 Y90.872 E0.26648
G1 X120.857 Y91.239 E0.00792
G1 X129.223 Y99.606 E0.25528
G1 X128.856 Y99.606 E0.00792
G1 X120.857 Y91.606 E0.24409
G1 X120.857 Y91.973 E0.00792
G1 X128.489 Y99.606 E0.23289
G1 X128.123 Y99.606 E0.00792
G1 X120.857 Y92.340 E0.22169
G1 X120.857 Y92.707 E0.00792
G1 X127.756 Y99.606 E0.21050
G1 X127.389 Y99.606 E0.00792
G1 X120.857 Y93.074 E0.19930
G1 X120.857 Y93.441 E0.00792
G1 X127.022 Y99.606 E0.18810
G1 X126.655 Y99.606 E0.00792
G1 X120.857 Y93.808 E0.17691
G1 X120.857 Y94.175 E0.00792
G1 X126.288 Y99.606 E0.16571
G1 X125.921 Y99.606 E0.00792
G1 X120.857 Y94.542 E0.15451
G1 X120.857 Y94.909 E0.00792
G1 X125.554 Y99.606 E0.14331
G1 X125.187 Y99.606 E0.00792
G1 X120.857 Y95.276 E0.13212
G1 X120.857 Y95.643 E0.00792
G1 X124.820 Y99.606 E0.12092
G1 X124.453 Y99.606 E0.00792
G1 X120.857 Y96.010 E0.10972
M73 P1 R66
G1 X120.857 Y96.377 E0.00792
G1 X124.086 Y99.606 E0.09853
G1 X123.719 Y99.606 E0.00792
G1 X120.857 Y96.744 E0.08733
G1 X120.857 Y97.110 E0.00792
G1 X123.352 Y99.606 E0.07613
G1 X122.985 Y99.606 E0.00792
G1 X120.857 Y97.477 E0.06494
G1 X120.857 Y97.844 E0.00792
G1 X122.618 Y99.606 E0.05374
G1 X122.251 Y99.606 E0.00792
G1 X120.857 Y98.211 E0.04254
G1 X120.857 Y98.578 E0.00792
G1 X121.884 Y99.606 E0.03134
G1 X121.517 Y99.606 E0.00792
G1 X120.857 Y98.945 E0.02015
G1 X120.857 Y99.312 E0.00792
G1 X121.266 Y99.721 E0.01248
M204 S1000
;WIPE_START
G1 F8640.000
G1 X120.857 Y99.312 E-0.13356
G1 X120.857 Y98.945 E-0.08473
G1 X121.517 Y99.606 E-0.21561
G1 X121.884 Y99.606 E-0.08473
G1 X121.145 Y98.866 E-0.24136
;WIPE_END
G1 E-0.04000 F2100.000
G1 Z0.350 F10800.000
G1 X100.784 Y104.221
G1 Z0.200
G1 E0.80000 F2100.000
M204 S500
;TYPE:Perimeter
;WIDTH:0.3
G1 F1200.000
G1 X101.177 Y103.765 E0.01288
G1 X101.981 Y103.182 E0.02123
G1 X103.138 Y102.546 E0.02821
G1 X104.559 Y102.097 E0.03186
G1 X106.282 Y101.929 E0.03701
G1 X108.336 Y102.087 E0.04405
G1 X110.654 Y102.533 E0.05045
G1 X115.978 Y103.905 E0.11752
G1 X118.949 Y104.492 E0.06475
G1 X121.977 Y104.592 E0.06475
G1 X125.041 Y104.476 E0.06555
G1 X128.124 Y104.211 E0.06614
G1 X131.135 Y103.560 E0.06586
G1 X134.058 Y102.736 E0.06491
G1 X136.794 Y101.938 E0.06092
G1 X139.308 Y101.349 E0.05520
G1 X141.564 Y101.131 E0.04846
G1 X143.535 Y101.385 E0.04247
G1 X145.186 Y102.173 E0.03910
G1 X146.612 Y103.601 E0.04316
G1 X147.798 Y105.324 E0.04470
G1 X148.651 Y107.105 E0.04222
G1 X149.169 Y108.936 E0.04066
G1 X149.333 Y110.775 E0.03947
G1 X149.169 Y112.631 E0.03983
G1 X148.651 Y114.447 E0.04037
G1 X147.799 Y116.243 E0.04250
G1 X146.606 Y117.958 E0.04466
G1 X145.115 Y119.576 E0.04702
G1 X143.328 Y121.078 E0.04990
G1 X141.242 Y122.442 E0.05328
G1 X138.926 Y123.622 E0.05556
G1 X136.408 Y124.626 E0.05793
G1 X133.716 Y125.412 E0.05996
G1 X130.869 Y125.989 E0.06210
G1 X127.981 Y126.341 E0.06218
G1 X125.059 Y126.373 E0.06247
G1 X122.157 Y125.823 E0.06314
G1 X119.309 Y124.735 E0.06516
G1 X116.488 Y123.130 E0.06940
G1 X113.795 Y121.145 E0.07150
G1 X111.262 Y118.862 E0.07289
G1 X108.914 Y116.423 E0.07237
G1 X106.783 Y113.992 E0.06911
G1 X104.944 Y111.718 E0.06252
G1 X103.409 Y109.774 E0.05294
G1 X102.188 Y108.019 E0.04569
G1 X101.318 Y106.469 E0.03801
M73 Q1 S66
G1 X100.812 Y105.360 E0.02606
G1 X100.679 Y104.662 E0.01517
G1 X100.775 Y104.258 E0.00889
M204 S1000
G1 X100.548 Y104.101 F10800.000
M204 S500
G1 F1200.000
G1 X101.002 Y103.574 E0.01486
G1 X101.843 Y102.964 E0.02221
G1 X103.036 Y102.309 E0.02909
G1 X104.507 Y101.844 E0.03298
G1 X106.279 Y101.671 E0.03806
G1 X108.371 Y101.832 E0.04484
G1 X110.711 Y102.282 E0.05094
G1 X116.035 Y103.655 E0.11753
G1 X118.979 Y104.236 E0.06414
G1 X121.976 Y104.335 E0.06411
G1 X125.025 Y104.219 E0.06523
G1 X128.086 Y103.956 E0.06566
G1 X131.073 Y103.310 E0.06534
G1 X133.987 Y102.489 E0.06472
G1 X136.728 Y101.689 E0.06104
G1 X139.266 Y101.095 E0.05571
G1 X141.568 Y100.872 E0.04944
G1 X143.608 Y101.135 E0.04397
G1 X145.336 Y101.960 E0.04093
G1 X146.811 Y103.436 E0.04460
G1 X148.022 Y105.195 E0.04563
G1 X148.893 Y107.014 E0.04313
G1 X149.423 Y108.889 E0.04165
G1 X149.591 Y110.775 E0.04048
G1 X149.423 Y112.678 E0.04084
G1 X148.893 Y114.538 E0.04135
G1 X148.022 Y116.373 E0.04341
G1 X146.807 Y118.120 E0.04549
G1 X145.293 Y119.763 E0.04775
G1 X143.482 Y121.285 E0.05058
G1 X141.371 Y122.665 E0.05391
G1 X139.032 Y123.856 E0.05611
G1 X136.492 Y124.870 E0.05845
G1 X133.777 Y125.662 E0.06045
G1 X130.910 Y126.243 E0.06254
G1 X127.998 Y126.598 E0.06270
G1 X125.036 Y126.630 E0.06332
G1 X122.086 Y126.072 E0.06417
G1 X119.199 Y124.968 E0.06607
G1 X116.347 Y123.346 E0.07015
G1 X113.633 Y121.344 E0.07209
G1 X111.083 Y119.047 E0.07335
G1 X108.725 Y116.597 E0.07270
G1 X106.586 Y114.158 E0.06934
G1 X104.743 Y111.878 E0.06267
G1 X103.202 Y109.927 E0.05314
G1 X101.970 Y108.156 E0.04612
G1 X101.088 Y106.586 E0.03850
G1 X100.566 Y105.438 E0.02695
G1 X100.416 Y104.657 E0.01701
G1 X100.539 Y104.137 E0.01141
M204 S1000
G1 X100.312 Y103.980 F10800.000
M204 S500
;TYPE:External perimeter
G1 F1200.000
G1 X100.827 Y103.384 E0.01684
G1 X101.705 Y102.747 E0.02319
G1 X102.934 Y102.071 E0.02998
G1 X104.455 Y101.590 E0.03410
G1 X106.277 Y101.413 E0.03912
G1 X108.405 Y101.576 E0.04563
G1 X110.767 Y102.031 E0.05142
G1 X116.092 Y103.404 E0.11754
G1 X119.008 Y103.980 E0.06354
G1 X121.975 Y104.078 E0.06347
G1 X125.009 Y103.962 E0.06490
G1 X128.047 Y103.701 E0.06518
G1 X131.011 Y103.061 E0.06482
G1 X133.916 Y102.242 E0.06452
G1 X136.663 Y101.440 E0.06116
G1 X139.224 Y100.841 E0.05623
G1 X141.573 Y100.613 E0.05043
M73 Q2 S66
G1 X143.682 Y100.886 E0.04547
G1 X145.487 Y101.747 E0.04275
G1 X147.009 Y103.271 E0.04605
M73 P2 R66
G1 X148.245 Y105.065 E0.04657
G1 X149.134 Y106.923 E0.04403
G1 X149.677 Y108.842 E0.04263
G1 X149.849 Y110.775 E0.04148
G1 X149.677 Y112.725 E0.04185
G1 X149.134 Y114.629 E0.04233
G1 X148.245 Y116.502 E0.04431
G1 X147.008 Y118.281 E0.04632
G1 X145.471 Y119.949 E0.04848
G1 X143.635 Y121.492 E0.05126
G1 X141.500 Y122.888 E0.05454
G1 X139.138 Y124.091 E0.05666
G1 X136.576 Y125.113 E0.05896
G1 X133.839 Y125.912 E0.06095
G1 X130.951 Y126.497 E0.06299
G1 X128.015 Y126.855 E0.06322
G1 X125.013 Y126.887 E0.06417
G1 X122.016 Y126.320 E0.06521
G1 X119.089 Y125.201 E0.06698
G1 X116.207 Y123.562 E0.07089
G1 X113.470 Y121.544 E0.07269
G1 X110.904 Y119.232 E0.07382
G1 X108.535 Y116.771 E0.07302
G1 X106.390 Y114.323 E0.06958
G1 X104.542 Y112.039 E0.06281
G1 X102.996 Y110.081 E0.05334
G1 X101.752 Y108.293 E0.04655
G1 X100.859 Y106.702 E0.03900
G1 X100.319 Y105.517 E0.02784
G1 X100.153 Y104.651 E0.01884
G1 X100.304 Y104.017 E0.01393
M204 S1000
G1 X100.562 Y103.968 F10800.000
;WIPE_START
G1 F8640.000
G1 X100.827 Y103.384 E-0.18965
G1 X101.705 Y102.747 E-0.25049
G1 X102.919 Y102.079 E-0.31985
;WIPE_END
G1 E-0.04000 F2100.000
G1 Z0.350 F10800.000
G1 X144.826 Y102.086
G1 Z0.200
G1 E0.80000 F2100.000
M204 S500
;TYPE:Solid infill
;WIDTH:0.301329
G1 F1200.000
G1 X146.463 Y103.725 E0.04978
G1 X147.269 Y104.895 E0.03052
G1 X144.372 Y101.998 E0.08803
G1 X143.673 Y101.665 E0.01664
G1 X147.816 Y105.808 E0.12590
G1 X148.152 Y106.509 E0.01670
G1 X143.176 Y101.533 E0.15120
G1 X142.757 Y101.479 E0.00909
G1 X148.478 Y107.200 E0.17385
G1 X148.622 Y107.710 E0.01138
G1 X142.337 Y101.425 E0.19097
G1 X141.918 Y101.371 E0.00909
G1 X148.766 Y108.219 E0.20810
G1 X148.910 Y108.729 E0.01138
G1 X141.511 Y101.330 E0.22484
G1 X141.178 Y101.362 E0.00719
G1 X148.997 Y109.181 E0.23761
G1 X149.033 Y109.583 E0.00866
G1 X140.845 Y101.394 E0.24883
G1 X140.511 Y101.426 E0.00719
G1 X149.069 Y109.984 E0.26004
G1 X149.105 Y110.385 E0.00866
G1 X140.178 Y101.459 E0.27125
G1 X139.845 Y101.491 E0.00719
G1 X149.139 Y110.785 E0.28241
G1 X149.109 Y111.120 E0.00724
G1 X139.512 Y101.523 E0.29163
G1 X139.197 Y101.573 E0.00686
G1 X149.079 Y111.456 E0.30031
G1 X149.050 Y111.792 E0.00724
G1 X138.900 Y101.643 E0.30841
G1 X138.604 Y101.712 E0.00654
G1 X149.020 Y112.128 E0.31650
G1 X148.990 Y112.463 E0.00724
G1 X138.308 Y101.781 E0.32460
G1 X138.012 Y101.851 E0.00654
G1 X148.929 Y112.768 E0.33175
G1 X148.848 Y113.052 E0.00635
G1 X137.716 Y101.920 E0.33829
G1 X137.420 Y101.989 E0.00654
G1 X148.767 Y113.337 E0.34482
G1 X148.686 Y113.621 E0.00635
G1 X137.124 Y102.058 E0.35136
G1 X136.828 Y102.128 E0.00652
G1 X148.605 Y113.906 E0.35787
G1 X148.524 Y114.190 E0.00635
G1 X136.545 Y102.211 E0.36401
G1 X136.262 Y102.294 E0.00633
G1 X148.431 Y114.462 E0.36977
G1 X148.313 Y114.710 E0.00589
