; generated by PrusaSlicer 2.3.0+win64 on 2021-11-24 at 02:20:44 UTC

; 

; external perimeters extrusion width = 0.25mm
; perimeters extrusion width = 0.25mm
; infill extrusion width = 0.25mm
; solid infill extrusion width = 0.25mm
; top infill extrusion width = 0.25mm
; first layer extrusion width = 0.30mm

M73 P0 R299
M73 Q0 S299
M201 X1000 Y1000 Z200 E5000 ; sets maximum accelerations, mm/sec^2
M203 X200 Y200 Z12 E120 ; sets maximum feedrates, mm/sec
M204 P1250 R1250 T1250 ; sets acceleration (P, T) and retract acceleration (R), mm/sec^2
M205 X8.00 Y8.00 Z0.40 E4.50 ; sets the jerk limits, mm/sec
M205 S0 T0 ; sets the minimum extruding and travel feed rate, mm/sec
M107
;TYPE:Custom
M862.3 P "MK3" ; printer model check
M862.1 P0.25 ; nozzle diameter check
M115 U3.9.2 ; tell printer latest fw version
G90 ; use absolute coordinates
M83 ; extruder relative mode
M104 S215 ; set extruder temp
M140 S60 ; set bed temp
M190 S60 ; wait for bed temp
M109 S215 ; wait for extruder temp
G28 W ; home all without mesh bed level
G80 ; mesh bed leveling
G1 Y-3.0 F1000.0 ; go outside print area
G92 E0.0
G1 X60.0 E8.0 F700.0 ; intro line
G1 X100.0 E12.5 F700.0 ; intro line
G92 E0.0
M221 S95

; Don't change E value below. Excessive value can damage the printer.
M907 E430 ; set extruder motor current
G21 ; set units to millimeters
G90 ; use absolute coordinates
M83 ; use relative distances for extrusion
M900 K0.05 ; Filament gcode LA 1.5
M900 K30 ; Filament gcode LA 1.0
;LAYER_CHANGE
;Z:0.2
;HEIGHT:0.2
;BEFORE_LAYER_CHANGE
G92 E0.0
;0.2


G1 E-0.80000 F2100.000
M73 P0 R298
G1 Z0.150 F10800.000
G1 Z0.200
;AFTER_LAYER_CHANGE
;0.2
G1 Z0.350
G1 X96.883 Y84.569
G1 Z0.200
G1 E0.80000 F2100.000
M204 S500
;TYPE:Skirt
;WIDTH:0.3
G1 F1200.000
G1 X104.302 Y77.112 E0.22486
G1 X104.856 Y76.705 E0.01470
G1 X114.247 Y71.948 E0.22504
G1 X125.002 Y70.243 E0.23276
G1 X135.410 Y71.863 E0.22517
G1 X136.057 Y72.074 E0.01454
G1 X145.431 Y76.883 E0.22521
G1 X152.888 Y84.302 E0.22486
G1 X153.295 Y84.856 E0.01470
G1 X158.052 Y94.247 E0.22504
G1 X159.757 Y105.002 E0.23276
G1 X158.137 Y115.410 E0.22517
G1 X157.926 Y116.057 E0.01454
G1 X153.117 Y125.431 E0.22521
G1 X145.698 Y132.888 E0.22486
G1 X145.144 Y133.295 E0.01470
G1 X135.753 Y138.052 E0.22504
G1 X124.998 Y139.757 E0.23276
G1 X114.590 Y138.137 E0.22517
G1 X113.943 Y137.926 E0.01454
G1 X104.569 Y133.117 E0.22521
G1 X97.112 Y125.698 E0.22486
G1 X96.705 Y125.144 E0.01470
G1 X91.948 Y115.753 E0.22504
G1 X90.243 Y104.998 E0.23276
G1 X91.863 Y94.590 E0.22517
G1 X92.074 Y93.943 E0.01454
G1 X96.866 Y84.603 E0.22440
M204 S1000
; printing object Neat Blad (1).stl id:0 copy 0
;WIPE_START
G1 F8640.000
G1 X99.184 Y82.267 E-0.76000
;WIPE_END
G1 E-0.04000 F2100.000
G1 Z0.350 F10800.000
G1 X99.251 Y86.293
G1 Z0.200
G1 E0.80000 F2100.000
M204 S500
;TYPE:Perimeter
G1 F1200.000
G1 X106.293 Y79.251 E0.21286
G1 X115.165 Y74.730 E0.21287
G1 X125.000 Y73.172 E0.21285
G1 X134.835 Y74.730 E0.21285
G1 X143.707 Y79.251 E0.21287
G1 X150.749 Y86.293 E0.21286
G1 X155.270 Y95.165 E0.21287
G1 X156.828 Y105.000 E0.21285
G1 X155.270 Y114.835 E0.21285
G1 X150.749 Y123.707 E0.21287
G1 X143.707 Y130.749 E0.21286
G1 X134.835 Y135.270 E0.21287
G1 X125.000 Y136.828 E0.21285
M73 Q0 S298
G1 X115.165 Y135.270 E0.21285
G1 X106.293 Y130.749 E0.21287
G1 X99.251 Y123.707 E0.21286
G1 X94.730 Y114.835 E0.21287
G1 X93.172 Y105.000 E0.21285
G1 X94.730 Y95.165 E0.21285
G1 X99.234 Y86.326 E0.21207
M204 S1000
G1 X99.005 Y86.209 F10800.000
M204 S500
G1 F1200.000
G1 X99.041 Y86.140 E0.00167
G1 X106.140 Y79.041 E0.21460
G1 X115.085 Y74.482 E0.21461
G1 X125.000 Y72.912 E0.21459
G1 X134.915 Y74.482 E0.21459
G1 X143.860 Y79.041 E0.21461
G1 X150.959 Y86.140 E0.21460
G1 X155.518 Y95.085 E0.21461
G1 X157.088 Y105.000 E0.21459
G1 X155.518 Y114.915 E0.21459
G1 X150.959 Y123.860 E0.21461
G1 X143.860 Y130.959 E0.21460
G1 X134.915 Y135.518 E0.21461
G1 X125.000 Y137.088 E0.21459
G1 X115.085 Y135.518 E0.21459
G1 X106.140 Y130.959 E0.21461
G1 X99.041 Y123.860 E0.21460
G1 X94.482 Y114.915 E0.21461
G1 X92.912 Y105.000 E0.21459
G1 X94.482 Y95.085 E0.21459
G1 X98.988 Y86.243 E0.21214
M204 S1000
G1 X98.830 Y85.987 F10800.000
M204 S500
;TYPE:External perimeter
G1 F1200.000
G1 X105.987 Y78.830 E0.21634
G1 X115.004 Y74.234 E0.21636
G1 X125.000 Y72.652 E0.21633
G1 X134.996 Y74.234 E0.21633
G1 X144.013 Y78.830 E0.21636
G1 X151.170 Y85.987 E0.21634
G1 X155.766 Y95.004 E0.21636
G1 X157.348 Y105.000 E0.21633
G1 X155.766 Y114.996 E0.21633
G1 X151.170 Y124.013 E0.21636
G1 X144.013 Y131.170 E0.21634
G1 X134.996 Y135.766 E0.21636
G1 X125.000 Y137.348 E0.21633
G1 X115.004 Y135.766 E0.21633
G1 X105.987 Y131.170 E0.21636
G1 X98.830 Y124.013 E0.21634
G1 X94.234 Y114.996 E0.21636
G1 X92.652 Y105.000 E0.21633
G1 X94.234 Y95.004 E0.21633
G1 X98.813 Y86.020 E0.21555
M204 S1000
G1 X99.079 Y86.013 F10800.000
;WIPE_START
G1 F8640.000
G1 X101.138 Y83.690 E-0.76000
;WIPE_END
G1 E-0.04000 F2100.000
G1 Z0.350 F10800.000
G1 X143.327 Y79.144
G1 Z0.200
G1 E0.80000 F2100.000
M204 S500
;TYPE:Solid infill
;WIDTH:0.300056
G1 F1200.000
G1 X150.591 Y86.408 E0.21962
G1 X150.969 Y87.149 E0.01780
G1 X142.851 Y79.031 E0.24547
G1 X142.109 Y78.653 E0.01780
G1 X151.347 Y87.891 E0.27932
G1 X151.725 Y88.633 E0.01780
G1 X141.367 Y78.275 E0.31317
G1 X140.626 Y77.897 E0.01780
G1 X152.103 Y89.374 E0.34703
G1 X152.481 Y90.116 E0.01780
G1 X139.884 Y77.519 E0.38088
G1 X139.143 Y77.141 E0.01780
G1 X152.859 Y90.857 E0.41473
G1 X153.237 Y91.599 E0.01780
G1 X138.401 Y76.763 E0.44859
G1 X137.659 Y76.386 E0.01780
G1 X153.614 Y92.341 E0.48244
G1 X153.992 Y93.082 E0.01780
G1 X136.918 Y76.008 E0.51629
G1 X136.176 Y75.630 E0.01780
G1 X154.370 Y93.824 E0.55015
G1 X154.748 Y94.566 E0.01780
G1 X135.434 Y75.252 E0.58400
G1 X134.774 Y74.915 E0.01584
G1 X134.727 Y74.908 E0.00103
G1 X155.092 Y95.273 E0.61579
G1 X155.161 Y95.705 E0.00935
G1 X134.295 Y74.839 E0.63093
G1 X133.863 Y74.771 E0.00935
G1 X155.229 Y96.137 E0.64606
G1 X155.298 Y96.569 E0.00935
G1 X133.431 Y74.702 E0.66119
M73 P0 R297
G1 X132.999 Y74.634 E0.00935
G1 X155.366 Y97.001 E0.67632
G1 X155.434 Y97.433 E0.00935
G1 X132.567 Y74.566 E0.69146
G1 X132.135 Y74.497 E0.00935
G1 X155.503 Y97.865 E0.70659
G1 X155.571 Y98.297 E0.00935
G1 X131.703 Y74.429 E0.72172
G1 X131.270 Y74.360 E0.00935
G1 X155.640 Y98.730 E0.73685
G1 X155.708 Y99.162 E0.00935
G1 X130.838 Y74.292 E0.75199
G1 X130.406 Y74.224 E0.00935
G1 X155.776 Y99.594 E0.76712
G1 X155.845 Y100.026 E0.00935
G1 X129.974 Y74.155 E0.78225
G1 X129.542 Y74.087 E0.00935
G1 X155.913 Y100.458 E0.79738
G1 X155.982 Y100.890 E0.00935
G1 X129.110 Y74.018 E0.81252
M73 Q0 S297
G1 X128.678 Y73.950 E0.00935
G1 X156.050 Y101.322 E0.82765
G1 X156.118 Y101.754 E0.00935
G1 X128.246 Y73.882 E0.84278
G1 X127.814 Y73.813 E0.00935
G1 X156.187 Y102.186 E0.85791
G1 X156.255 Y102.618 E0.00935
G1 X127.382 Y73.745 E0.87305
G1 X126.950 Y73.676 E0.00935
G1 X156.324 Y103.050 E0.88818
G1 X156.392 Y103.482 E0.00935
G1 X126.518 Y73.608 E0.90331
G1 X126.086 Y73.540 E0.00935
G1 X156.460 Y103.914 E0.91844
G1 X156.529 Y104.346 E0.00935
G1 X125.654 Y73.471 E0.93358
G1 X125.222 Y73.403 E0.00935
G1 X156.597 Y104.778 E0.94871
G1 X156.632 Y105.000 E0.00480
G1 X156.608 Y105.153 E0.00331
G1 X124.847 Y73.392 E0.96036
G1 X124.533 Y73.442 E0.00680
G1 X156.558 Y105.467 E0.96835
G1 X156.509 Y105.781 E0.00680
G1 X124.219 Y73.491 E0.97634
G1 X123.905 Y73.541 E0.00680
G1 X156.459 Y106.095 E0.98433
G1 X156.409 Y106.409 E0.00680
G1 X123.591 Y73.591 E0.99232
G1 X123.278 Y73.640 E0.00680
G1 X156.360 Y106.722 E1.00031
G1 X156.310 Y107.036 E0.00680
G1 X122.964 Y73.690 E1.00830
G1 X122.650 Y73.740 E0.00680
G1 X156.260 Y107.350 E1.01629
G1 X156.211 Y107.664 E0.00680
G1 X122.336 Y73.789 E1.02428
G1 X122.022 Y73.839 E0.00680
G1 X156.161 Y107.978 E1.03227
M73 P0 R296
G1 X156.111 Y108.292 E0.00680
G1 X121.708 Y73.889 E1.04026
G1 X121.394 Y73.939 E0.00680
G1 X156.061 Y108.606 E1.04825
G1 X156.012 Y108.920 E0.00680
G1 X121.080 Y73.988 E1.05624
G1 X120.766 Y74.038 E0.00680
G1 X155.962 Y109.234 E1.06423
G1 X155.912 Y109.548 E0.00680
G1 X120.452 Y74.088 E1.07222
G1 X120.138 Y74.137 E0.00680
G1 X155.863 Y109.862 E1.08021
G1 X155.813 Y110.176 E0.00680
G1 X119.824 Y74.187 E1.08820
M73 Q0 S296
G1 X119.510 Y74.237 E0.00680
G1 X155.763 Y110.490 E1.09619
G1 X155.713 Y110.804 E0.00680
G1 X119.196 Y74.287 E1.10418
G1 X118.882 Y74.336 E0.00680
G1 X155.664 Y111.118 E1.11217
G1 X155.614 Y111.432 E0.00680
G1 X118.568 Y74.386 E1.12016
G1 X118.254 Y74.436 E0.00680
G1 X155.564 Y111.746 E1.12815
G1 X155.515 Y112.059 E0.00680
G1 X117.941 Y74.485 E1.13614
G1 X117.627 Y74.535 E0.00680
G1 X155.465 Y112.373 E1.14413
G1 X155.415 Y112.687 E0.00680
G1 X117.313 Y74.585 E1.15212
G1 X116.999 Y74.634 E0.00680
G1 X155.366 Y113.001 E1.16011
G1 X155.316 Y113.315 E0.00680
G1 X116.685 Y74.684 E1.16810
G1 X116.371 Y74.734 E0.00680
G1 X155.266 Y113.629 E1.17609
G1 X155.216 Y113.943 E0.00680
G1 X116.057 Y74.784 E1.18408
M73 P1 R296
M73 Q1 S296
G1 X115.743 Y74.833 E0.00680
G1 X155.167 Y114.257 E1.19207
G1 X155.117 Y114.571 E0.00680
G1 X115.429 Y74.883 E1.20006
G1 X115.226 Y74.915 E0.00440
G1 X115.141 Y74.958 E0.00204
G1 X155.042 Y114.859 E1.20649
M73 P1 R295
G1 X154.919 Y115.100 E0.00578
G1 X114.900 Y75.081 E1.21006
G1 X114.659 Y75.204 E0.00578
G1 X154.796 Y115.341 E1.21363
G1 X154.673 Y115.582 E0.00578
G1 X114.418 Y75.327 E1.21720
G1 X114.177 Y75.449 E0.00578
G1 X154.551 Y115.823 E1.22077
G1 X154.428 Y116.064 E0.00578
G1 X113.936 Y75.572 E1.22435
G1 X113.696 Y75.695 E0.00578
G1 X154.305 Y116.304 E1.22792
G1 X154.182 Y116.545 E0.00578
G1 X113.455 Y75.818 E1.23149
M73 Q1 S295
G1 X113.214 Y75.941 E0.00578
G1 X154.059 Y116.786 E1.23506
G1 X153.937 Y117.027 E0.00578
G1 X112.973 Y76.063 E1.23863
G1 X112.732 Y76.186 E0.00578
G1 X153.814 Y117.268 E1.24220
G1 X153.691 Y117.509 E0.00578
G1 X112.491 Y76.309 E1.24577
G1 X112.250 Y76.432 E0.00578
G1 X153.568 Y117.750 E1.24935
G1 X153.446 Y117.991 E0.00578
G1 X112.009 Y76.554 E1.25292
G1 X111.768 Y76.677 E0.00578
G1 X153.323 Y118.232 E1.25649
G1 X153.200 Y118.472 E0.00578
G1 X111.528 Y76.800 E1.26006
G1 X111.287 Y76.923 E0.00578
G1 X153.077 Y118.713 E1.26363
G1 X152.955 Y118.954 E0.00578
G1 X111.046 Y77.045 E1.26720
G1 X110.805 Y77.168 E0.00578
G1 X152.832 Y119.195 E1.27077
G1 X152.709 Y119.436 E0.00578
G1 X110.564 Y77.291 E1.27435
G1 X110.323 Y77.414 E0.00578
G1 X152.586 Y119.677 E1.27792
G1 X152.463 Y119.918 E0.00578
G1 X110.082 Y77.537 E1.28149
M73 P1 R294
G1 X109.841 Y77.659 E0.00578
G1 X152.341 Y120.159 E1.28506
G1 X152.218 Y120.399 E0.00578
G1 X109.601 Y77.782 E1.28863
G1 X109.360 Y77.905 E0.00578
G1 X152.095 Y120.640 E1.29220
G1 X151.972 Y120.881 E0.00578
G1 X109.119 Y78.028 E1.29577
G1 X108.878 Y78.150 E0.00578
G1 X151.850 Y121.122 E1.29935
G1 X151.727 Y121.363 E0.00578
G1 X108.637 Y78.273 E1.30292
M73 Q1 S294
G1 X108.396 Y78.396 E0.00578
G1 X151.604 Y121.604 E1.30649
G1 X151.481 Y121.845 E0.00578
G1 X108.155 Y78.519 E1.31006
G1 X107.914 Y78.641 E0.00578
G1 X151.359 Y122.086 E1.31363
G1 X151.236 Y122.326 E0.00578
G1 X107.674 Y78.764 E1.31720
G1 X107.433 Y78.887 E0.00578
G1 X151.113 Y122.567 E1.32077
G1 X150.990 Y122.808 E0.00578
G1 X107.192 Y79.010 E1.32435
G1 X106.951 Y79.132 E0.00578
G1 X150.868 Y123.049 E1.32792
G1 X150.745 Y123.290 E0.00578
G1 X106.710 Y79.255 E1.33149
G1 X106.469 Y79.378 E0.00578
G1 X150.622 Y123.531 E1.33506
G1 X150.591 Y123.592 E0.00148
G1 X150.455 Y123.728 E0.00409
G1 X106.272 Y79.545 E1.33597
G1 X106.090 Y79.727 E0.00550
G1 X150.273 Y123.910 E1.33597
G1 X150.092 Y124.091 E0.00550
G1 X105.909 Y79.908 E1.33597
G1 X105.727 Y80.090 E0.00550
G1 X149.910 Y124.273 E1.33597
M73 P1 R293
G1 X149.728 Y124.455 E0.00550
G1 X105.545 Y80.272 E1.33597
G1 X105.363 Y80.454 E0.00550
G1 X149.546 Y124.637 E1.33597
G1 X149.364 Y124.819 E0.00550
G1 X105.181 Y80.636 E1.33597
G1 X104.999 Y80.817 E0.00550
G1 X149.183 Y125.001 E1.33597
G1 X149.001 Y125.182 E0.00550
G1 X104.818 Y80.999 E1.33597
G1 X104.636 Y81.181 E0.00550
G1 X148.819 Y125.364 E1.33597
M73 Q1 S293
G1 X148.637 Y125.546 E0.00550
G1 X104.454 Y81.363 E1.33597
G1 X104.272 Y81.545 E0.00550
G1 X148.455 Y125.728 E1.33597
G1 X148.273 Y125.910 E0.00550
G1 X104.090 Y81.727 E1.33597
G1 X103.909 Y81.908 E0.00550
G1 X148.092 Y126.091 E1.33597
G1 X147.910 Y126.273 E0.00550
G1 X103.727 Y82.090 E1.33597
G1 X103.545 Y82.272 E0.00550
G1 X147.728 Y126.455 E1.33597
G1 X147.546 Y126.637 E0.00550
G1 X103.363 Y82.454 E1.33597
G1 X103.181 Y82.636 E0.00550
G1 X147.364 Y126.819 E1.33597
G1 X147.182 Y127.001 E0.00550
G1 X102.999 Y82.818 E1.33597
G1 X102.818 Y82.999 E0.00550
G1 X147.001 Y127.182 E1.33597
M73 P2 R293
M73 Q2 S293
G1 X146.819 Y127.364 E0.00550
G1 X102.636 Y83.181 E1.33597
G1 X102.454 Y83.363 E0.00550
G1 X146.637 Y127.546 E1.33597
G1 X146.455 Y127.728 E0.00550
G1 X102.272 Y83.545 E1.33597
M73 P2 R292
G1 X102.090 Y83.727 E0.00550
G1 X146.273 Y127.910 E1.33597
G1 X146.092 Y128.092 E0.00550
G1 X101.908 Y83.908 E1.33597
G1 X101.727 Y84.090 E0.00550
G1 X145.910 Y128.273 E1.33597
G1 X145.728 Y128.455 E0.00550
G1 X101.545 Y84.272 E1.33597
G1 X101.363 Y84.454 E0.00550
G1 X145.546 Y128.637 E1.33597
G1 X145.364 Y128.819 E0.00550
G1 X101.181 Y84.636 E1.33597
M73 Q2 S292
G1 X100.999 Y84.818 E0.00550
G1 X145.182 Y129.001 E1.33597
G1 X145.001 Y129.182 E0.00550
G1 X100.818 Y84.999 E1.33597
G1 X100.636 Y85.181 E0.00550
G1 X144.819 Y129.364 E1.33597
G1 X144.637 Y129.546 E0.00550
G1 X100.454 Y85.363 E1.33597
G1 X100.272 Y85.545 E0.00550
G1 X144.455 Y129.728 E1.33597
G1 X144.273 Y129.910 E0.00550
G1 X100.090 Y85.727 E1.33597
G1 X99.908 Y85.908 E0.00550
G1 X144.092 Y130.092 E1.33597
G1 X143.910 Y130.273 E0.00550
G1 X99.727 Y86.090 E1.33597
G1 X99.545 Y86.272 E0.00550
G1 X143.728 Y130.455 E1.33597
G1 X143.592 Y130.591 E0.00409
G1 X143.531 Y130.622 E0.00148
G1 X99.378 Y86.469 E1.33506
G1 X99.255 Y86.710 E0.00578
G1 X143.290 Y130.745 E1.33149
G1 X143.049 Y130.867 E0.00578
G1 X99.133 Y86.951 E1.32792
G1 X99.010 Y87.192 E0.00578
G1 X142.808 Y130.990 E1.32435
M73 P2 R291
G1 X142.567 Y131.113 E0.00578
G1 X98.887 Y87.433 E1.32078
G1 X98.764 Y87.673 E0.00578
G1 X142.327 Y131.236 E1.31720
G1 X142.086 Y131.359 E0.00578
G1 X98.641 Y87.914 E1.31363
G1 X98.519 Y88.155 E0.00578
G1 X141.845 Y131.481 E1.31006
G1 X141.604 Y131.604 E0.00578
G1 X98.396 Y88.396 E1.30649
G1 X98.273 Y88.637 E0.00578
G1 X141.363 Y131.727 E1.30292
M73 Q2 S291
G1 X141.122 Y131.850 E0.00578
G1 X98.150 Y88.878 E1.29935
G1 X98.028 Y89.119 E0.00578
G1 X140.881 Y131.972 E1.29578
G1 X140.640 Y132.095 E0.00578
G1 X97.905 Y89.360 E1.29220
G1 X97.782 Y89.600 E0.00578
G1 X140.400 Y132.218 E1.28863
G1 X140.159 Y132.341 E0.00578
G1 X97.659 Y89.841 E1.28506
G1 X97.537 Y90.082 E0.00578
G1 X139.918 Y132.463 E1.28149
G1 X139.677 Y132.586 E0.00578
G1 X97.414 Y90.323 E1.27792
G1 X97.291 Y90.564 E0.00578
G1 X139.436 Y132.709 E1.27435
G1 X139.195 Y132.832 E0.00578
G1 X97.168 Y90.805 E1.27078
G1 X97.045 Y91.046 E0.00578
G1 X138.954 Y132.955 E1.26720
G1 X138.713 Y133.077 E0.00578
G1 X96.923 Y91.287 E1.26363
G1 X96.800 Y91.528 E0.00578
G1 X138.472 Y133.200 E1.26006
G1 X138.232 Y133.323 E0.00578
G1 X96.677 Y91.768 E1.25649
G1 X96.554 Y92.009 E0.00578
G1 X137.991 Y133.446 E1.25292
M73 P2 R290
G1 X137.750 Y133.568 E0.00578
G1 X96.432 Y92.250 E1.24935
G1 X96.309 Y92.491 E0.00578
G1 X137.509 Y133.691 E1.24578
G1 X137.268 Y133.814 E0.00578
G1 X96.186 Y92.732 E1.24220
G1 X96.063 Y92.973 E0.00578
G1 X137.027 Y133.937 E1.23863
G1 X136.786 Y134.059 E0.00578
G1 X95.941 Y93.214 E1.23506
G1 X95.818 Y93.455 E0.00578
G1 X136.545 Y134.182 E1.23149
M73 Q2 S290
G1 X136.305 Y134.305 E0.00578
G1 X95.695 Y93.695 E1.22792
G1 X95.572 Y93.936 E0.00578
G1 X136.064 Y134.428 E1.22435
G1 X135.823 Y134.550 E0.00578
G1 X95.450 Y94.177 E1.22078
G1 X95.327 Y94.418 E0.00578
G1 X135.582 Y134.673 E1.21720
G1 X135.341 Y134.796 E0.00578
G1 X95.204 Y94.659 E1.21363
G1 X95.081 Y94.900 E0.00578
G1 X135.100 Y134.919 E1.21006
G1 X134.859 Y135.042 E0.00578
G1 X94.958 Y95.141 E1.20649
G1 X94.915 Y95.226 E0.00204
G1 X94.883 Y95.429 E0.00440
G1 X134.571 Y135.117 E1.20006
G1 X134.257 Y135.167 E0.00680
G1 X94.833 Y95.743 E1.19207
