; generated by PrusaSlicer 2.3.0+win64 on 2022-06-22 at 18:26:42 UTC

; 

; external perimeters extrusion width = 0.60mm
; perimeters extrusion width = 0.50mm
; infill extrusion width = 0.50mm
; solid infill extrusion width = 0.50mm
; top infill extrusion width = 0.45mm
; first layer extrusion width = 0.42mm

M73 P0 R36
M73 Q0 S36
M201 X1000 Y1000 Z200 E5000 ; sets maximum accelerations, mm/sec^2
M203 X200 Y200 Z12 E120 ; sets maximum feedrates, mm/sec
M204 P1250 R1250 T1250 ; sets acceleration (P, T) and retract acceleration (R), mm/sec^2
M205 X8.00 Y8.00 Z0.40 E4.50 ; sets the jerk limits, mm/sec
M205 S0 T0 ; sets the minimum extruding and travel feed rate, mm/sec
M107
;TYPE:Custom
M862.3 P "MK3" ; printer model check
M862.1 P0.4 ; nozzle diameter check
M115 U3.9.2 ; tell printer latest fw version
G90 ; use absolute coordinates
M83 ; extruder relative mode
M104 S215 ; set extruder temp
M140 S60 ; set bed temp
M190 S60 ; wait for bed temp
M109 S215 ; wait for extruder temp
G28 W ; home all without mesh bed level
G80 ; mesh bed leveling
G1 Y-3.0 F1000.0 ; go outside print area
G92 E0.0
G1 X60.0 E9.0 F1000.0 ; intro line
G1 X100.0 E12.5 F1000.0 ; intro line
G92 E0.0
M221 S95

; Don't change E values below. Excessive value can damage the printer.

M907 E538 ; set extruder motor current
G21 ; set units to millimeters
G90 ; use absolute coordinates
M83 ; use relative distances for extrusion
M900 K0.05 ; Filament gcode LA 1.5
M900 K30 ; Filament gcode LA 1.0
;LAYER_CHANGE
;Z:0.2
;HEIGHT:0.2
;BEFORE_LAYER_CHANGE
G92 E0.0
;0.2


G1 E-0.80000 F2100.000
G1 Z0.400 F10800.000
;AFTER_LAYER_CHANGE
;0.2
G1 X95.704 Y31.693
G1 Z0.200
G1 E0.80000 F2100.000
M204 S1000
;TYPE:Skirt
;WIDTH:0.42
G1 F1200.000
G1 X96.648 Y31.891 E0.03024
G1 X100.980 Y33.994 E0.15098
G1 X101.555 Y34.416 E0.02237
G1 X101.977 Y34.987 E0.02225
G1 X163.658 Y160.038 E4.37191
G1 X163.863 Y160.744 E0.02308
G1 X165.699 Y175.839 E0.47676
G1 X165.625 Y176.526 E0.02166
G1 X165.355 Y177.165 E0.02178
G1 X164.911 Y177.699 E0.02178
G1 X164.332 Y178.083 E0.02178
G1 X163.846 Y178.249 E0.01609
G1 X163.332 Y178.307 E0.01621
G1 X86.642 Y178.306 E2.40458
G1 X85.989 Y178.205 E0.02071
G1 X85.386 Y177.926 E0.02083
G1 X84.886 Y177.494 E0.02071
G1 X84.523 Y176.938 E0.02083
G1 X84.341 Y176.374 E0.01858
G1 X84.304 Y175.782 E0.01858
G1 X93.329 Y33.889 E4.45795
M73 P1 R36
M73 Q1 S36
G1 X93.558 Y33.037 E0.02767
G1 X94.085 Y32.325 E0.02778
G1 X94.833 Y31.857 E0.02767
G1 X95.645 Y31.704 E0.02590
; printing object trim.stl id:0 copy 0
;WIPE_START
G1 F8640.000
G1 X96.648 Y31.891 E-0.23558
G1 X98.691 Y32.883 E-0.52442
;WIPE_END
G1 E-0.04000 F2100.000
G1 Z0.600 F10800.000
G1 X96.410 Y35.291
G1 Z0.200
G1 E0.80000 F2100.000
;TYPE:Perimeter
G1 F1200.000
G1 X99.140 Y36.617 E0.09517
G1 X101.140 Y55.437 E0.59342
G1 X104.004 Y60.689 E0.18758
G1 X104.643 Y66.703 E0.18961
G1 X105.663 Y66.594 E0.03215
G1 X105.470 Y73.856 E0.22777
G1 X103.229 Y75.079 E0.08004
G1 X100.436 Y74.392 E0.09019
G1 X96.935 Y72.067 E0.13176
G1 X96.105 Y72.513 E0.02953
G1 X96.105 Y84.149 E0.36484
G1 X97.717 Y85.219 E0.06064
G1 X97.717 Y93.350 E0.25495
G1 X105.381 Y94.537 E0.24316
G1 X106.749 Y98.829 E0.14127
G1 X107.799 Y101.919 E0.10230
G1 X108.879 Y104.935 E0.10045
G1 X109.990 Y107.878 E0.09864
G1 X111.132 Y110.746 E0.09678
G1 X111.716 Y112.155 E0.04782
G1 X112.907 Y114.908 E0.09405
G1 X114.132 Y117.584 E0.09227
G1 X115.391 Y120.179 E0.09045
G1 X116.686 Y122.689 E0.08856
G1 X117.350 Y123.916 E0.04375
G1 X118.700 Y126.297 E0.08583
G1 X120.091 Y128.590 E0.08409
G1 X121.521 Y130.792 E0.08231
G1 X122.993 Y132.899 E0.08058
G1 X124.506 Y134.910 E0.07891
G1 X126.063 Y136.822 E0.07732
G1 X127.660 Y138.633 E0.07572
G1 X128.478 Y139.505 E0.03747
G1 X129.305 Y140.349 E0.03705
G1 X130.142 Y141.168 E0.03673
G1 X130.990 Y141.963 E0.03643
G1 X131.849 Y142.732 E0.03615
G1 X132.718 Y143.477 E0.03589
G1 X133.598 Y144.197 E0.03564
G1 X134.491 Y144.894 E0.03552
G1 X136.298 Y146.212 E0.07013
G1 X138.148 Y147.436 E0.06955
G1 X140.034 Y148.565 E0.06892
G1 X140.998 Y149.100 E0.03456
G1 X142.939 Y150.093 E0.06838
G1 X144.919 Y151.000 E0.06829
G1 X146.935 Y151.821 E0.06823
G1 X148.985 Y152.556 E0.06829
G1 X151.068 Y153.208 E0.06846
G1 X153.185 Y153.778 E0.06874
G1 X154.823 Y154.150 E0.05267
G1 X156.360 Y161.835 E0.24575
G1 X160.809 Y161.835 E0.13948
G1 X162.435 Y175.143 E0.42034
G1 X87.515 Y175.143 E2.34907
G1 X96.406 Y35.351 E4.39193
;WIPE_START
M73 P2 R35
M73 Q2 S36
G1 F8640.000
G1 X99.140 Y36.617 E-0.69571
G1 X99.169 Y36.894 E-0.06429
;WIPE_END
G1 E-0.04000 F2100.000
G1 Z0.600 F10800.000
G1 X104.978 Y66.288
G1 Z0.200
G1 E0.80000 F2100.000
;TYPE:External perimeter
G1 F1200.000
G1 X106.051 Y66.174 E0.03383
G1 X105.842 Y74.083 E0.24808
G1 X103.282 Y75.480 E0.09144
G1 X100.283 Y74.742 E0.09684
G1 X96.915 Y72.506 E0.12674
G1 X96.482 Y72.738 E0.01538
G1 X96.482 Y83.947 E0.35143
G1 X98.094 Y85.016 E0.06064
G1 X98.094 Y93.027 E0.25116
G1 X105.669 Y94.200 E0.24035
G1 X107.107 Y98.711 E0.14847
G1 X108.155 Y101.794 E0.10210
G1 X109.233 Y104.805 E0.10026
G1 X110.341 Y107.742 E0.09843
M73 Q2 S35
G1 X111.481 Y110.604 E0.09659
G1 X112.063 Y112.007 E0.04765
G1 X113.251 Y114.754 E0.09384
G1 X114.473 Y117.423 E0.09202
G1 X115.729 Y120.010 E0.09017
G1 X117.020 Y122.513 E0.08830
G1 X117.680 Y123.734 E0.04351
G1 X119.026 Y126.106 E0.08553
G1 X120.410 Y128.390 E0.08373
G1 X121.834 Y130.581 E0.08193
G1 X123.298 Y132.678 E0.08018
G1 X124.803 Y134.677 E0.07848
G1 X126.350 Y136.579 E0.07686
G1 X127.939 Y138.380 E0.07530
G1 X128.750 Y139.244 E0.03717
G1 X129.571 Y140.082 E0.03680
G1 X130.403 Y140.896 E0.03648
G1 X131.245 Y141.684 E0.03617
G1 X132.098 Y142.448 E0.03589
G1 X132.960 Y143.187 E0.03563
G1 X133.834 Y143.902 E0.03538
G1 X134.718 Y144.593 E0.03519
G1 X136.513 Y145.902 E0.06966
G1 X138.349 Y147.117 E0.06902
G1 X140.222 Y148.238 E0.06845
G1 X141.175 Y148.767 E0.03417
G1 X143.103 Y149.754 E0.06793
G1 X145.069 Y150.654 E0.06778
G1 X147.070 Y151.469 E0.06773
G1 X149.105 Y152.199 E0.06779
G1 X151.174 Y152.846 E0.06797
G1 X153.276 Y153.411 E0.06826
G1 X155.145 Y153.836 E0.06010
G1 X156.670 Y161.458 E0.24372
G1 X161.143 Y161.458 E0.14026
G1 X162.861 Y175.520 E0.44416
G1 X87.113 Y175.520 E2.37502
G1 X96.069 Y34.706 E4.42403
M73 P3 R35
M73 Q3 S35
G1 X99.493 Y36.369 E0.11934
G1 X101.507 Y55.323 E0.59762
G1 X104.371 Y60.575 E0.18758
G1 X104.972 Y66.228 E0.17826
G1 X105.047 Y66.682 F10800.000
;WIPE_START
G1 F8640.000
G1 X106.051 Y66.174 E-0.24954
G1 X105.993 Y68.384 E-0.51046
;WIPE_END
G1 E-0.04000 F2100.000
G1 Z0.600 F10800.000
G1 X97.532 Y35.962
G1 Z0.200
G1 E0.80000 F2100.000
;TYPE:Solid infill
;WIDTH:0.421237
G1 F1200.000
G1 X98.935 Y37.365 E0.06242
G1 X98.999 Y37.963 E0.01894
G1 X96.858 Y35.823 E0.09521
G1 X96.665 Y35.729 E0.00675
G1 X96.639 Y36.139 E0.01291
G1 X99.062 Y38.562 E0.10779
G1 X99.126 Y39.161 E0.01894
G1 X96.607 Y36.642 E0.11205
G1 X96.575 Y37.145 E0.01586
G1 X99.189 Y39.759 E0.11630
G1 X99.253 Y40.358 E0.01894
G1 X96.543 Y37.648 E0.12055
G1 X96.511 Y38.151 E0.01586
G1 X99.317 Y40.956 E0.12481
G1 X99.380 Y41.555 E0.01894
G1 X96.479 Y38.654 E0.12906
G1 X96.447 Y39.157 E0.01586
G1 X99.444 Y42.154 E0.13331
G1 X99.507 Y42.752 E0.01894
G1 X96.415 Y39.660 E0.13756
G1 X96.383 Y40.163 E0.01586
G1 X99.571 Y43.351 E0.14182
G1 X99.635 Y43.950 E0.01894
G1 X96.351 Y40.666 E0.14607
G1 X96.319 Y41.169 E0.01586
G1 X99.698 Y44.548 E0.15032
G1 X99.762 Y45.147 E0.01894
G1 X96.287 Y41.672 E0.15458
G1 X96.255 Y42.175 E0.01586
G1 X99.825 Y45.745 E0.15883
G1 X99.889 Y46.344 E0.01894
G1 X96.223 Y42.678 E0.16308
G1 X96.191 Y43.181 E0.01586
G1 X99.953 Y46.943 E0.16734
G1 X100.016 Y47.541 E0.01894
G1 X96.159 Y43.684 E0.17159
G1 X96.127 Y44.187 E0.01586
G1 X100.080 Y48.140 E0.17584
G1 X100.143 Y48.739 E0.01894
G1 X96.095 Y44.690 E0.18009
G1 X96.063 Y45.193 E0.01586
G1 X100.207 Y49.337 E0.18435
G1 X100.271 Y49.936 E0.01894
G1 X96.031 Y45.696 E0.18860
G1 X95.999 Y46.199 E0.01586
G1 X100.334 Y50.534 E0.19285
G1 X100.398 Y51.133 E0.01894
G1 X95.967 Y46.702 E0.19711
G1 X95.935 Y47.205 E0.01586
G1 X100.462 Y51.732 E0.20136
G1 X100.525 Y52.330 E0.01894
G1 X95.903 Y47.708 E0.20561
G1 X95.871 Y48.212 E0.01586
G1 X100.589 Y52.929 E0.20986
G1 X100.652 Y53.528 E0.01894
G1 X95.839 Y48.715 E0.21412
G1 X95.807 Y49.218 E0.01586
G1 X100.716 Y54.126 E0.21837
G1 X100.780 Y54.725 E0.01894
G1 X95.775 Y49.721 E0.22262
G1 X95.743 Y50.224 E0.01586
G1 X100.843 Y55.323 E0.22688
G1 X100.864 Y55.523 E0.00632
G1 X101.292 Y56.307 E0.02810
G1 X95.711 Y50.727 E0.24827
G1 X95.679 Y51.230 E0.01586
G1 X101.934 Y57.484 E0.27826
G1 X102.576 Y58.661 E0.04218
G1 X95.647 Y51.733 E0.30824
G1 X95.615 Y52.236 E0.01586
G1 X103.218 Y59.839 E0.33823
G1 X103.729 Y60.775 E0.03357
G1 X103.742 Y60.898 E0.00387
G1 X95.583 Y52.739 E0.36296
G1 X95.551 Y53.242 E0.01586
G1 X103.806 Y61.496 E0.36721
G1 X103.869 Y62.095 E0.01894
G1 X95.519 Y53.745 E0.37147
G1 X95.487 Y54.248 E0.01586
G1 X103.933 Y62.693 E0.37572
G1 X103.997 Y63.292 E0.01894
G1 X95.455 Y54.751 E0.37997
G1 X95.423 Y55.254 E0.01586
G1 X104.060 Y63.891 E0.38422
G1 X104.124 Y64.489 E0.01894
G1 X95.391 Y55.757 E0.38848
G1 X95.359 Y56.260 E0.01586
G1 X104.187 Y65.088 E0.39273
G1 X104.251 Y65.687 E0.01894
G1 X95.327 Y56.763 E0.39698
G1 X95.295 Y57.266 E0.01586
G1 X104.505 Y66.476 E0.40973
G1 X104.827 Y66.797 F10800.000
G1 F1200.000
G1 X105.361 Y67.331 E0.02376
G1 X105.347 Y67.852 E0.01640
G1 X95.263 Y57.769 E0.44858
M73 P4 R35
M73 Q4 S35
G1 X95.231 Y58.272 E0.01586
G1 X105.333 Y68.374 E0.44939
G1 X105.319 Y68.895 E0.01640
G1 X95.199 Y58.775 E0.45020
G1 X95.167 Y59.278 E0.01586
G1 X105.305 Y69.416 E0.45101
G1 X105.292 Y69.937 E0.01640
G1 X95.135 Y59.781 E0.45182
G1 X95.103 Y60.284 E0.01586
G1 X105.278 Y70.458 E0.45262
G1 X105.264 Y70.980 E0.01640
G1 X95.071 Y60.787 E0.45343
G1 X95.039 Y61.290 E0.01586
G1 X105.250 Y71.501 E0.45424
G1 X105.236 Y72.022 E0.01640
G1 X95.007 Y61.793 E0.45505
G1 X94.975 Y62.296 E0.01586
G1 X105.222 Y72.543 E0.45586
G1 X105.209 Y73.064 E0.01640
G1 X94.943 Y62.799 E0.45666
G1 X94.911 Y63.302 E0.01586
G1 X105.195 Y73.586 E0.45747
G1 X105.192 Y73.686 E0.00316
G1 X104.913 Y73.838 E0.01002
G1 X94.880 Y63.805 E0.44634
G1 X94.848 Y64.308 E0.01586
G1 X104.566 Y74.027 E0.43237
G1 X104.220 Y74.216 E0.01240
G1 X94.816 Y64.811 E0.41839
G1 X94.784 Y65.314 E0.01586
G1 X103.874 Y74.405 E0.40441
G1 X103.528 Y74.594 E0.01240
G1 X94.752 Y65.817 E0.39043
G1 X94.720 Y66.320 E0.01586
G1 X103.172 Y74.773 E0.37605
G1 X102.463 Y74.599 E0.02299
G1 X94.688 Y66.824 E0.34590
G1 X94.656 Y67.327 E0.01586
G1 X101.753 Y74.424 E0.31576
G1 X101.044 Y74.250 E0.02299
G1 X94.624 Y67.830 E0.28561
G1 X94.592 Y68.333 E0.01586
G1 X100.064 Y73.805 E0.24344
G1 X98.472 Y72.748 E0.06009
G1 X94.560 Y68.836 E0.17406
G1 X94.528 Y69.339 E0.01586
G1 X96.935 Y71.746 E0.10712
G1 X96.587 Y71.933 E0.01243
G1 X94.496 Y69.842 E0.09305
G1 X94.464 Y70.345 E0.01586
G1 X96.239 Y72.120 E0.07898
G1 X95.891 Y72.307 E0.01243
G1 X94.432 Y70.848 E0.06491
G1 X94.400 Y71.351 E0.01586
G1 X95.822 Y72.774 E0.06330
M73 P4 R34
G1 X95.822 Y73.309 E0.01683
G1 X94.368 Y71.854 E0.06472
G1 X94.336 Y72.357 E0.01586
G1 X95.822 Y73.844 E0.06615
G1 X95.822 Y74.379 E0.01683
G1 X94.304 Y72.860 E0.06757
G1 X94.272 Y73.363 E0.01586
G1 X95.822 Y74.914 E0.06899
G1 X95.822 Y75.449 E0.01683
G1 X94.240 Y73.866 E0.07042
G1 X94.208 Y74.369 E0.01586
G1 X95.822 Y75.984 E0.07184
G1 X95.822 Y76.519 E0.01683
G1 X94.176 Y74.872 E0.07326
G1 X94.144 Y75.375 E0.01586
G1 X95.822 Y77.054 E0.07469
G1 X95.822 Y77.589 E0.01683
G1 X94.112 Y75.878 E0.07611
G1 X94.080 Y76.381 E0.01586
G1 X95.822 Y78.124 E0.07753
G1 X95.822 Y78.659 E0.01683
G1 X94.048 Y76.884 E0.07896
G1 X94.016 Y77.387 E0.01586
G1 X95.822 Y79.194 E0.08038
G1 X95.822 Y79.729 E0.01683
G1 X93.984 Y77.890 E0.08180
G1 X93.952 Y78.393 E0.01586
G1 X95.822 Y80.264 E0.08323
G1 X95.822 Y80.799 E0.01683
G1 X93.920 Y78.896 E0.08465
G1 X93.888 Y79.399 E0.01586
G1 X95.822 Y81.334 E0.08607
G1 X95.822 Y81.869 E0.01683
G1 X93.856 Y79.902 E0.08750
G1 X93.824 Y80.405 E0.01586
G1 X95.822 Y82.404 E0.08892
G1 X95.822 Y82.939 E0.01683
G1 X93.792 Y80.908 E0.09034
G1 X93.760 Y81.411 E0.01586
G1 X95.992 Y83.644 E0.09932
;WIPE_START
G1 F8640.000
G1 X93.760 Y81.411 E-0.72900
G1 X93.768 Y81.277 E-0.03100
;WIPE_END
G1 E-0.04000 F2100.000
G1 Z0.600 F10800.000
G1 X97.604 Y85.790
G1 Z0.200
G1 E0.80000 F2100.000
G1 F1200.000
G1 X96.689 Y84.876 E0.04067
G1 X95.822 Y84.301 E0.03273
G1 X95.822 Y84.009 E0.00917
G1 X93.728 Y81.914 E0.09319
G1 X93.696 Y82.417 E0.01586
G1 X97.434 Y86.156 E0.16630
G1 X97.434 Y86.691 E0.01683
G1 X93.664 Y82.920 E0.16773
G1 X93.632 Y83.423 E0.01586
G1 X97.434 Y87.226 E0.16915
G1 X97.434 Y87.761 E0.01683
G1 X93.600 Y83.926 E0.17057
G1 X93.568 Y84.429 E0.01586
G1 X97.434 Y88.296 E0.17200
M73 P5 R34
G1 X97.434 Y88.831 E0.01683
G1 X93.536 Y84.932 E0.17342
M73 Q5 S35
G1 X93.504 Y85.436 E0.01586
G1 X97.434 Y89.366 E0.17484
G1 X97.434 Y89.901 E0.01683
G1 X93.472 Y85.939 E0.17627
G1 X93.440 Y86.442 E0.01586
G1 X97.434 Y90.436 E0.17769
G1 X97.434 Y90.971 E0.01683
G1 X93.408 Y86.945 E0.17911
G1 X93.376 Y87.448 E0.01586
G1 X97.434 Y91.506 E0.18054
G1 X97.434 Y92.041 E0.01683
G1 X93.344 Y87.951 E0.18196
M73 Q5 S34
G1 X93.312 Y88.454 E0.01586
G1 X97.604 Y92.745 E0.19093
;WIPE_START
G1 F8640.000
G1 X95.276 Y90.418 E-0.76000
;WIPE_END
G1 E-0.04000 F2100.000
G1 Z0.600 F10800.000
G1 X104.764 Y94.555
G1 Z0.200
G1 E0.80000 F2100.000
G1 F1200.000
G1 X105.242 Y95.034 E0.02129
G1 X105.493 Y95.819 E0.02593
G1 X104.334 Y94.661 E0.05155
G1 X103.701 Y94.563 E0.02015
G1 X105.743 Y96.605 E0.09085
G1 X105.993 Y97.390 E0.02593
G1 X103.068 Y94.465 E0.13014
G1 X102.435 Y94.367 E0.02015
G1 X106.243 Y98.175 E0.16944
G1 X106.495 Y98.962 E0.02598
G1 X101.802 Y94.269 E0.20879
G1 X101.169 Y94.171 E0.02015
G1 X106.771 Y99.772 E0.24921
G1 X107.046 Y100.583 E0.02693
G1 X100.536 Y94.072 E0.28963
G1 X99.903 Y93.974 E0.02015
G1 X107.321 Y101.393 E0.33004
G1 X107.602 Y102.209 E0.02714
G1 X99.270 Y93.876 E0.37070
G1 X98.637 Y93.778 E0.02015
G1 X107.901 Y103.043 E0.41214
G1 X108.199 Y103.876 E0.02785
G1 X98.003 Y93.680 E0.45358
G1 X97.434 Y93.592 E0.01813
G1 X97.434 Y93.111 E0.01514
G1 X93.280 Y88.957 E0.18480
G1 X93.248 Y89.460 E0.01586
G1 X108.498 Y104.710 E0.67842
G1 X108.812 Y105.559 E0.02849
G1 X93.216 Y89.963 E0.69383
G1 X93.184 Y90.466 E0.01586
G1 X109.136 Y106.418 E0.70968
G1 X109.461 Y107.278 E0.02890
G1 X93.152 Y90.969 E0.72554
G1 X93.120 Y91.472 E0.01586
G1 X109.791 Y108.143 E0.74163
G1 X110.145 Y109.032 E0.03010
G1 X93.088 Y91.975 E0.75881
G1 X93.056 Y92.478 E0.01586
G1 X110.499 Y109.921 E0.77598
G1 X110.853 Y110.810 E0.03010
G1 X93.024 Y92.981 E0.79316
G1 X92.992 Y93.484 E0.01586
G1 X111.231 Y111.723 E0.81140
G1 X111.622 Y112.649 E0.03161
G1 X92.960 Y93.987 E0.83021
G1 X92.928 Y94.490 E0.01586
G1 X112.029 Y113.592 E0.84977
M73 P6 R34
M73 Q6 S34
G1 X112.437 Y114.534 E0.03231
G1 X92.896 Y94.993 E0.86933
G1 X92.864 Y95.496 E0.01586
G1 X112.866 Y115.498 E0.88984
G1 X113.318 Y116.485 E0.03414
G1 X92.832 Y95.999 E0.91136
G1 X92.800 Y96.502 E0.01586
G1 X113.769 Y117.472 E0.93288
G1 X114.262 Y118.499 E0.03583
G1 X92.768 Y97.005 E0.95620
G1 X92.736 Y97.508 E0.01586
G1 X114.766 Y119.539 E0.98007
G1 X115.288 Y120.596 E0.03708
G1 X92.704 Y98.011 E1.00471
G1 X92.672 Y98.514 E0.01586
G1 X115.858 Y121.700 E1.03149
G1 X116.428 Y122.805 E0.03911
G1 X92.640 Y99.017 E1.05827
G1 X92.608 Y99.520 E0.01586
G1 X117.057 Y123.969 E1.08765
G1 X117.753 Y125.200 E0.04449
G1 X92.576 Y100.023 E1.12005
G1 X92.544 Y100.526 E0.01586
G1 X118.454 Y126.437 E1.15267
G1 X119.278 Y127.795 E0.04998
G1 X92.512 Y101.029 E1.19074
M73 P7 R34
M73 Q7 S34
G1 X92.480 Y101.532 E0.01586
G1 X120.153 Y129.206 E1.23111
G1 X121.146 Y130.733 E0.05731
G1 X92.448 Y102.035 E1.27669
G1 X92.416 Y102.538 E0.01586
G1 X122.350 Y132.472 E1.33167
G1 X122.764 Y133.065 E0.02274
G1 X123.848 Y134.505 E0.05671
G1 X92.224 Y102.882 E1.40685
;WIPE_START
G1 F8640.000
G1 X94.551 Y105.209 E-0.76000
;WIPE_END
G1 E-0.04000 F2100.000
G1 Z0.600 F10800.000
G1 X154.157 Y154.114
G1 Z0.200
G1 E0.80000 F2100.000
G1 F1200.000
G1 X154.621 Y154.578 E0.02061
G1 X154.754 Y155.246 E0.02145
