; generated by PrusaSlicer 2.3.0+win64 on 2022-06-22 at 18:08:39 UTC

; 

; external perimeters extrusion width = 0.60mm
; perimeters extrusion width = 0.50mm
; infill extrusion width = 0.50mm
; solid infill extrusion width = 0.50mm
; top infill extrusion width = 0.45mm
; first layer extrusion width = 0.42mm

M73 P0 R46
M73 Q0 S47
M201 X1000 Y1000 Z200 E5000 ; sets maximum accelerations, mm/sec^2
M203 X200 Y200 Z12 E120 ; sets maximum feedrates, mm/sec
M204 P1250 R1250 T1250 ; sets acceleration (P, T) and retract acceleration (R), mm/sec^2
M205 X8.00 Y8.00 Z0.40 E4.50 ; sets the jerk limits, mm/sec
M205 S0 T0 ; sets the minimum extruding and travel feed rate, mm/sec
M107
;TYPE:Custom
M862.3 P "MK3" ; printer model check
M862.1 P0.4 ; nozzle diameter check
M115 U3.9.2 ; tell printer latest fw version
G90 ; use absolute coordinates
M83 ; extruder relative mode
M104 S215 ; set extruder temp
M140 S60 ; set bed temp
M190 S60 ; wait for bed temp
M109 S215 ; wait for extruder temp
G28 W ; home all without mesh bed level
G80 ; mesh bed leveling
G1 Y-3.0 F1000.0 ; go outside print area
G92 E0.0
G1 X60.0 E9.0 F1000.0 ; intro line
G1 X100.0 E12.5 F1000.0 ; intro line
G92 E0.0
M221 S95

; Don't change E values below. Excessive value can damage the printer.

M907 E538 ; set extruder motor current
G21 ; set units to millimeters
G90 ; use absolute coordinates
M83 ; use relative distances for extrusion
M900 K0.05 ; Filament gcode LA 1.5
M900 K30 ; Filament gcode LA 1.0
;LAYER_CHANGE
;Z:0.2
;HEIGHT:0.2
;BEFORE_LAYER_CHANGE
G92 E0.0
;0.2


M73 Q0 S46
G1 E-0.80000 F2100.000
G1 Z0.400 F10800.000
;AFTER_LAYER_CHANGE
;0.2
G1 X90.082 Y24.622
G1 Z0.200
G1 E0.80000 F2100.000
M204 S1000
;TYPE:Skirt
;WIDTH:0.42
G1 F1200.000
G1 X90.609 Y23.909 E0.02778
G1 X91.360 Y23.440 E0.02778
G1 X92.227 Y23.278 E0.02767
G1 X92.711 Y23.329 E0.01526
G1 X93.178 Y23.479 E0.01538
G1 X97.996 Y25.818 E0.16790
G1 X98.574 Y26.242 E0.02249
G1 X98.998 Y26.815 E0.02237
G1 X167.989 Y166.688 E4.89007
G1 X168.195 Y167.394 E0.02308
G1 X170.246 Y184.239 E0.53205
G1 X170.174 Y184.934 E0.02190
G1 X169.906 Y185.574 E0.02178
G1 X169.461 Y186.112 E0.02190
G1 X168.882 Y186.496 E0.02178
G1 X168.393 Y186.664 E0.01621
G1 X167.875 Y186.722 E0.01633
G1 X82.099 Y186.722 E2.68947
G1 X81.442 Y186.621 E0.02083
G1 X80.842 Y186.344 E0.02071
G1 X80.342 Y185.912 E0.02071
G1 X79.978 Y185.356 E0.02083
G1 X79.795 Y184.793 E0.01858
G1 X79.757 Y184.198 E0.01870
G1 X89.852 Y25.474 E4.98673
M73 P1 R46
M73 Q1 S46
G1 X90.066 Y24.680 E0.02578
; printing object trim.stl id:0 copy 0
;WIPE_START
G1 F8640.000
G1 X90.609 Y23.909 E-0.21756
G1 X91.360 Y23.440 E-0.20460
G1 X92.227 Y23.278 E-0.20374
G1 X92.711 Y23.329 E-0.11238
G1 X92.801 Y23.358 E-0.02172
;WIPE_END
G1 E-0.04000 F2100.000
G1 Z0.600 F10800.000
G1 X92.933 Y26.875
G1 Z0.200
G1 E0.80000 F2100.000
;TYPE:Perimeter
G1 F1200.000
G1 X96.159 Y28.442 E0.11244
G1 X98.400 Y49.529 E0.66487
G1 X101.604 Y55.404 E0.20984
G1 X102.311 Y62.056 E0.20976
G1 X103.465 Y61.934 E0.03639
G1 X103.245 Y70.217 E0.25982
G1 X100.659 Y71.628 E0.09236
G1 X97.484 Y70.847 E0.10253
G1 X93.600 Y68.269 E0.14615
G1 X92.770 Y68.714 E0.02953
G1 X92.770 Y81.625 E0.40481
G1 X94.573 Y82.821 E0.06784
G1 X94.573 Y91.888 E0.28426
G1 X103.123 Y93.211 E0.27127
G1 X104.098 Y96.311 E0.10189
G1 X104.673 Y98.070 E0.05802
G1 X105.846 Y101.522 E0.11432
G1 X107.054 Y104.895 E0.11232
G1 X108.296 Y108.186 E0.11029
G1 X109.573 Y111.392 E0.10821
G1 X110.226 Y112.967 E0.05346
G1 X111.557 Y116.045 E0.10516
G1 X112.927 Y119.037 E0.10316
G1 X114.335 Y121.938 E0.10111
G1 X115.782 Y124.744 E0.09900
G1 X116.524 Y126.116 E0.04888
G1 X118.033 Y128.777 E0.09593
G1 X119.587 Y131.340 E0.09397
G1 X121.186 Y133.800 E0.09199
G1 X122.829 Y136.152 E0.08996
G1 X123.670 Y137.291 E0.04440
G1 X124.521 Y138.401 E0.04386
G1 X125.384 Y139.483 E0.04341
G1 X126.260 Y140.537 E0.04297
G1 X127.147 Y141.564 E0.04255
G1 X128.047 Y142.563 E0.04214
G1 X128.958 Y143.534 E0.04175
G1 X129.881 Y144.477 E0.04138
G1 X130.817 Y145.392 E0.04103
G1 X131.764 Y146.279 E0.04069
G1 X132.723 Y147.138 E0.04038
G1 X133.694 Y147.970 E0.04008
G1 X134.676 Y148.774 E0.03981
G1 X135.670 Y149.551 E0.03955
G1 X136.676 Y150.301 E0.03932
G1 X137.692 Y151.024 E0.03911
G1 X138.719 Y151.721 E0.03892
G1 X139.758 Y152.391 E0.03875
G1 X140.807 Y153.036 E0.03860
G1 X141.867 Y153.655 E0.03848
G1 X142.937 Y154.248 E0.03837
G1 X144.017 Y154.816 E0.03828
G1 X145.108 Y155.359 E0.03821
G1 X146.209 Y155.878 E0.03815
G1 X147.320 Y156.372 E0.03812
G1 X148.440 Y156.842 E0.03810
G1 X149.571 Y157.289 E0.03810
G1 X150.711 Y157.711 E0.03812
G1 X151.863 Y158.111 E0.03825
G1 X154.187 Y158.838 E0.07636
G1 X156.552 Y159.474 E0.07677
G1 X158.441 Y159.903 E0.06075
G1 X160.158 Y168.485 E0.27441
G1 X165.140 Y168.485 E0.15622
G1 X166.982 Y183.558 E0.47611
G1 X82.968 Y183.558 E2.63420
G1 X92.930 Y26.935 E4.92072
;WIPE_START
G1 F8640.000
G1 X95.912 Y28.327 E-0.76000
;WIPE_END
G1 E-0.04000 F2100.000
G1 Z0.600 F10800.000
G1 X102.646 Y61.642
G1 Z0.200
G1 E0.80000 F2100.000
;TYPE:External perimeter
G1 F1200.000
G1 X103.853 Y61.513 E0.03806
G1 X103.617 Y70.445 E0.28013
G1 X100.711 Y72.029 E0.10376
G1 X97.330 Y71.197 E0.10918
G1 X93.580 Y68.708 E0.14113
G1 X93.148 Y68.940 E0.01538
G1 X93.148 Y81.423 E0.39139
G1 X94.950 Y82.619 E0.06784
G1 X94.950 Y91.564 E0.28047
G1 X103.412 Y92.875 E0.26849
M73 P1 R45
G1 X104.457 Y96.196 E0.10917
G1 X105.030 Y97.951 E0.05788
G1 X106.202 Y101.398 E0.11416
G1 X107.408 Y104.765 E0.11212
M73 P2 R45
M73 Q2 S46
G1 X108.647 Y108.049 E0.11008
G1 X109.922 Y111.250 E0.10802
G1 X110.573 Y112.820 E0.05328
G1 X111.902 Y115.892 E0.10495
G1 X113.268 Y118.876 E0.10290
G1 X114.672 Y121.769 E0.10083
G1 X116.116 Y124.568 E0.09874
G1 X116.854 Y125.933 E0.04865
G1 X118.359 Y128.586 E0.09564
G1 X119.907 Y131.139 E0.09362
G1 X121.499 Y133.589 E0.09160
G1 X123.135 Y135.932 E0.08961
G1 X123.971 Y137.064 E0.04413
G1 X124.818 Y138.168 E0.04364
G1 X125.677 Y139.245 E0.04318
G1 X126.548 Y140.294 E0.04274
G1 X127.430 Y141.315 E0.04231
G1 X128.324 Y142.308 E0.04190
G1 X129.230 Y143.273 E0.04151
G1 X130.148 Y144.210 E0.04113
G1 X131.078 Y145.120 E0.04077
G1 X132.019 Y146.001 E0.04043
G1 X132.972 Y146.855 E0.04012
G1 X133.936 Y147.681 E0.03982
G1 X134.912 Y148.480 E0.03954
G1 X135.899 Y149.252 E0.03929
G1 X136.898 Y149.996 E0.03906
G1 X137.907 Y150.715 E0.03885
G1 X138.928 Y151.406 E0.03866
G1 X139.959 Y152.072 E0.03849
G1 X141.001 Y152.712 E0.03834
G1 X142.053 Y153.327 E0.03821
G1 X143.116 Y153.916 E0.03810
G1 X144.189 Y154.480 E0.03802
G1 X145.273 Y155.020 E0.03795
G1 X146.366 Y155.535 E0.03790
G1 X147.469 Y156.026 E0.03786
G1 X148.582 Y156.493 E0.03785
G1 X149.705 Y156.936 E0.03785
G1 X150.838 Y157.356 E0.03787
G1 X151.981 Y157.753 E0.03794
G1 X154.293 Y158.476 E0.07594
G1 X156.643 Y159.108 E0.07630
G1 X158.763 Y159.590 E0.06818
G1 X160.467 Y168.108 E0.27238
G1 X165.474 Y168.108 E0.15700
G1 X167.408 Y183.935 E0.49993
G1 X82.566 Y183.935 E2.66015
G1 X92.593 Y26.291 E4.95281
M73 Q2 S45
G1 X96.512 Y28.194 E0.13662
G1 X98.767 Y49.414 E0.66907
G1 X101.971 Y55.289 E0.20984
G1 X102.640 Y61.582 E0.19841
G1 X102.715 Y62.036 F10800.000
;WIPE_START
G1 F8640.000
G1 X103.853 Y61.513 E-0.28066
G1 X103.798 Y63.588 E-0.47934
;WIPE_END
G1 E-0.04000 F2100.000
G1 Z0.600 F10800.000
G1 X164.219 Y168.598
G1 Z0.200
G1 E0.80000 F2100.000
;TYPE:Solid infill
;WIDTH:0.421159
G1 F1200.000
G1 X164.960 Y169.338 E0.03292
G1 X165.034 Y169.948 E0.01931
G1 X163.854 Y168.768 E0.05248
G1 X163.319 Y168.768 E0.01682
G1 X165.109 Y170.557 E0.07958
G1 X165.183 Y171.166 E0.01931
G1 X162.784 Y168.768 E0.10668
G1 X162.249 Y168.768 E0.01682
G1 X165.257 Y171.776 E0.13379
G1 X165.332 Y172.385 E0.01931
G1 X161.715 Y168.768 E0.16089
G1 X161.180 Y168.768 E0.01682
G1 X165.406 Y172.995 E0.18799
G1 X165.481 Y173.604 E0.01931
G1 X160.475 Y168.598 E0.22264
;WIPE_START
G1 F8640.000
G1 X162.802 Y170.926 E-0.76000
;WIPE_END
G1 E-0.04000 F2100.000
G1 Z0.600 F10800.000
G1 X158.491 Y160.731
G1 Z0.200
G1 E0.80000 F2100.000
G1 F1200.000
G1 X157.811 Y160.050 E0.03027
G1 X157.119 Y159.893 E0.02232
G1 X158.409 Y161.183 E0.05738
G1 X158.543 Y161.852 E0.02145
G1 X156.423 Y159.732 E0.09426
G1 X155.692 Y159.536 E0.02383
G1 X158.676 Y162.520 E0.13275
G1 X158.810 Y163.189 E0.02145
G1 X154.960 Y159.339 E0.17124
G1 X154.229 Y159.142 E0.02383
G1 X158.944 Y163.857 E0.20972
G1 X159.078 Y164.526 E0.02145
G1 X153.458 Y158.906 E0.24995
G1 X152.679 Y158.663 E0.02565
G1 X159.211 Y165.195 E0.29053
G1 X159.345 Y165.863 E0.02145
G1 X151.901 Y158.419 E0.33110
G1 X151.088 Y158.142 E0.02701
G1 X159.479 Y166.532 E0.37319
G1 X159.612 Y167.201 E0.02145
G1 X150.256 Y157.844 E0.41616
G1 X149.404 Y157.527 E0.02861
G1 X159.962 Y168.086 E0.46964
;WIPE_START
M73 P3 R45
M73 Q3 S45
G1 F8640.000
G1 X157.635 Y165.758 E-0.76000
;WIPE_END
G1 E-0.04000 F2100.000
G1 Z0.600 F10800.000
G1 X165.750 Y174.408
G1 Z0.200
G1 E0.80000 F2100.000
G1 F1200.000
G1 X148.520 Y157.178 E0.76637
G1 X147.606 Y156.799 E0.03110
G1 X165.630 Y174.823 E0.80165
G1 X165.704 Y175.432 E0.01931
G1 X146.661 Y156.388 E0.84702
G1 X145.677 Y155.940 E0.03399
G1 X165.779 Y176.041 E0.89406
G1 X165.853 Y176.651 E0.01931
G1 X144.649 Y155.446 E0.94313
G1 X143.565 Y154.898 E0.03820
G1 X165.927 Y177.260 E0.99463
G1 X166.002 Y177.869 E0.01931
G1 X142.414 Y154.281 E1.04916
G1 X141.177 Y153.579 E0.04472
G1 X166.076 Y178.479 E1.10748
G1 X166.151 Y179.088 E0.01931
G1 X139.831 Y152.768 E1.17066
G1 X138.319 Y151.791 E0.05662
G1 X166.225 Y179.697 E1.24123
G1 X166.300 Y180.307 E0.01931
G1 X135.729 Y149.736 E1.35973
;WIPE_START
G1 F8640.000
G1 X138.056 Y152.063 E-0.76000
;WIPE_END
G1 E-0.04000 F2100.000
G1 Z0.600 F10800.000
G1 X103.371 Y94.377
G1 Z0.200
G1 E0.80000 F2100.000
G1 F1200.000
G1 X102.376 Y93.382 E0.04425
G1 X101.743 Y93.284 E0.02014
G1 X103.357 Y94.898 E0.07178
G1 X103.602 Y95.678 E0.02573
G1 X101.110 Y93.186 E0.11084
G1 X100.477 Y93.088 E0.02014
G1 X103.849 Y96.459 E0.14996
G1 X104.109 Y97.254 E0.02629
G1 X99.844 Y92.990 E0.18966
G1 X99.211 Y92.892 E0.02014
G1 X104.368 Y98.049 E0.22937
G1 X104.641 Y98.857 E0.02683
G1 X98.578 Y92.794 E0.26967
G1 X97.946 Y92.696 E0.02014
G1 X104.917 Y99.667 E0.31007
G1 X105.192 Y100.478 E0.02692
G1 X97.313 Y92.598 E0.35047
G1 X96.680 Y92.500 E0.02014
G1 X105.468 Y101.288 E0.39087
G1 X105.757 Y102.112 E0.02746
G1 X96.047 Y92.402 E0.43188
G1 X95.414 Y92.304 E0.02014
G1 X106.336 Y103.226 E0.48579
;WIPE_START
G1 F8640.000
G1 X104.008 Y100.898 E-0.76000
;WIPE_END
G1 E-0.04000 F2100.000
G1 Z0.600 F10800.000
G1 X103.330 Y62.776
G1 Z0.200
G1 E0.80000 F2100.000
G1 F1200.000
G1 X102.684 Y62.130 E0.02871
;WIPE_START
G1 F8640.000
G1 X103.330 Y62.776 E-0.21075
;WIPE_END
G1 E-0.58925 F2100.000
G1 Z0.600 F10800.000
G1 X94.551 Y27.787
G1 Z0.200
G1 E0.80000 F2100.000
G1 F1200.000
G1 X95.954 Y29.190 E0.06239
G1 X96.018 Y29.788 E0.01893
G1 X93.878 Y27.649 E0.09517
G1 X93.189 Y27.314 E0.02410
G1 X93.178 Y27.483 E0.00534
G1 X96.081 Y30.387 E0.12914
G1 X96.145 Y30.985 E0.01893
G1 X93.146 Y27.986 E0.13339
M73 Q4 S45
G1 X93.114 Y28.489 E0.01585
G1 X96.209 Y31.584 E0.13764
G1 X96.272 Y32.182 E0.01893
M73 P4 R45
G1 X93.082 Y28.992 E0.14189
G1 X93.050 Y29.495 E0.01585
G1 X96.336 Y32.781 E0.14614
G1 X96.399 Y33.379 E0.01893
G1 X93.018 Y29.998 E0.15039
G1 X92.986 Y30.501 E0.01585
G1 X96.463 Y33.978 E0.15464
G1 X96.527 Y34.576 E0.01893
G1 X92.954 Y31.004 E0.15890
G1 X92.922 Y31.507 E0.01585
G1 X96.590 Y35.175 E0.16315
G1 X96.654 Y35.773 E0.01893
G1 X92.890 Y32.010 E0.16740
G1 X92.858 Y32.513 E0.01585
G1 X96.717 Y36.372 E0.17165
G1 X96.781 Y36.970 E0.01893
G1 X92.826 Y33.016 E0.17590
G1 X92.794 Y33.519 E0.01585
G1 X96.845 Y37.569 E0.18015
G1 X96.908 Y38.167 E0.01893
G1 X92.762 Y34.021 E0.18440
G1 X92.730 Y34.524 E0.01585
G1 X96.972 Y38.766 E0.18865
G1 X97.035 Y39.364 E0.01893
M73 P4 R44
G1 X92.698 Y35.027 E0.19290
G1 X92.666 Y35.530 E0.01585
G1 X97.099 Y39.963 E0.19716
G1 X97.162 Y40.561 E0.01893
G1 X92.634 Y36.033 E0.20141
G1 X92.602 Y36.536 E0.01585
G1 X97.226 Y41.160 E0.20566
G1 X97.290 Y41.758 E0.01893
G1 X92.570 Y37.039 E0.20991
G1 X92.538 Y37.542 E0.01585
G1 X97.353 Y42.357 E0.21416
G1 X97.417 Y42.955 E0.01893
G1 X92.506 Y38.045 E0.21841
G1 X92.474 Y38.548 E0.01585
G1 X97.480 Y43.554 E0.22266
G1 X97.544 Y44.152 E0.01893
G1 X92.442 Y39.051 E0.22691
G1 X92.410 Y39.554 E0.01585
G1 X97.608 Y44.751 E0.23117
G1 X97.671 Y45.349 E0.01893
G1 X92.378 Y40.057 E0.23542
G1 X92.346 Y40.559 E0.01585
G1 X97.735 Y45.948 E0.23967
G1 X97.798 Y46.546 E0.01893
G1 X92.314 Y41.062 E0.24392
G1 X92.282 Y41.565 E0.01585
G1 X97.862 Y47.145 E0.24817
G1 X97.926 Y47.743 E0.01893
G1 X92.250 Y42.068 E0.25242
G1 X92.218 Y42.571 E0.01585
G1 X97.989 Y48.342 E0.25667
G1 X98.053 Y48.940 E0.01893
G1 X92.186 Y43.074 E0.26092
G1 X92.154 Y43.577 E0.01585
G1 X98.116 Y49.539 E0.26517
G1 X98.124 Y49.615 E0.00239
G1 X98.685 Y50.643 E0.03683
G1 X92.122 Y44.080 E0.29190
G1 X92.090 Y44.583 E0.01585
G1 X99.327 Y51.819 E0.32187
G1 X99.969 Y52.996 E0.04216
G1 X92.058 Y45.086 E0.35184
G1 X92.026 Y45.589 E0.01585
G1 X100.611 Y54.173 E0.38182
G1 X101.253 Y55.350 E0.04216
G1 X91.994 Y46.092 E0.41179
M73 Q4 S44
G1 X91.962 Y46.595 E0.01585
G1 X101.385 Y56.017 E0.41910
G1 X101.449 Y56.616 E0.01893
G1 X91.931 Y47.097 E0.42335
G1 X91.899 Y47.600 E0.01585
G1 X101.512 Y57.214 E0.42760
G1 X101.576 Y57.813 E0.01893
G1 X91.867 Y48.103 E0.43185
G1 X91.835 Y48.606 E0.01585
G1 X101.639 Y58.411 E0.43610
G1 X101.703 Y59.010 E0.01893
G1 X91.803 Y49.109 E0.44035
G1 X91.771 Y49.612 E0.01585
G1 X101.767 Y59.608 E0.44460
G1 X101.830 Y60.207 E0.01893
G1 X91.739 Y50.115 E0.44886
G1 X91.707 Y50.618 E0.01585
G1 X101.894 Y60.805 E0.45311
G1 X101.957 Y61.404 E0.01893
G1 X91.675 Y51.121 E0.45736
G1 X91.643 Y51.624 E0.01585
G1 X103.150 Y63.132 E0.51184
G1 X103.137 Y63.653 E0.01639
G1 X91.611 Y52.127 E0.51265
G1 X91.579 Y52.630 E0.01585
G1 X103.123 Y64.174 E0.51346
G1 X103.109 Y64.695 E0.01639
G1 X91.547 Y53.133 E0.51427
G1 X91.515 Y53.635 E0.01585
G1 X103.095 Y65.216 E0.51508
G1 X103.081 Y65.737 E0.01639
G1 X91.483 Y54.138 E0.51588
G1 X91.451 Y54.641 E0.01585
G1 X103.067 Y66.258 E0.51669
G1 X103.054 Y66.779 E0.01639
G1 X91.419 Y55.144 E0.51750
M73 P5 R44
M73 Q5 S44
G1 X91.387 Y55.647 E0.01585
G1 X103.040 Y67.300 E0.51831
G1 X103.026 Y67.821 E0.01639
G1 X91.355 Y56.150 E0.51911
G1 X91.323 Y56.653 E0.01585
G1 X103.012 Y68.342 E0.51992
G1 X102.998 Y68.864 E0.01639
G1 X91.291 Y57.156 E0.52073
G1 X91.259 Y57.659 E0.01585
G1 X102.985 Y69.385 E0.52154
G1 X102.971 Y69.906 E0.01639
G1 X91.227 Y58.162 E0.52235
G1 X91.195 Y58.665 E0.01585
G1 X102.715 Y70.185 E0.51239
G1 X102.369 Y70.374 E0.01240
G1 X91.163 Y59.168 E0.49842
G1 X91.131 Y59.671 E0.01585
G1 X102.023 Y70.562 E0.48444
G1 X101.676 Y70.751 E0.01240
G1 X91.099 Y60.173 E0.47047
G1 X91.067 Y60.676 E0.01585
G1 X101.330 Y70.940 E0.45650
G1 X100.984 Y71.129 E0.01240
G1 X91.035 Y61.179 E0.44253
G1 X91.003 Y61.682 E0.01585
G1 X100.638 Y71.317 E0.42856
G1 X100.620 Y71.327 E0.00064
G1 X99.947 Y71.162 E0.02180
G1 X90.971 Y62.185 E0.39925
G1 X90.939 Y62.688 E0.01585
G1 X99.238 Y70.987 E0.36912
G1 X98.528 Y70.813 E0.02298
G1 X90.907 Y63.191 E0.33899
G1 X90.875 Y63.694 E0.01585
G1 X97.819 Y70.638 E0.30886
G1 X97.599 Y70.584 E0.00711
G1 X96.501 Y69.855 E0.04147
G1 X90.843 Y64.197 E0.25165
G1 X90.811 Y64.700 E0.01585
G1 X94.910 Y68.799 E0.18230
G1 X93.616 Y67.940 E0.04884
G1 X93.551 Y67.975 E0.00232
G1 X90.779 Y65.203 E0.12329
G1 X90.747 Y65.706 E0.01585
G1 X93.203 Y68.161 E0.10923
G1 X92.855 Y68.348 E0.01243
G1 X90.715 Y66.209 E0.09516
G1 X90.683 Y66.711 E0.01585
G1 X92.506 Y68.535 E0.08110
G1 X92.488 Y68.545 E0.00067
G1 X92.488 Y69.051 E0.01592
G1 X90.651 Y67.214 E0.08169
G1 X90.619 Y67.717 E0.01585
G1 X92.488 Y69.586 E0.08311
G1 X92.488 Y70.121 E0.01682
G1 X90.587 Y68.220 E0.08454
G1 X90.555 Y68.723 E0.01585
G1 X92.488 Y70.656 E0.08596
G1 X92.488 Y71.191 E0.01682
G1 X90.523 Y69.226 E0.08738
G1 X90.491 Y69.729 E0.01585
G1 X92.488 Y71.726 E0.08880
G1 X92.488 Y72.261 E0.01682
G1 X90.459 Y70.232 E0.09023
G1 X90.427 Y70.735 E0.01585
G1 X92.488 Y72.795 E0.09165
G1 X92.488 Y73.330 E0.01682
G1 X90.395 Y71.238 E0.09307
G1 X90.363 Y71.741 E0.01585
