; generated by PrusaSlicer 2.3.0+win64 on 2022-06-20 at 15:57:34 UTC

; 

; external perimeters extrusion width = 0.60mm
; perimeters extrusion width = 0.50mm
; infill extrusion width = 0.50mm
; solid infill extrusion width = 0.50mm
; top infill extrusion width = 0.45mm
; first layer extrusion width = 0.42mm

M73 P0 R98
M73 Q0 S99
M201 X1000 Y1000 Z200 E5000 ; sets maximum accelerations, mm/sec^2
M203 X200 Y200 Z12 E120 ; sets maximum feedrates, mm/sec
M204 P1250 R1250 T1250 ; sets acceleration (P, T) and retract acceleration (R), mm/sec^2
M205 X8.00 Y8.00 Z0.40 E4.50 ; sets the jerk limits, mm/sec
M205 S0 T0 ; sets the minimum extruding and travel feed rate, mm/sec
M107
;TYPE:Custom
M862.3 P "MK3" ; printer model check
M862.1 P0.4 ; nozzle diameter check
M115 U3.9.2 ; tell printer latest fw version
G90 ; use absolute coordinates
M83 ; extruder relative mode
M104 S215 ; set extruder temp
M140 S60 ; set bed temp
M190 S60 ; wait for bed temp
M109 S215 ; wait for extruder temp
G28 W ; home all without mesh bed level
G80 ; mesh bed leveling
G1 Y-3.0 F1000.0 ; go outside print area
G92 E0.0
G1 X60.0 E9.0 F1000.0 ; intro line
G1 X100.0 E12.5 F1000.0 ; intro line
G92 E0.0
M221 S95

; Don't change E values below. Excessive value can damage the printer.

M907 E538 ; set extruder motor current
G21 ; set units to millimeters
G90 ; use absolute coordinates
M83 ; use relative distances for extrusion
M900 K0.05 ; Filament gcode LA 1.5
M900 K30 ; Filament gcode LA 1.0
;LAYER_CHANGE
;Z:0.2
;HEIGHT:0.2
;BEFORE_LAYER_CHANGE
G92 E0.0
;0.2


G1 E-0.80000 F2100.000
G1 Z0.400 F10800.000
;AFTER_LAYER_CHANGE
;0.2
G1 X3.873 Y37.847
G1 Z0.200
G1 E0.80000 F2100.000
M204 S1000
;TYPE:Skirt
;WIDTH:0.42
G1 F1200.000
G1 X4.783 Y37.667 E0.02907
G1 X245.393 Y52.966 E7.55940
M73 Q0 S98
G1 X246.287 Y53.213 E0.02907
G1 X247.019 Y53.783 E0.02907
G1 X247.476 Y54.589 E0.02907
G1 X247.590 Y55.509 E0.02907
G1 X247.377 Y56.335 E0.02673
G1 X243.888 Y63.518 E0.25039
G1 X243.464 Y64.096 E0.02249
G1 X242.883 Y64.524 E0.02260
G1 X31.034 Y169.016 E7.40644
G1 X30.299 Y169.233 E0.02402
G1 X4.605 Y172.327 E0.81145
G1 X3.759 Y172.102 E0.02743
G1 X3.052 Y171.588 E0.02743
G1 X2.579 Y170.852 E0.02743
G1 X2.404 Y169.995 E0.02743
G1 X2.403 Y40.040 E4.07463
G1 X2.586 Y39.131 E0.02907
G1 X3.102 Y38.361 E0.02907
G1 X3.823 Y37.880 E0.02719
; printing object trim.stl id:0 copy 0
;WIPE_START
G1 F8640.000
G1 X4.783 Y37.667 E-0.22696
G1 X7.087 Y37.813 E-0.53304
;WIPE_END
G1 E-0.04000 F2100.000
G1 Z0.600 F10800.000
G1 X5.567 Y40.883
G1 Z0.200
G1 E0.80000 F2100.000
;TYPE:Perimeter
G1 F1200.000
G1 X243.999 Y56.048 E7.49097
M73 P0 R97
G1 X241.263 Y61.681 E0.19637
G1 X209.171 Y65.091 E1.01190
G1 X200.269 Y69.947 E0.31793
G1 X190.512 Y70.983 E0.30764
G1 X190.704 Y72.789 E0.05693
G1 X177.457 Y72.438 E0.41551
G1 X175.132 Y68.176 E0.15219
G1 X176.370 Y63.144 E0.16250
G1 X180.181 Y57.403 E0.21604
G1 X179.736 Y56.573 E0.02953
G1 X160.634 Y56.573 E0.59892
G1 X158.821 Y59.304 E0.10279
G1 X145.215 Y59.304 E0.42662
G1 X143.224 Y72.164 E0.40803
M73 P1 R97
M73 Q1 S98
G1 X138.289 Y73.716 E0.16220
G1 X135.628 Y74.586 E0.08777
G1 X130.403 Y76.362 E0.17303
G1 X125.299 Y78.189 E0.16997
G1 X120.320 Y80.069 E0.16688
G1 X115.468 Y82.001 E0.16375
G1 X113.088 Y82.988 E0.08078
G1 X110.742 Y83.988 E0.07996
G1 X108.430 Y85.003 E0.07918
G1 X106.150 Y86.031 E0.07840
G1 X103.905 Y87.074 E0.07762
G1 X101.694 Y88.131 E0.07684
G1 X99.518 Y89.204 E0.07606
G1 X97.378 Y90.291 E0.07528
G1 X95.273 Y91.393 E0.07449
G1 X93.205 Y92.511 E0.07371
G1 X91.174 Y93.645 E0.07293
G1 X89.180 Y94.794 E0.07216
G1 X87.224 Y95.960 E0.07139
G1 X85.307 Y97.142 E0.07062
G1 X83.429 Y98.341 E0.06986
G1 X81.591 Y99.557 E0.06911
G1 X79.793 Y100.790 E0.06836
G1 X78.035 Y102.041 E0.06763
G1 X76.318 Y103.308 E0.06691
G1 X74.643 Y104.594 E0.06621
G1 X73.009 Y105.897 E0.06553
G1 X71.417 Y107.218 E0.06486
G1 X69.868 Y108.557 E0.06421
G1 X68.361 Y109.914 E0.06359
G1 X66.896 Y111.290 E0.06300
G1 X65.473 Y112.683 E0.06243
G1 X64.093 Y114.094 E0.06189
G1 X62.755 Y115.522 E0.06138
G1 X61.459 Y116.969 E0.06090
G1 X60.205 Y118.433 E0.06045
G1 X58.992 Y119.915 E0.06003
G1 X57.820 Y121.413 E0.05965
G1 X56.690 Y122.929 E0.05929
G1 X55.599 Y124.462 E0.05897
G1 X54.549 Y126.011 E0.05869
G1 X53.538 Y127.576 E0.05843
G1 X52.566 Y129.158 E0.05821
G1 X51.633 Y130.756 E0.05801
G1 X50.739 Y132.370 E0.05785
G1 X49.882 Y133.999 E0.05772
G1 X49.063 Y135.644 E0.05761
G1 X48.281 Y137.304 E0.05753
G1 X47.536 Y138.979 E0.05748
G1 X46.827 Y140.668 E0.05746
G1 X46.154 Y142.373 E0.05746
G1 X45.516 Y144.092 E0.05749
G1 X44.915 Y145.826 E0.05754
G1 X44.348 Y147.574 E0.05762
G1 X43.816 Y149.336 E0.05772
G1 X43.319 Y151.113 E0.05784
G1 X42.857 Y152.904 E0.05799
G1 X42.429 Y154.708 E0.05816
G1 X42.147 Y156.016 E0.04193
G1 X29.216 Y158.602 E0.41347
G1 X29.216 Y166.178 E0.23753
G1 X5.567 Y169.067 E0.74700
G1 X5.567 Y40.943 E4.01724
;WIPE_START
M73 Q1 S97
G1 F8640.000
G1 X8.852 Y41.151 E-0.76000
;WIPE_END
G1 E-0.04000 F2100.000
G1 Z0.600 F10800.000
G1 X190.927 Y71.318
G1 Z0.200
G1 E0.80000 F2100.000
;TYPE:External perimeter
G1 F1200.000
G1 X191.124 Y73.177 E0.05861
G1 X177.230 Y72.809 E0.43582
G1 X174.731 Y68.228 E0.16359
G1 X176.020 Y62.990 E0.16915
G1 X179.742 Y57.382 E0.21103
G1 X179.510 Y56.950 E0.01538
G1 X160.837 Y56.950 E0.58550
G1 X159.024 Y59.681 E0.10279
G1 X145.538 Y59.681 E0.42283
G1 X143.560 Y72.454 E0.40525
G1 X138.404 Y74.075 E0.16948
G1 X135.747 Y74.944 E0.08764
G1 X130.527 Y76.718 E0.17287
G1 X125.429 Y78.543 E0.16978
G1 X120.456 Y80.420 E0.16667
G1 X115.610 Y82.350 E0.16355
G1 X113.234 Y83.336 E0.08063
G1 X110.892 Y84.334 E0.07984
G1 X108.583 Y85.347 E0.07906
G1 X106.307 Y86.374 E0.07828
G1 X104.066 Y87.415 E0.07749
G1 X101.859 Y88.471 E0.07671
G1 X99.687 Y89.541 E0.07592
G1 X97.550 Y90.626 E0.07513
G1 X95.450 Y91.726 E0.07434
G1 X93.386 Y92.842 E0.07356
G1 X91.360 Y93.973 E0.07277
G1 X89.371 Y95.120 E0.07199
G1 X87.420 Y96.283 E0.07121
G1 X85.508 Y97.462 E0.07044
G1 X83.635 Y98.658 E0.06967
G1 X81.802 Y99.870 E0.06891
G1 X80.009 Y101.099 E0.06816
G1 X78.256 Y102.346 E0.06743
G1 X76.545 Y103.610 E0.06670
G1 X74.875 Y104.891 E0.06599
G1 X73.247 Y106.190 E0.06530
G1 X71.661 Y107.506 E0.06463
G1 X70.117 Y108.840 E0.06398
G1 X68.616 Y110.192 E0.06335
G1 X67.157 Y111.562 E0.06275
G1 X65.740 Y112.949 E0.06218
G1 X64.365 Y114.354 E0.06163
G1 X63.033 Y115.777 E0.06112
G1 X61.743 Y117.217 E0.06063
G1 X60.494 Y118.675 E0.06018
G1 X59.286 Y120.150 E0.05976
G1 X58.120 Y121.642 E0.05938
G1 X56.994 Y123.151 E0.05903
G1 X55.909 Y124.677 E0.05871
G1 X54.863 Y126.219 E0.05842
G1 X53.857 Y127.777 E0.05817
G1 X52.890 Y129.352 E0.05794
G1 X51.961 Y130.943 E0.05775
G1 X51.071 Y132.549 E0.05759
G1 X50.218 Y134.171 E0.05746
G1 X49.402 Y135.808 E0.05735
G1 X48.624 Y137.461 E0.05728
G1 X47.882 Y139.128 E0.05723
G1 X47.176 Y140.811 E0.05721
G1 X46.506 Y142.508 E0.05721
G1 X45.871 Y144.220 E0.05724
G1 X45.272 Y145.946 E0.05730
G1 X44.708 Y147.687 E0.05737
G1 X44.178 Y149.442 E0.05748
G1 X43.684 Y151.211 E0.05760
G1 X43.223 Y152.994 E0.05775
G1 X42.797 Y154.792 E0.05792
G1 X42.463 Y156.337 E0.04956
G1 X29.593 Y158.911 E0.41153
G1 X29.593 Y166.511 E0.23831
G1 X5.190 Y169.493 E0.77082
G1 X5.190 Y40.481 E4.04507
G1 X244.584 Y55.707 E7.52119
G1 X241.511 Y62.034 E0.22054
G1 X209.285 Y65.458 E1.01610
M73 P1 R96
G1 X200.384 Y70.314 E0.31793
G1 X190.987 Y71.312 E0.29629
G1 X190.533 Y71.387 F10800.000
;WIPE_START
G1 F8640.000
G1 X191.124 Y73.177 E-0.43187
G1 X189.704 Y73.140 E-0.32813
;WIPE_END
G1 E-0.04000 F2100.000
G1 Z0.600 F10800.000
G1 X243.577 Y56.658
G1 Z0.200
G1 E0.80000 F2100.000
;TYPE:Solid infill
;WIDTH:0.420135
G1 F1200.000
G1 X243.200 Y56.280 E0.01673
G1 X242.631 Y56.244 E0.01790
G1 X243.276 Y56.890 E0.02863
G1 X243.102 Y57.249 E0.01252
G1 X242.061 Y56.208 E0.04617
G1 X241.491 Y56.172 E0.01790
G1 X242.927 Y57.608 E0.06370
G1 X242.753 Y57.967 E0.01252
G1 X240.922 Y56.135 E0.08123
G1 X240.352 Y56.099 E0.01790
G1 X242.578 Y58.326 E0.09877
G1 X242.404 Y58.685 E0.01252
G1 X239.782 Y56.063 E0.11630
G1 X239.212 Y56.027 E0.01790
G1 X242.230 Y59.044 E0.13384
G1 X242.055 Y59.403 E0.01252
G1 X238.643 Y55.991 E0.15137
G1 X238.073 Y55.954 E0.01791
G1 X241.881 Y59.762 E0.16891
G1 X241.706 Y60.121 E0.01252
G1 X237.503 Y55.918 E0.18644
G1 X236.934 Y55.882 E0.01790
G1 X241.532 Y60.480 E0.20398
G1 X241.358 Y60.839 E0.01252
G1 X236.364 Y55.846 E0.22151
G1 X235.794 Y55.809 E0.01791
G1 X241.183 Y61.198 E0.23904
G1 X241.077 Y61.417 E0.00761
G1 X240.888 Y61.437 E0.00596
G1 X235.225 Y55.773 E0.25122
G1 X234.655 Y55.737 E0.01790
G1 X240.406 Y61.488 E0.25510
G1 X239.924 Y61.539 E0.01521
G1 X234.085 Y55.701 E0.25898
G1 X233.515 Y55.664 E0.01790
G1 X239.441 Y61.590 E0.26286
G1 X238.959 Y61.642 E0.01521
G1 X232.946 Y55.628 E0.26674
M73 Q2 S97
G1 X232.376 Y55.592 E0.01790
G1 X238.477 Y61.693 E0.27062
M73 P2 R96
G1 X237.995 Y61.744 E0.01521
G1 X231.806 Y55.556 E0.27450
G1 X231.237 Y55.519 E0.01790
G1 X237.513 Y61.795 E0.27838
G1 X237.030 Y61.847 E0.01521
G1 X230.667 Y55.483 E0.28226
G1 X230.097 Y55.447 E0.01790
G1 X236.548 Y61.898 E0.28614
G1 X236.066 Y61.949 E0.01521
G1 X229.528 Y55.411 E0.29002
G1 X228.958 Y55.375 E0.01791
G1 X235.584 Y62.000 E0.29390
G1 X235.101 Y62.052 E0.01521
G1 X228.388 Y55.338 E0.29778
G1 X227.818 Y55.302 E0.01790
G1 X234.619 Y62.103 E0.30166
G1 X234.137 Y62.154 E0.01521
G1 X227.249 Y55.266 E0.30554
G1 X226.679 Y55.230 E0.01790
G1 X233.655 Y62.205 E0.30942
G1 X233.173 Y62.256 E0.01521
G1 X226.109 Y55.193 E0.31330
G1 X225.540 Y55.157 E0.01790
G1 X232.690 Y62.308 E0.31718
G1 X232.208 Y62.359 E0.01521
G1 X224.970 Y55.121 E0.32106
G1 X224.400 Y55.085 E0.01790
G1 X231.726 Y62.410 E0.32494
G1 X231.244 Y62.461 E0.01521
G1 X223.831 Y55.048 E0.32882
G1 X223.261 Y55.012 E0.01790
G1 X230.761 Y62.513 E0.33270
G1 X230.279 Y62.564 E0.01521
G1 X222.691 Y54.976 E0.33658
G1 X222.122 Y54.940 E0.01790
G1 X229.797 Y62.615 E0.34046
G1 X229.315 Y62.666 E0.01521
G1 X221.552 Y54.903 E0.34434
G1 X220.982 Y54.867 E0.01790
G1 X228.832 Y62.718 E0.34822
G1 X228.350 Y62.769 E0.01521
G1 X220.412 Y54.831 E0.35210
M73 Q2 S96
G1 X219.843 Y54.795 E0.01791
G1 X227.868 Y62.820 E0.35598
G1 X227.386 Y62.871 E0.01521
G1 X219.273 Y54.759 E0.35986
G1 X218.703 Y54.722 E0.01790
G1 X226.904 Y62.923 E0.36374
G1 X226.421 Y62.974 E0.01521
G1 X218.134 Y54.686 E0.36762
G1 X217.564 Y54.650 E0.01790
G1 X225.939 Y63.025 E0.37150
G1 X225.457 Y63.076 E0.01521
G1 X216.994 Y54.614 E0.37538
G1 X216.425 Y54.577 E0.01790
G1 X224.975 Y63.128 E0.37926
G1 X224.492 Y63.179 E0.01521
G1 X215.855 Y54.541 E0.38314
G1 X215.285 Y54.505 E0.01790
G1 X224.010 Y63.230 E0.38702
G1 X223.528 Y63.281 E0.01521
G1 X214.715 Y54.469 E0.39090
G1 X214.146 Y54.432 E0.01790
G1 X223.046 Y63.332 E0.39478
G1 X222.564 Y63.384 E0.01521
G1 X213.576 Y54.396 E0.39866
G1 X213.006 Y54.360 E0.01791
G1 X222.081 Y63.435 E0.40254
G1 X221.599 Y63.486 E0.01521
G1 X212.437 Y54.324 E0.40642
G1 X211.867 Y54.287 E0.01790
G1 X221.117 Y63.537 E0.41030
G1 X220.635 Y63.589 E0.01521
G1 X211.297 Y54.251 E0.41418
G1 X210.728 Y54.215 E0.01790
G1 X220.152 Y63.640 E0.41806
G1 X219.670 Y63.691 E0.01521
G1 X210.158 Y54.179 E0.42194
G1 X209.588 Y54.143 E0.01790
G1 X219.188 Y63.742 E0.42582
G1 X218.706 Y63.794 E0.01521
G1 X209.018 Y54.106 E0.42970
G1 X208.449 Y54.070 E0.01790
G1 X218.224 Y63.845 E0.43358
G1 X217.741 Y63.896 E0.01521
G1 X207.879 Y54.034 E0.43746
G1 X207.309 Y53.998 E0.01790
G1 X217.259 Y63.947 E0.44134
G1 X216.777 Y63.999 E0.01521
G1 X206.740 Y53.961 E0.44522
G1 X206.170 Y53.925 E0.01790
G1 X216.295 Y64.050 E0.44910
G1 X215.812 Y64.101 E0.01521
G1 X205.600 Y53.889 E0.45298
G1 X205.031 Y53.853 E0.01790
G1 X215.330 Y64.152 E0.45686
G1 X214.848 Y64.203 E0.01521
G1 X204.461 Y53.816 E0.46074
G1 X203.891 Y53.780 E0.01791
G1 X214.366 Y64.255 E0.46462
G1 X213.883 Y64.306 E0.01521
G1 X203.322 Y53.744 E0.46850
G1 X202.752 Y53.708 E0.01790
G1 X213.401 Y64.357 E0.47238
G1 X212.919 Y64.408 E0.01521
G1 X202.182 Y53.671 E0.47626
G1 X201.612 Y53.635 E0.01790
G1 X212.437 Y64.460 E0.48014
G1 X211.955 Y64.511 E0.01521
G1 X201.043 Y53.599 E0.48402
G1 X200.473 Y53.563 E0.01791
G1 X211.472 Y64.562 E0.48790
G1 X210.990 Y64.613 E0.01521
G1 X199.903 Y53.527 E0.49178
G1 X199.334 Y53.490 E0.01790
G1 X210.508 Y64.665 E0.49566
G1 X210.026 Y64.716 E0.01521
G1 X198.764 Y53.454 E0.49954
G1 X198.194 Y53.418 E0.01790
G1 X209.543 Y64.767 E0.50342
G1 X209.068 Y64.825 E0.01503
G1 X197.625 Y53.382 E0.50760
G1 X197.055 Y53.345 E0.01790
G1 X208.723 Y65.013 E0.51756
G1 X208.378 Y65.202 E0.01233
G1 X196.485 Y53.309 E0.52752
G1 X195.915 Y53.273 E0.01790
G1 X208.032 Y65.390 E0.53748
G1 X207.687 Y65.578 E0.01233
G1 X195.346 Y53.237 E0.54744
G1 X194.776 Y53.200 E0.01791
G1 X207.342 Y65.766 E0.55740
G1 X206.997 Y65.955 E0.01233
G1 X194.206 Y53.164 E0.56736
G1 X193.637 Y53.128 E0.01790
G1 X206.652 Y66.143 E0.57731
G1 X206.306 Y66.331 E0.01233
G1 X193.067 Y53.092 E0.58727
G1 X192.497 Y53.056 E0.01790
G1 X205.961 Y66.520 E0.59723
G1 X205.616 Y66.708 E0.01233
G1 X191.928 Y53.019 E0.60719
G1 X191.358 Y52.983 E0.01791
G1 X205.271 Y66.896 E0.61715
G1 X204.926 Y67.084 E0.01233
G1 X190.788 Y52.947 E0.62711
G1 X190.218 Y52.911 E0.01790
G1 X204.581 Y67.273 E0.63707
M73 P2 R95
G1 X204.235 Y67.461 E0.01233
G1 X189.649 Y52.874 E0.64703
G1 X189.079 Y52.838 E0.01790
G1 X203.890 Y67.649 E0.65699
G1 X203.545 Y67.838 E0.01233
G1 X188.509 Y52.802 E0.66695
G1 X187.940 Y52.766 E0.01790
G1 X203.200 Y68.026 E0.67690
G1 X202.855 Y68.214 E0.01233
G1 X187.370 Y52.729 E0.68686
G1 X186.800 Y52.693 E0.01790
G1 X202.509 Y68.402 E0.69682
M73 P3 R95
M73 Q3 S96
G1 X202.164 Y68.591 E0.01233
G1 X186.231 Y52.657 E0.70678
G1 X185.661 Y52.621 E0.01790
G1 X201.819 Y68.779 E0.71674
G1 X201.474 Y68.967 E0.01233
G1 X185.091 Y52.584 E0.72670
G1 X184.522 Y52.548 E0.01790
G1 X201.129 Y69.155 E0.73666
G1 X200.784 Y69.344 E0.01233
G1 X183.952 Y52.512 E0.74662
G1 X183.382 Y52.476 E0.01790
G1 X200.438 Y69.532 E0.75658
G1 X200.183 Y69.671 E0.00913
G1 X200.058 Y69.685 E0.00396
G1 X182.812 Y52.440 E0.76495
G1 X182.243 Y52.403 E0.01791
G1 X199.575 Y69.736 E0.76883
G1 X199.093 Y69.787 E0.01521
G1 X181.673 Y52.367 E0.77271
G1 X181.103 Y52.331 E0.01790
G1 X198.611 Y69.838 E0.77659
M73 Q3 S95
G1 X198.129 Y69.890 E0.01521
G1 X180.534 Y52.295 E0.78047
G1 X179.964 Y52.258 E0.01790
G1 X197.646 Y69.941 E0.78435
G1 X197.164 Y69.992 E0.01521
G1 X179.394 Y52.222 E0.78823
G1 X178.825 Y52.186 E0.01790
G1 X196.682 Y70.043 E0.79211
G1 X196.200 Y70.095 E0.01521
G1 X178.255 Y52.150 E0.79599
G1 X177.685 Y52.113 E0.01790
G1 X195.718 Y70.146 E0.79987
G1 X195.235 Y70.197 E0.01521
G1 X177.115 Y52.077 E0.80375
G1 X176.546 Y52.041 E0.01790
G1 X194.753 Y70.248 E0.80763
G1 X194.271 Y70.300 E0.01521
G1 X175.976 Y52.005 E0.81151
G1 X175.406 Y51.968 E0.01791
G1 X193.789 Y70.351 E0.81539
G1 X193.306 Y70.402 E0.01521
G1 X180.436 Y57.531 E0.57092
G1 X180.223 Y57.852 E0.01207
G1 X192.824 Y70.453 E0.55897
G1 X192.342 Y70.504 E0.01521
G1 X180.010 Y58.172 E0.54702
G1 X179.797 Y58.493 E0.01207
G1 X191.860 Y70.556 E0.53507
G1 X191.378 Y70.607 E0.01521
G1 X179.584 Y58.814 E0.52312
G1 X179.371 Y59.134 E0.01207
G1 X190.895 Y70.658 E0.51117
G1 X190.413 Y70.709 E0.01521
G1 X179.158 Y59.455 E0.49922
G1 X178.946 Y59.775 E0.01207
G1 X190.237 Y71.066 E0.50084
G1 X190.300 Y71.663 E0.01883
G1 X178.733 Y60.096 E0.51309
G1 X178.520 Y60.417 E0.01207
G1 X190.363 Y72.260 E0.52535
G1 X190.389 Y72.498 E0.00749
G1 X190.059 Y72.489 E0.01035
G1 X178.307 Y60.737 E0.52127
G1 X178.094 Y61.058 E0.01207
G1 X189.511 Y72.474 E0.50640
G1 X188.963 Y72.460 E0.01719
G1 X177.881 Y61.379 E0.49154
G1 X177.669 Y61.699 E0.01207
G1 X188.415 Y72.445 E0.47667
G1 X187.867 Y72.431 E0.01719
G1 X177.456 Y62.020 E0.46180
G1 X177.243 Y62.340 E0.01207
G1 X187.319 Y72.416 E0.44694
G1 X186.771 Y72.402 E0.01719
G1 X177.030 Y62.661 E0.43207
G1 X176.817 Y62.982 E0.01207
G1 X186.223 Y72.387 E0.41720
G1 X185.675 Y72.373 E0.01719
G1 X176.619 Y63.317 E0.40169
G1 X176.514 Y63.745 E0.01383
G1 X185.127 Y72.358 E0.38205
G1 X184.579 Y72.344 E0.01719
G1 X176.408 Y64.173 E0.36242
G1 X176.303 Y64.601 E0.01383
G1 X184.031 Y72.329 E0.34278
G1 X183.483 Y72.314 E0.01719
