; generated by PrusaSlicer 2.3.0+win64 on 2022-06-23 at 00:43:24 UTC

; 

; external perimeters extrusion width = 0.60mm
; perimeters extrusion width = 0.50mm
; infill extrusion width = 0.50mm
; solid infill extrusion width = 0.50mm
; top infill extrusion width = 0.45mm
; first layer extrusion width = 0.42mm

M73 P0 R31
M73 Q0 S31
M201 X1000 Y1000 Z200 E5000 ; sets maximum accelerations, mm/sec^2
M203 X200 Y200 Z12 E120 ; sets maximum feedrates, mm/sec
M204 P1250 R1250 T1250 ; sets acceleration (P, T) and retract acceleration (R), mm/sec^2
M205 X8.00 Y8.00 Z0.40 E4.50 ; sets the jerk limits, mm/sec
M205 S0 T0 ; sets the minimum extruding and travel feed rate, mm/sec
M107
;TYPE:Custom
M862.3 P "MK3" ; printer model check
M862.1 P0.4 ; nozzle diameter check
M115 U3.9.2 ; tell printer latest fw version
G90 ; use absolute coordinates
M83 ; extruder relative mode
M104 S215 ; set extruder temp
M140 S60 ; set bed temp
M190 S60 ; wait for bed temp
M109 S215 ; wait for extruder temp
G28 W ; home all without mesh bed level
G80 ; mesh bed leveling
G1 Y-3.0 F1000.0 ; go outside print area
G92 E0.0
G1 X60.0 E9.0 F1000.0 ; intro line
G1 X100.0 E12.5 F1000.0 ; intro line
G92 E0.0
M221 S95

; Don't change E values below. Excessive value can damage the printer.

M907 E538 ; set extruder motor current
G21 ; set units to millimeters
G90 ; use absolute coordinates
M83 ; use relative distances for extrusion
M900 K0.05 ; Filament gcode LA 1.5
M900 K30 ; Filament gcode LA 1.0
;LAYER_CHANGE
;Z:0.2
;HEIGHT:0.2
;BEFORE_LAYER_CHANGE
G92 E0.0
;0.2


G1 E-0.80000 F2100.000
G1 Z0.400 F10800.000
;AFTER_LAYER_CHANGE
;0.2
G1 X164.790 Y36.369
G1 Z0.200
G1 E0.80000 F2100.000
M204 S1000
;TYPE:Skirt
;WIDTH:0.42
G1 F1200.000
G1 X165.557 Y36.877 E0.02884
G1 X166.072 Y37.634 E0.02872
G1 X166.263 Y38.530 E0.02872
G1 X166.263 Y171.436 E4.16716
G1 X166.182 Y172.046 E0.01929
G1 X165.946 Y172.618 E0.01941
G1 X165.573 Y173.107 E0.01929
G1 X165.086 Y173.484 E0.01929
G1 X164.519 Y173.723 E0.01929
G1 X163.910 Y173.809 E0.01929
G1 X86.103 Y173.809 E2.43959
M73 P0 R30
G1 X85.493 Y173.727 E0.01929
G1 X84.928 Y173.492 E0.01917
G1 X84.410 Y173.089 E0.02060
G1 X84.021 Y172.559 E0.02060
G1 X83.793 Y171.944 E0.02060
G1 X83.741 Y171.289 E0.02060
G1 X85.505 Y159.945 E0.35993
M73 P1 R30
M73 Q1 S31
G1 X85.788 Y159.154 E0.02637
G1 X155.132 Y41.524 E4.28136
M73 Q1 S30
G1 X155.439 Y41.136 E0.01550
G1 X155.823 Y40.819 E0.01562
G1 X162.649 Y36.538 E0.25264
G1 X163.248 Y36.278 E0.02048
G1 X163.892 Y36.191 E0.02036
G1 X164.731 Y36.358 E0.02684
; printing object updatedtrim.st.stl id:0 copy 0
;WIPE_START
G1 F8640.000
G1 X165.557 Y36.877 E-0.22526
G1 X166.072 Y37.634 E-0.21151
G1 X166.263 Y38.530 E-0.21151
G1 X166.263 Y39.014 E-0.11172
;WIPE_END
G1 E-0.04000 F2100.000
G1 Z0.600 F10800.000
G1 X163.099 Y39.990
G1 Z0.200
G1 E0.80000 F2100.000
;TYPE:Perimeter
G1 F1200.000
G1 X163.099 Y170.645 E4.09659
G1 X87.034 Y170.645 E2.38497
M73 Q2 S30
G1 X88.552 Y160.937 E0.30808
M73 P2 R30
G1 X95.258 Y158.749 E0.22119
G1 X98.545 Y151.508 E0.24931
G1 X100.756 Y150.638 E0.07451
G1 X103.226 Y149.600 E0.08400
G1 X105.650 Y148.513 E0.08327
G1 X108.027 Y147.378 E0.08259
G1 X110.356 Y146.193 E0.08195
G1 X112.637 Y144.957 E0.08135
G1 X114.868 Y143.671 E0.08073
G1 X115.968 Y143.005 E0.04033
G1 X118.122 Y141.638 E0.07999
G1 X120.225 Y140.215 E0.07962
G1 X122.273 Y138.736 E0.07918
G1 X123.280 Y137.972 E0.03966
G1 X125.244 Y136.406 E0.07876
G1 X127.152 Y134.778 E0.07864
G1 X128.999 Y133.090 E0.07845
G1 X129.905 Y132.219 E0.03941
G1 X131.663 Y130.439 E0.07844
G1 X133.361 Y128.594 E0.07861
G1 X134.998 Y126.687 E0.07880
G1 X136.575 Y124.719 E0.07907
G1 X138.091 Y122.690 E0.07942
G1 X139.549 Y120.602 E0.07984
G1 X140.947 Y118.458 E0.08026
G1 X141.628 Y117.361 E0.04051
G1 X142.943 Y115.133 E0.08111
G1 X144.204 Y112.849 E0.08181
G1 X145.413 Y110.512 E0.08248
G1 X146.569 Y108.126 E0.08314
G1 X147.131 Y106.910 E0.04199
G1 X148.212 Y104.449 E0.08429
G1 X149.246 Y101.938 E0.08515
G1 X150.233 Y99.379 E0.08599
G1 X151.172 Y96.774 E0.08681
G1 X151.625 Y95.451 E0.04386
G1 X152.316 Y93.327 E0.07002
G1 X157.644 Y93.327 E0.16708
G1 X157.644 Y83.034 E0.32273
G1 X147.893 Y83.034 E0.30576
G1 X147.688 Y82.018 E0.03251
G1 X147.556 Y81.229 E0.02506
G1 X147.356 Y79.669 E0.04931
G1 X147.291 Y78.921 E0.02355
G1 X147.228 Y77.440 E0.04649
G1 X147.233 Y76.730 E0.02227
G1 X147.262 Y76.029 E0.02197
G1 X147.316 Y75.344 E0.02154
G1 X147.395 Y74.675 E0.02114
G1 X147.500 Y74.021 E0.02077
G1 X147.631 Y73.382 E0.02044
G1 X147.789 Y72.759 E0.02015
G1 X147.973 Y72.152 E0.01991
G1 X148.185 Y71.559 E0.01973
G1 X148.423 Y70.980 E0.01962
G1 X148.688 Y70.416 E0.01956
G1 X148.980 Y69.864 E0.01957
G1 X149.298 Y69.325 E0.01963
G1 X149.643 Y68.798 E0.01974
G1 X150.013 Y68.283 E0.01989
G1 X150.409 Y67.779 E0.02009
G1 X150.829 Y67.286 E0.02031
G1 X151.743 Y66.333 E0.04141
G1 X152.232 Y65.875 E0.02100
G1 X153.289 Y64.981 E0.04342
G1 X154.711 Y63.926 E0.05552
G1 X157.862 Y43.274 E0.65501
G1 X163.048 Y40.022 E0.19194
;WIPE_START
G1 F8640.000
G1 X163.049 Y43.314 E-0.76000
;WIPE_END
G1 E-0.04000 F2100.000
G1 Z0.600 F10800.000
G1 X157.267 Y92.950
G1 Z0.200
G1 E0.80000 F2100.000
;TYPE:External perimeter
G1 F1200.000
G1 X157.267 Y83.411 E0.29909
G1 X147.584 Y83.411 E0.30362
G1 X147.317 Y82.086 E0.04238
G1 X147.183 Y81.284 E0.02548
G1 X146.981 Y79.710 E0.04978
G1 X146.915 Y78.945 E0.02405
G1 X146.851 Y77.446 E0.04704
G1 X146.856 Y76.721 E0.02276
G1 X146.885 Y76.007 E0.02239
G1 X146.940 Y75.308 E0.02200
G1 X147.021 Y74.623 E0.02162
G1 X147.129 Y73.953 E0.02127
G1 X147.263 Y73.298 E0.02096
G1 X147.425 Y72.658 E0.02069
G1 X147.615 Y72.034 E0.02047
G1 X147.832 Y71.424 E0.02030
G1 X148.078 Y70.828 E0.02019
G1 X148.351 Y70.247 E0.02013
G1 X148.651 Y69.680 E0.02013
G1 X148.978 Y69.126 E0.02017
G1 X149.332 Y68.585 E0.02027
G1 X149.712 Y68.057 E0.02040
G1 X150.117 Y67.540 E0.02058
G1 X150.547 Y67.036 E0.02078
G1 X151.002 Y66.543 E0.02102
G1 X151.480 Y66.062 E0.02128
G1 X151.981 Y65.593 E0.02151
G1 X153.055 Y64.685 E0.04410
G1 X154.362 Y63.716 E0.05103
G1 X157.515 Y43.047 E0.65556
G1 X163.476 Y39.309 E0.22061
G1 X163.476 Y171.022 E4.12978
M73 P3 R30
M73 Q3 S30
G1 X86.593 Y171.022 E2.41060
G1 X88.215 Y160.651 E0.32914
G1 X94.984 Y158.442 E0.22324
G1 X98.265 Y151.213 E0.24889
G1 X100.614 Y150.288 E0.07916
G1 X103.076 Y149.254 E0.08373
G1 X105.491 Y148.171 E0.08299
G1 X107.860 Y147.040 E0.08230
G1 X110.181 Y145.859 E0.08165
G1 X112.453 Y144.628 E0.08104
G1 X114.676 Y143.346 E0.08045
G1 X115.770 Y142.685 E0.04008
G1 X117.916 Y141.323 E0.07969
G1 X120.009 Y139.906 E0.07927
G1 X122.048 Y138.433 E0.07886
G1 X123.049 Y137.674 E0.03938
G1 X125.004 Y136.115 E0.07842
G1 X126.903 Y134.495 E0.07824
G1 X128.742 Y132.815 E0.07809
G1 X129.640 Y131.951 E0.03910
G1 X131.390 Y130.178 E0.07808
G1 X133.079 Y128.343 E0.07820
G1 X134.708 Y126.447 E0.07839
G1 X136.276 Y124.488 E0.07867
G1 X137.785 Y122.469 E0.07903
G1 X139.236 Y120.391 E0.07946
G1 X140.629 Y118.256 E0.07994
G1 X141.306 Y117.165 E0.04024
G1 X142.615 Y114.946 E0.08081
G1 X143.872 Y112.671 E0.08148
G1 X145.076 Y110.343 E0.08217
G1 X146.228 Y107.965 E0.08288
G1 X146.787 Y106.755 E0.04178
G1 X147.865 Y104.301 E0.08404
G1 X148.896 Y101.798 E0.08488
G1 X149.879 Y99.247 E0.08573
G1 X150.816 Y96.649 E0.08659
G1 X151.267 Y95.331 E0.04368
G1 X152.042 Y92.950 E0.07851
G1 X157.207 Y92.950 E0.16196
G1 X157.664 Y92.900 F10800.000
;WIPE_START
G1 F8640.000
G1 X157.228 Y89.659 E-0.76000
;WIPE_END
G1 E-0.04000 F2100.000
G1 Z0.600 F10800.000
G1 X162.986 Y40.943
G1 Z0.200
G1 E0.80000 F2100.000
;TYPE:Solid infill
;WIDTH:0.420747
G1 F1200.000
G1 X162.649 Y40.606 E0.01497
G1 X162.320 Y40.812 E0.01218
G1 X162.816 Y41.308 E0.02203
G1 X162.816 Y41.842 E0.01679
G1 X161.992 Y41.018 E0.03662
G1 X161.663 Y41.224 E0.01218
G1 X162.816 Y42.377 E0.05121
G1 X162.816 Y42.911 E0.01679
G1 X161.335 Y41.430 E0.06580
G1 X161.007 Y41.636 E0.01218
G1 X162.816 Y43.445 E0.08039
G1 X162.816 Y43.980 E0.01679
G1 X160.678 Y41.842 E0.09498
G1 X160.350 Y42.048 E0.01218
G1 X162.816 Y44.514 E0.10957
G1 X162.816 Y45.048 E0.01679
G1 X160.021 Y42.254 E0.12416
G1 X159.693 Y42.460 E0.01218
G1 X162.816 Y45.583 E0.13875
G1 X162.816 Y46.117 E0.01679
G1 X159.365 Y42.666 E0.15334
G1 X159.036 Y42.872 E0.01218
G1 X162.816 Y46.651 E0.16793
G1 X162.816 Y47.186 E0.01679
G1 X158.708 Y43.077 E0.18252
G1 X158.379 Y43.283 E0.01218
G1 X162.816 Y47.720 E0.19712
G1 X162.816 Y48.254 E0.01679
G1 X158.106 Y43.545 E0.20925
G1 X158.036 Y44.008 E0.01473
G1 X162.816 Y48.789 E0.21239
G1 X162.816 Y49.323 E0.01679
G1 X157.965 Y44.472 E0.21553
G1 X157.894 Y44.935 E0.01473
G1 X162.816 Y49.857 E0.21867
G1 X162.816 Y50.392 E0.01679
G1 X157.824 Y45.399 E0.22182
G1 X157.753 Y45.863 E0.01473
G1 X162.816 Y50.926 E0.22496
G1 X162.816 Y51.460 E0.01679
G1 X157.682 Y46.326 E0.22810
G1 X157.611 Y46.790 E0.01473
G1 X162.816 Y51.995 E0.23124
G1 X162.816 Y52.529 E0.01679
G1 X157.541 Y47.254 E0.23438
G1 X157.470 Y47.717 E0.01473
G1 X162.816 Y53.063 E0.23753
M73 Q4 S30
G1 X162.816 Y53.598 E0.01679
G1 X157.399 Y48.181 E0.24067
M73 P4 R30
G1 X157.328 Y48.644 E0.01473
G1 X162.816 Y54.132 E0.24381
G1 X162.816 Y54.666 E0.01679
G1 X157.258 Y49.108 E0.24695
G1 X157.187 Y49.572 E0.01473
G1 X162.816 Y55.201 E0.25009
G1 X162.816 Y55.735 E0.01679
G1 X157.116 Y50.035 E0.25324
G1 X157.046 Y50.499 E0.01473
G1 X162.816 Y56.269 E0.25638
M73 P4 R29
G1 X162.816 Y56.804 E0.01679
G1 X156.975 Y50.962 E0.25952
G1 X156.904 Y51.426 E0.01473
G1 X162.816 Y57.338 E0.26266
G1 X162.816 Y57.872 E0.01679
G1 X156.833 Y51.890 E0.26581
G1 X156.763 Y52.353 E0.01473
G1 X162.816 Y58.407 E0.26895
G1 X162.816 Y58.941 E0.01679
G1 X156.692 Y52.817 E0.27209
M73 Q4 S29
G1 X156.621 Y53.280 E0.01473
G1 X162.816 Y59.475 E0.27523
G1 X162.816 Y60.010 E0.01679
G1 X156.551 Y53.744 E0.27837
G1 X156.480 Y54.208 E0.01473
G1 X162.816 Y60.544 E0.28152
G1 X162.816 Y61.078 E0.01679
G1 X156.409 Y54.671 E0.28466
G1 X156.338 Y55.135 E0.01473
G1 X162.816 Y61.613 E0.28780
G1 X162.816 Y62.147 E0.01679
G1 X156.268 Y55.598 E0.29094
G1 X156.197 Y56.062 E0.01473
G1 X162.816 Y62.681 E0.29408
G1 X162.816 Y63.215 E0.01679
G1 X156.126 Y56.526 E0.29723
G1 X156.056 Y56.989 E0.01473
G1 X162.816 Y63.750 E0.30037
G1 X162.816 Y64.284 E0.01679
G1 X155.985 Y57.453 E0.30351
G1 X155.914 Y57.916 E0.01473
G1 X162.816 Y64.818 E0.30665
G1 X162.816 Y65.353 E0.01679
G1 X155.843 Y58.380 E0.30979
G1 X155.773 Y58.844 E0.01473
G1 X162.816 Y65.887 E0.31294
G1 X162.816 Y66.421 E0.01679
G1 X155.702 Y59.307 E0.31608
G1 X155.631 Y59.771 E0.01473
G1 X162.816 Y66.956 E0.31922
G1 X162.816 Y67.490 E0.01679
G1 X155.560 Y60.235 E0.32236
G1 X155.490 Y60.698 E0.01473
G1 X162.816 Y68.024 E0.32550
G1 X162.816 Y68.559 E0.01679
G1 X155.419 Y61.162 E0.32865
G1 X155.348 Y61.625 E0.01473
G1 X162.816 Y69.093 E0.33179
G1 X162.816 Y69.627 E0.01679
G1 X155.278 Y62.089 E0.33493
G1 X155.207 Y62.553 E0.01473
G1 X162.816 Y70.162 E0.33807
G1 X162.816 Y70.696 E0.01679
G1 X155.136 Y63.016 E0.34121
G1 X155.065 Y63.480 E0.01473
G1 X162.816 Y71.230 E0.34436
G1 X162.816 Y71.765 E0.01679
G1 X154.995 Y63.943 E0.34750
G1 X154.973 Y64.084 E0.00447
G1 X154.759 Y64.242 E0.00836
G1 X162.816 Y72.299 E0.35795
M73 Q5 S29
G1 X162.816 Y72.833 E0.01679
G1 X154.453 Y64.470 E0.37158
M73 P5 R29
G1 X154.146 Y64.698 E0.01200
G1 X162.816 Y73.368 E0.38521
G1 X162.816 Y73.902 E0.01679
G1 X153.839 Y64.925 E0.39884
G1 X153.532 Y65.153 E0.01200
G1 X162.816 Y74.436 E0.41247
G1 X162.816 Y74.971 E0.01679
G1 X153.239 Y65.394 E0.42550
G1 X152.950 Y65.638 E0.01191
G1 X162.816 Y75.505 E0.43837
G1 X162.816 Y76.039 E0.01679
G1 X152.660 Y65.883 E0.45123
G1 X152.373 Y66.130 E0.01190
G1 X162.816 Y76.574 E0.46399
G1 X162.816 Y77.108 E0.01679
G1 X152.097 Y66.389 E0.47625
G1 X151.827 Y66.654 E0.01187
G1 X162.816 Y77.642 E0.48823
G1 X162.816 Y78.177 E0.01679
G1 X151.566 Y66.926 E0.49984
G1 X151.304 Y67.199 E0.01187
G1 X162.816 Y78.711 E0.51146
G1 X162.816 Y79.245 E0.01679
G1 X151.043 Y67.472 E0.52308
G1 X150.797 Y67.760 E0.01191
G1 X162.816 Y79.780 E0.53401
G1 X162.816 Y80.314 E0.01679
G1 X150.554 Y68.052 E0.54479
G1 X150.319 Y68.351 E0.01196
G1 X162.816 Y80.848 E0.55523
G1 X162.816 Y81.383 E0.01679
G1 X150.092 Y68.658 E0.56533
G1 X149.869 Y68.970 E0.01203
G1 X162.816 Y81.917 E0.57524
G1 X162.816 Y82.451 E0.01679
G1 X149.657 Y69.293 E0.58463
G1 X149.452 Y69.621 E0.01218
G1 X162.816 Y82.986 E0.59377
G1 X162.816 Y83.520 E0.01679
G1 X149.253 Y69.957 E0.60258
G1 X149.067 Y70.305 E0.01240
G1 X162.816 Y84.054 E0.61088
G1 X162.816 Y84.589 E0.01679
G1 X148.886 Y70.659 E0.61889
M73 P6 R29
M73 Q6 S29
G1 X148.716 Y71.022 E0.01262
G1 X162.816 Y85.123 E0.62648
G1 X162.816 Y85.657 E0.01679
G1 X148.557 Y71.398 E0.63353
G1 X148.406 Y71.781 E0.01294
G1 X162.816 Y86.192 E0.64025
G1 X162.816 Y86.726 E0.01679
G1 X148.265 Y72.175 E0.64649
G1 X148.138 Y72.582 E0.01340
G1 X162.816 Y87.260 E0.65214
G1 X162.816 Y87.795 E0.01679
G1 X148.020 Y72.998 E0.65738
G1 X147.912 Y73.425 E0.01382
G1 X157.238 Y82.751 E0.41437
G1 X156.704 Y82.751 E0.01679
G1 X147.820 Y73.867 E0.39471
G1 X147.738 Y74.320 E0.01445
G1 X156.170 Y82.751 E0.37460
G1 X155.635 Y82.751 E0.01679
G1 X147.667 Y74.783 E0.35404
G1 X147.610 Y75.261 E0.01512
G1 X155.101 Y82.751 E0.33281
G1 X154.567 Y82.751 E0.01679
G1 X147.567 Y75.752 E0.31098
G1 X147.536 Y76.254 E0.01582
G1 X154.032 Y82.751 E0.28865
G1 X153.498 Y82.751 E0.01679
G1 X147.515 Y76.769 E0.26581
G1 X147.512 Y77.300 E0.01668
G1 X152.964 Y82.751 E0.24222
G1 X152.429 Y82.751 E0.01679
G1 X147.529 Y77.851 E0.21773
G1 X147.552 Y78.408 E0.01754
G1 X151.895 Y82.751 E0.19295
G1 X151.361 Y82.751 E0.01679
G1 X147.579 Y78.969 E0.16802
G1 X147.630 Y79.555 E0.01846
G1 X150.826 Y82.751 E0.14202
G1 X150.292 Y82.751 E0.01679
G1 X147.705 Y80.164 E0.11496
G1 X147.783 Y80.777 E0.01941
G1 X149.758 Y82.751 E0.08773
G1 X149.223 Y82.751 E0.01679
G1 X147.871 Y81.399 E0.06009
G1 X147.981 Y82.043 E0.02054
G1 X148.689 Y82.751 E0.03145
G1 X148.155 Y82.751 E0.01679
G1 X147.899 Y82.496 E0.01135
;WIPE_START
G1 F8640.000
G1 X148.155 Y82.751 E-0.08340
G1 X148.689 Y82.751 E-0.12338
G1 X147.981 Y82.043 E-0.23117
G1 X147.871 Y81.399 E-0.15097
G1 X148.395 Y81.923 E-0.17107
;WIPE_END
G1 E-0.04000 F2100.000
G1 Z0.600 F10800.000
G1 X157.758 Y83.270
G1 Z0.200
G1 E0.80000 F2100.000
G1 F1200.000
G1 X162.816 Y88.329 E0.22475
G1 X162.816 Y88.863 E0.01679
G1 X157.927 Y83.974 E0.21721
G1 X157.927 Y84.509 E0.01679
G1 X162.816 Y89.398 E0.21721
G1 X162.816 Y89.932 E0.01679
G1 X157.927 Y85.043 E0.21721
G1 X157.927 Y85.577 E0.01679
G1 X162.816 Y90.466 E0.21721
G1 X162.816 Y91.001 E0.01679
G1 X157.927 Y86.112 E0.21721
G1 X157.927 Y86.646 E0.01679
G1 X162.816 Y91.535 E0.21721
G1 X162.816 Y92.069 E0.01679
G1 X157.927 Y87.180 E0.21721
G1 X157.927 Y87.715 E0.01679
G1 X162.816 Y92.604 E0.21721
G1 X162.816 Y93.138 E0.01679
G1 X157.927 Y88.249 E0.21721
M73 Q7 S29
G1 X157.927 Y88.783 E0.01679
G1 X162.816 Y93.672 E0.21721
M73 P7 R29
G1 X162.816 Y94.207 E0.01679
G1 X157.927 Y89.318 E0.21721
G1 X157.927 Y89.852 E0.01679
G1 X162.816 Y94.741 E0.21721
G1 X162.816 Y95.275 E0.01679
G1 X157.927 Y90.386 E0.21721
G1 X157.927 Y90.921 E0.01679
G1 X162.816 Y95.810 E0.21721
G1 X162.816 Y96.344 E0.01679
G1 X157.927 Y91.455 E0.21721
G1 X157.927 Y91.989 E0.01679
G1 X162.816 Y96.878 E0.21721
G1 X162.816 Y97.412 E0.01679
G1 X157.927 Y92.524 E0.21721
G1 X157.927 Y93.058 E0.01679
G1 X162.816 Y97.947 E0.21721
G1 X162.816 Y98.481 E0.01679
G1 X157.927 Y93.592 E0.21721
G1 X157.927 Y93.610 E0.00055
G1 X157.410 Y93.610 E0.01624
G1 X162.816 Y99.015 E0.24017
G1 X162.816 Y99.550 E0.01679
G1 X156.876 Y93.610 E0.26391
G1 X156.342 Y93.610 E0.01679
G1 X162.816 Y100.084 E0.28765
G1 X162.816 Y100.618 E0.01679
G1 X155.807 Y93.610 E0.31139
G1 X155.273 Y93.610 E0.01679
G1 X162.816 Y101.153 E0.33513
G1 X162.816 Y101.687 E0.01679
G1 X154.739 Y93.610 E0.35887
G1 X154.204 Y93.610 E0.01679
G1 X162.816 Y102.221 E0.38261
M73 P7 R28
G1 X162.816 Y102.756 E0.01679
G1 X153.670 Y93.610 E0.40635
G1 X153.136 Y93.610 E0.01679
G1 X162.816 Y103.290 E0.43009
G1 X162.816 Y103.824 E0.01679
G1 X152.602 Y93.610 E0.45383
M73 Q7 S28
G1 X152.521 Y93.610 E0.00253
G1 X152.410 Y93.952 E0.01131
