; generated by PrusaSlicer 2.3.0+win64 on 2022-06-23 at 00:30:19 UTC

; 

; external perimeters extrusion width = 0.60mm
; perimeters extrusion width = 0.50mm
; infill extrusion width = 0.50mm
; solid infill extrusion width = 0.50mm
; top infill extrusion width = 0.45mm
; first layer extrusion width = 0.42mm

M73 P0 R28
M73 Q0 S28
M201 X1000 Y1000 Z200 E5000 ; sets maximum accelerations, mm/sec^2
M203 X200 Y200 Z12 E120 ; sets maximum feedrates, mm/sec
M204 P1250 R1250 T1250 ; sets acceleration (P, T) and retract acceleration (R), mm/sec^2
M205 X8.00 Y8.00 Z0.40 E4.50 ; sets the jerk limits, mm/sec
M205 S0 T0 ; sets the minimum extruding and travel feed rate, mm/sec
M107
;TYPE:Custom
M862.3 P "MK3" ; printer model check
M862.1 P0.4 ; nozzle diameter check
M115 U3.9.2 ; tell printer latest fw version
G90 ; use absolute coordinates
M83 ; extruder relative mode
M104 S215 ; set extruder temp
M140 S60 ; set bed temp
M190 S60 ; wait for bed temp
M109 S215 ; wait for extruder temp
G28 W ; home all without mesh bed level
G80 ; mesh bed leveling
G1 Y-3.0 F1000.0 ; go outside print area
G92 E0.0
G1 X60.0 E9.0 F1000.0 ; intro line
G1 X100.0 E12.5 F1000.0 ; intro line
G92 E0.0
M221 S95

; Don't change E values below. Excessive value can damage the printer.

M907 E538 ; set extruder motor current
G21 ; set units to millimeters
G90 ; use absolute coordinates
M83 ; use relative distances for extrusion
M900 K0.05 ; Filament gcode LA 1.5
M900 K30 ; Filament gcode LA 1.0
;LAYER_CHANGE
;Z:0.2
;HEIGHT:0.2
;BEFORE_LAYER_CHANGE
G92 E0.0
;0.2


M73 P0 R27
G1 E-0.80000 F2100.000
G1 Z0.400 F10800.000
;AFTER_LAYER_CHANGE
;0.2
G1 X163.077 Y39.303
G1 Z0.200
G1 E0.80000 F2100.000
M204 S1000
;TYPE:Skirt
;WIDTH:0.42
G1 F1200.000
G1 X163.841 Y39.809 E0.02872
G1 X164.356 Y40.567 E0.02872
G1 X164.546 Y41.463 E0.02872
G1 X164.547 Y168.508 E3.98341
M73 Q0 S27
G1 X164.465 Y169.118 E0.01929
G1 X164.230 Y169.686 E0.01929
G1 X163.856 Y170.175 E0.01929
G1 X163.370 Y170.552 E0.01929
G1 X162.803 Y170.791 E0.01929
G1 X162.197 Y170.877 E0.01917
G1 X87.819 Y170.877 E2.33208
M73 P1 R27
M73 Q1 S27
G1 X87.209 Y170.794 E0.01929
G1 X86.644 Y170.560 E0.01917
G1 X86.126 Y170.157 E0.02060
G1 X85.739 Y169.630 E0.02048
G1 X85.510 Y169.015 E0.02060
G1 X85.457 Y168.364 E0.02048
G1 X87.145 Y157.499 E0.34475
G1 X87.428 Y156.711 E0.02626
G1 X153.713 Y44.269 E4.09253
G1 X154.020 Y43.882 E0.01550
G1 X154.404 Y43.564 E0.01562
G1 X160.933 Y39.470 E0.24162
G1 X161.532 Y39.210 E0.02048
G1 X162.175 Y39.123 E0.02036
G1 X163.018 Y39.291 E0.02696
; printing object updatedtrim.st.stl id:0 copy 0
;WIPE_START
G1 F8640.000
G1 X163.841 Y39.809 E-0.22439
G1 X164.356 Y40.567 E-0.21151
G1 X164.546 Y41.463 E-0.21151
G1 X164.546 Y41.950 E-0.11259
;WIPE_END
G1 E-0.04000 F2100.000
G1 Z0.600 F10800.000
G1 X161.382 Y42.923
G1 Z0.200
G1 E0.80000 F2100.000
;TYPE:Perimeter
G1 F1200.000
G1 X161.382 Y167.713 E3.91271
G1 X88.750 Y167.713 E2.27733
M73 P2 R27
M73 Q2 S27
G1 X90.192 Y158.495 E0.29254
G1 X96.596 Y156.404 E0.21124
G1 X99.739 Y149.483 E0.23834
G1 X101.839 Y148.655 E0.07079
G1 X104.201 Y147.663 E0.08032
G1 X106.518 Y146.624 E0.07963
G1 X108.791 Y145.539 E0.07897
G1 X111.019 Y144.406 E0.07836
G1 X113.200 Y143.224 E0.07779
G1 X115.333 Y141.994 E0.07719
G1 X116.385 Y141.357 E0.03857
G1 X118.445 Y140.050 E0.07648
G1 X120.456 Y138.689 E0.07614
G1 X122.414 Y137.275 E0.07572
G1 X123.378 Y136.544 E0.03793
G1 X125.255 Y135.046 E0.07531
G1 X127.080 Y133.489 E0.07520
G1 X128.847 Y131.876 E0.07502
G1 X129.713 Y131.042 E0.03769
G1 X131.394 Y129.340 E0.07501
G1 X133.018 Y127.576 E0.07518
G1 X134.583 Y125.752 E0.07536
G1 X136.091 Y123.870 E0.07562
G1 X137.541 Y121.930 E0.07595
G1 X138.935 Y119.933 E0.07635
G1 X140.273 Y117.883 E0.07675
G1 X140.924 Y116.833 E0.03874
G1 X142.181 Y114.703 E0.07755
G1 X143.387 Y112.519 E0.07823
G1 X144.543 Y110.285 E0.07887
G1 X145.649 Y108.003 E0.07950
G1 X146.185 Y106.840 E0.04016
G1 X147.220 Y104.487 E0.08059
G1 X148.208 Y102.086 E0.08142
G1 X149.151 Y99.639 E0.08222
G1 X150.049 Y97.149 E0.08300
G1 X150.483 Y95.883 E0.04194
G1 X151.135 Y93.877 E0.06614
G1 X156.238 Y93.877 E0.16000
G1 X156.238 Y83.969 E0.31067
G1 X146.910 Y83.969 E0.29247
G1 X146.720 Y83.026 E0.03016
G1 X146.595 Y82.273 E0.02392
G1 X146.404 Y80.784 E0.04709
G1 X146.342 Y80.070 E0.02247
G1 X146.282 Y78.656 E0.04438
G1 X146.286 Y77.978 E0.02124
G1 X146.365 Y76.657 E0.04150
G1 X146.441 Y76.018 E0.02017
G1 X146.541 Y75.394 E0.01981
G1 X146.666 Y74.786 E0.01949
G1 X146.816 Y74.192 E0.01921
G1 X146.992 Y73.612 E0.01898
G1 X147.194 Y73.047 E0.01881
G1 X147.421 Y72.496 E0.01870
G1 X147.674 Y71.958 E0.01865
G1 X147.952 Y71.432 E0.01865
G1 X148.255 Y70.918 E0.01871
G1 X148.584 Y70.416 E0.01882
G1 X148.937 Y69.925 E0.01897
G1 X149.314 Y69.444 E0.01915
G1 X149.712 Y68.978 E0.01920
G1 X150.591 Y68.061 E0.03984
G1 X151.053 Y67.628 E0.01985
G1 X152.062 Y66.775 E0.04144
G1 X153.432 Y65.759 E0.05348
G1 X156.443 Y46.020 E0.62605
G1 X161.332 Y42.954 E0.18092
;WIPE_START
G1 F8640.000
G1 X161.333 Y46.246 E-0.76000
;WIPE_END
G1 E-0.04000 F2100.000
G1 Z0.600 F10800.000
G1 X155.861 Y93.500
G1 Z0.200
G1 E0.80000 F2100.000
;TYPE:External perimeter
G1 F1200.000
G1 X155.861 Y84.346 E0.28702
G1 X146.602 Y84.346 E0.29032
G1 X146.349 Y83.094 E0.04004
G1 X146.222 Y82.328 E0.02434
G1 X146.029 Y80.824 E0.04755
G1 X145.965 Y80.094 E0.02297
G1 X145.905 Y78.662 E0.04493
G1 X145.909 Y77.969 E0.02174
G1 X145.937 Y77.288 E0.02139
G1 X145.990 Y76.620 E0.02100
G1 X146.067 Y75.966 E0.02064
G1 X146.170 Y75.327 E0.02031
G1 X146.298 Y74.701 E0.02001
G1 X146.453 Y74.091 E0.01975
G1 X146.634 Y73.494 E0.01954
G1 X146.842 Y72.912 E0.01938
G1 X147.076 Y72.344 E0.01927
G1 X147.336 Y71.789 E0.01921
G1 X147.623 Y71.248 E0.01921
G1 X147.935 Y70.719 E0.01926
G1 X148.273 Y70.202 E0.01935
G1 X148.635 Y69.698 E0.01948
G1 X149.022 Y69.205 E0.01964
G1 X149.432 Y68.725 E0.01978
G1 X150.325 Y67.793 E0.04050
G1 X150.802 Y67.346 E0.02047
G1 X151.828 Y66.479 E0.04211
G1 X153.083 Y65.548 E0.04899
G1 X156.096 Y45.792 E0.62660
G1 X161.760 Y42.241 E0.20959
G1 X161.760 Y168.090 E3.94591
M73 P3 R27
M73 Q3 S27
G1 X88.310 Y168.090 E2.30297
G1 X89.855 Y158.208 E0.31361
G1 X96.322 Y156.097 E0.21329
G1 X99.458 Y149.188 E0.23793
G1 X101.697 Y148.306 E0.07545
G1 X104.051 Y147.317 E0.08004
G1 X106.360 Y146.282 E0.07934
G1 X108.624 Y145.200 E0.07868
G1 X110.843 Y144.072 E0.07806
G1 X113.016 Y142.895 E0.07747
G1 X115.141 Y141.669 E0.07691
G1 X116.187 Y141.037 E0.03832
G1 X118.238 Y139.735 E0.07618
G1 X120.240 Y138.380 E0.07579
G1 X122.189 Y136.972 E0.07540
G1 X123.146 Y136.246 E0.03765
G1 X125.015 Y134.755 E0.07498
G1 X126.831 Y133.207 E0.07481
G1 X128.589 Y131.601 E0.07467
G1 X129.448 Y130.774 E0.03739
G1 X131.121 Y129.080 E0.07465
G1 X132.736 Y127.325 E0.07477
G1 X134.293 Y125.511 E0.07495
G1 X135.793 Y123.639 E0.07522
G1 X137.236 Y121.709 E0.07556
G1 X138.623 Y119.722 E0.07597
G1 X139.954 Y117.681 E0.07643
G1 X140.601 Y116.638 E0.03848
G1 X141.853 Y114.516 E0.07726
G1 X143.055 Y112.341 E0.07790
G1 X144.206 Y110.116 E0.07855
G1 X145.308 Y107.842 E0.07923
G1 X145.842 Y106.685 E0.03994
G1 X146.873 Y104.339 E0.08034
G1 X147.858 Y101.946 E0.08114
G1 X148.798 Y99.507 E0.08195
G1 X149.693 Y97.024 E0.08278
G1 X150.125 Y95.764 E0.04176
G1 X150.861 Y93.500 E0.07464
G1 X155.801 Y93.500 E0.15488
G1 X156.258 Y93.450 F10800.000
;WIPE_START
G1 F8640.000
G1 X155.823 Y90.209 E-0.76000
;WIPE_END
G1 E-0.04000 F2100.000
G1 Z0.600 F10800.000
G1 X161.269 Y43.875
G1 Z0.200
G1 E0.80000 F2100.000
;TYPE:Solid infill
;WIDTH:0.420337
G1 F1200.000
G1 X160.933 Y43.538 E0.01493
G1 X160.605 Y43.744 E0.01215
G1 X161.100 Y44.239 E0.02196
G1 X161.100 Y44.773 E0.01675
G1 X160.277 Y43.950 E0.03652
G1 X159.949 Y44.155 E0.01215
G1 X161.100 Y45.306 E0.05108
G1 X161.100 Y45.840 E0.01675
G1 X159.621 Y44.361 E0.06564
G1 X159.293 Y44.567 E0.01215
G1 X161.100 Y46.374 E0.08020
G1 X161.100 Y46.908 E0.01675
G1 X158.965 Y44.772 E0.09476
G1 X158.637 Y44.978 E0.01215
G1 X161.100 Y47.441 E0.10932
G1 X161.100 Y47.975 E0.01675
G1 X158.308 Y45.184 E0.12388
G1 X157.980 Y45.390 E0.01215
G1 X161.100 Y48.509 E0.13844
M73 P3 R26
M73 Q4 S27
G1 X161.100 Y49.043 E0.01675
G1 X157.652 Y45.595 E0.15300
M73 P4 R26
G1 X157.324 Y45.801 E0.01215
G1 X161.100 Y49.576 E0.16755
G1 X161.100 Y50.110 E0.01675
G1 X156.996 Y46.007 E0.18211
G1 X156.703 Y46.191 E0.01086
G1 X156.696 Y46.240 E0.00156
G1 X161.100 Y50.644 E0.19546
G1 X161.100 Y51.178 E0.01675
G1 X156.625 Y46.703 E0.19860
G1 X156.554 Y47.166 E0.01470
G1 X161.100 Y51.711 E0.20173
G1 X161.100 Y52.245 E0.01675
G1 X156.484 Y47.629 E0.20487
G1 X156.413 Y48.092 E0.01470
G1 X161.100 Y52.779 E0.20800
G1 X161.100 Y53.313 E0.01675
G1 X156.342 Y48.555 E0.21114
G1 X156.272 Y49.018 E0.01470
G1 X161.100 Y53.846 E0.21427
G1 X161.100 Y54.380 E0.01675
G1 X156.201 Y49.481 E0.21741
M73 Q4 S26
G1 X156.130 Y49.945 E0.01470
G1 X161.100 Y54.914 E0.22054
G1 X161.100 Y55.448 E0.01675
G1 X156.060 Y50.408 E0.22368
G1 X155.989 Y50.871 E0.01470
G1 X161.100 Y55.981 E0.22681
G1 X161.100 Y56.515 E0.01675
G1 X155.918 Y51.334 E0.22995
G1 X155.848 Y51.797 E0.01470
G1 X161.100 Y57.049 E0.23308
G1 X161.100 Y57.583 E0.01675
G1 X155.777 Y52.260 E0.23622
G1 X155.707 Y52.723 E0.01470
G1 X161.100 Y58.116 E0.23935
G1 X161.100 Y58.650 E0.01675
G1 X155.636 Y53.186 E0.24249
G1 X155.565 Y53.649 E0.01470
G1 X161.100 Y59.184 E0.24562
G1 X161.100 Y59.718 E0.01675
G1 X155.495 Y54.112 E0.24876
G1 X155.424 Y54.576 E0.01470
G1 X161.100 Y60.251 E0.25190
G1 X161.100 Y60.785 E0.01675
G1 X155.353 Y55.039 E0.25503
G1 X155.283 Y55.502 E0.01470
G1 X161.100 Y61.319 E0.25817
G1 X161.100 Y61.853 E0.01675
G1 X155.212 Y55.965 E0.26130
G1 X155.141 Y56.428 E0.01470
G1 X161.100 Y62.386 E0.26444
G1 X161.100 Y62.920 E0.01675
G1 X155.071 Y56.891 E0.26757
G1 X155.000 Y57.354 E0.01470
G1 X161.100 Y63.454 E0.27071
G1 X161.100 Y63.988 E0.01675
G1 X154.929 Y57.817 E0.27384
G1 X154.859 Y58.280 E0.01470
G1 X161.100 Y64.521 E0.27698
G1 X161.100 Y65.055 E0.01675
G1 X154.788 Y58.744 E0.28011
G1 X154.718 Y59.207 E0.01470
G1 X161.100 Y65.589 E0.28325
G1 X161.100 Y66.123 E0.01675
G1 X154.647 Y59.670 E0.28638
G1 X154.576 Y60.133 E0.01470
G1 X161.100 Y66.656 E0.28952
G1 X161.100 Y67.190 E0.01675
G1 X154.506 Y60.596 E0.29265
G1 X154.435 Y61.059 E0.01470
G1 X161.100 Y67.724 E0.29579
G1 X161.100 Y68.257 E0.01675
G1 X154.364 Y61.522 E0.29892
G1 X154.294 Y61.985 E0.01470
G1 X161.100 Y68.791 E0.30206
G1 X161.100 Y69.325 E0.01675
G1 X154.223 Y62.448 E0.30519
G1 X154.152 Y62.911 E0.01470
M73 Q5 S26
G1 X161.100 Y69.859 E0.30833
M73 P5 R26
G1 X161.100 Y70.392 E0.01675
G1 X154.082 Y63.375 E0.31146
G1 X154.011 Y63.838 E0.01470
G1 X161.100 Y70.926 E0.31460
G1 X161.100 Y71.460 E0.01675
G1 X153.940 Y64.301 E0.31773
G1 X153.870 Y64.764 E0.01470
G1 X161.100 Y71.994 E0.32087
G1 X161.100 Y72.527 E0.01675
G1 X153.799 Y65.227 E0.32401
G1 X153.729 Y65.690 E0.01470
G1 X161.100 Y73.061 E0.32714
G1 X161.100 Y73.595 E0.01675
G1 X153.537 Y66.033 E0.33563
G1 X153.231 Y66.260 E0.01197
G1 X161.100 Y74.129 E0.34923
G1 X161.100 Y74.662 E0.01675
G1 X152.924 Y66.487 E0.36283
G1 X152.618 Y66.714 E0.01197
G1 X161.100 Y75.196 E0.37643
G1 X161.100 Y75.730 E0.01675
G1 X152.311 Y66.942 E0.39003
G1 X152.018 Y67.182 E0.01190
G1 X161.100 Y76.264 E0.40305
G1 X161.100 Y76.797 E0.01675
G1 X151.729 Y67.427 E0.41589
G1 X151.440 Y67.671 E0.01189
G1 X161.100 Y77.331 E0.42872
G1 X161.100 Y77.865 E0.01675
G1 X151.155 Y67.920 E0.44137
G1 X150.879 Y68.178 E0.01185
G1 X161.100 Y78.399 E0.45360
G1 X161.100 Y78.932 E0.01675
G1 X150.613 Y68.446 E0.46540
G1 X150.352 Y68.719 E0.01185
G1 X161.100 Y79.466 E0.47699
G1 X161.100 Y80.000 E0.01675
G1 X150.091 Y68.991 E0.48858
G1 X149.835 Y69.269 E0.01185
G1 X161.100 Y80.534 E0.49993
G1 X161.100 Y81.067 E0.01675
G1 X149.589 Y69.557 E0.51084
G1 X149.352 Y69.854 E0.01192
G1 X161.100 Y81.601 E0.52137
G1 X161.100 Y82.135 E0.01675
G1 X149.120 Y70.155 E0.53169
G1 X148.896 Y70.465 E0.01200
G1 X161.100 Y82.669 E0.54160
M73 P6 R26
M73 Q6 S26
G1 X161.100 Y83.202 E0.01675
G1 X148.681 Y70.784 E0.55115
G1 X148.472 Y71.108 E0.01212
G1 X161.100 Y83.736 E0.56045
G1 X161.100 Y84.270 E0.01675
G1 X148.273 Y71.444 E0.56925
G1 X148.084 Y71.788 E0.01233
G1 X161.100 Y84.804 E0.57767
G1 X161.100 Y85.337 E0.01675
G1 X147.901 Y72.139 E0.58577
G1 X147.730 Y72.502 E0.01259
G1 X161.100 Y85.871 E0.59334
G1 X161.100 Y86.405 E0.01675
G1 X147.570 Y72.876 E0.60045
G1 X147.419 Y73.258 E0.01290
G1 X161.100 Y86.939 E0.60717
G1 X161.100 Y87.472 E0.01675
G1 X147.279 Y73.651 E0.61340
G1 X147.152 Y74.059 E0.01339
G1 X161.100 Y88.006 E0.61900
G1 X161.100 Y88.540 E0.01675
G1 X147.036 Y74.476 E0.62416
G1 X146.930 Y74.904 E0.01384
G1 X155.712 Y83.686 E0.38974
G1 X155.178 Y83.686 E0.01675
G1 X146.839 Y75.347 E0.37009
G1 X146.762 Y75.803 E0.01452
G1 X154.645 Y83.686 E0.34985
G1 X154.111 Y83.686 E0.01675
G1 X146.696 Y76.271 E0.32909
G1 X146.643 Y76.752 E0.01518
G1 X153.577 Y83.686 E0.30775
G1 X153.043 Y83.686 E0.01675
G1 X146.613 Y77.256 E0.28540
G1 X146.583 Y77.759 E0.01583
G1 X152.510 Y83.686 E0.26304
G1 X151.976 Y83.686 E0.01675
G1 X146.567 Y78.277 E0.24004
G1 X146.572 Y78.816 E0.01690
G1 X151.442 Y83.686 E0.21615
G1 X150.908 Y83.686 E0.01675
G1 X146.595 Y79.373 E0.19142
G1 X146.619 Y79.930 E0.01750
G1 X150.375 Y83.686 E0.16668
G1 X149.841 Y83.686 E0.01675
M73 Q7 S26
G1 X146.664 Y80.509 E0.14100
M73 P7 R26
G1 X146.731 Y81.110 E0.01897
G1 X149.307 Y83.686 E0.11434
G1 X148.773 Y83.686 E0.01675
G1 X146.809 Y81.722 E0.08717
G1 X146.892 Y82.339 E0.01954
G1 X148.240 Y83.686 E0.05979
G1 X147.706 Y83.686 E0.01675
G1 X146.999 Y82.980 E0.03135
G1 X147.134 Y83.648 E0.02141
G1 X147.342 Y83.856 E0.00920
;WIPE_START
G1 F8640.000
G1 X147.134 Y83.648 E-0.06772
G1 X146.999 Y82.980 E-0.15750
G1 X147.706 Y83.686 E-0.23065
G1 X148.240 Y83.686 E-0.12324
G1 X147.686 Y83.132 E-0.18089
;WIPE_END
G1 E-0.04000 F2100.000
G1 Z0.600 F10800.000
G1 X156.351 Y84.325
G1 Z0.200
G1 E0.80000 F2100.000
G1 F1200.000
G1 X161.100 Y89.074 E0.21073
G1 X161.100 Y89.607 E0.01675
G1 X156.521 Y85.029 E0.20320
G1 X156.521 Y85.563 E0.01675
G1 X161.100 Y90.141 E0.20320
G1 X161.100 Y90.675 E0.01675
G1 X156.521 Y86.096 E0.20320
G1 X156.521 Y86.630 E0.01675
G1 X161.100 Y91.209 E0.20320
G1 X161.100 Y91.742 E0.01675
G1 X156.521 Y87.164 E0.20320
G1 X156.521 Y87.698 E0.01675
G1 X161.100 Y92.276 E0.20320
G1 X161.100 Y92.810 E0.01675
G1 X156.521 Y88.231 E0.20320
G1 X156.521 Y88.765 E0.01675
G1 X161.100 Y93.344 E0.20320
G1 X161.100 Y93.877 E0.01675
G1 X156.521 Y89.299 E0.20320
G1 X156.521 Y89.833 E0.01675
G1 X161.100 Y94.411 E0.20320
G1 X161.100 Y94.945 E0.01675
G1 X156.521 Y90.366 E0.20320
G1 X156.521 Y90.900 E0.01675
G1 X161.100 Y95.479 E0.20320
G1 X161.100 Y96.012 E0.01675
G1 X156.521 Y91.434 E0.20320
G1 X156.521 Y91.968 E0.01675
G1 X161.100 Y96.546 E0.20320
G1 X161.100 Y97.080 E0.01675
G1 X156.521 Y92.501 E0.20320
G1 X156.521 Y93.035 E0.01675
G1 X161.100 Y97.614 E0.20320
G1 X161.100 Y98.147 E0.01675
G1 X156.521 Y93.569 E0.20320
G1 X156.521 Y94.103 E0.01675
G1 X161.100 Y98.681 E0.20320
G1 X161.100 Y99.215 E0.01675
G1 X156.045 Y94.160 E0.22435
G1 X155.511 Y94.160 E0.01675
G1 X161.100 Y99.749 E0.24804
G1 X161.100 Y100.282 E0.01675
G1 X154.977 Y94.160 E0.27173
G1 X154.443 Y94.160 E0.01675
G1 X161.100 Y100.816 E0.29541
G1 X161.100 Y101.350 E0.01675
G1 X153.910 Y94.160 E0.31910
M73 P7 R25
G1 X153.376 Y94.160 E0.01675
G1 X161.100 Y101.884 E0.34279
G1 X161.100 Y102.417 E0.01675
G1 X152.842 Y94.160 E0.36648
G1 X152.308 Y94.160 E0.01675
G1 X161.100 Y102.951 E0.39017
G1 X161.100 Y103.485 E0.01675
G1 X151.775 Y94.160 E0.41386
G1 X151.341 Y94.160 E0.01362
G1 X151.316 Y94.235 E0.00248
G1 X161.100 Y104.019 E0.43421
G1 X161.100 Y104.552 E0.01675
G1 X151.185 Y94.638 E0.44002
M73 Q7 S25
G1 X151.054 Y95.041 E0.01329
G1 X161.100 Y105.086 E0.44584
G1 X161.100 Y105.620 E0.01675
G1 X150.923 Y95.443 E0.45165
G1 X150.792 Y95.846 E0.01329
G1 X161.100 Y106.154 E0.45747
M73 P8 R25
M73 Q8 S25
G1 X161.100 Y106.687 E0.01675
G1 X150.657 Y96.245 E0.46344
G1 X150.521 Y96.643 E0.01319
G1 X161.100 Y107.221 E0.46948
G1 X161.100 Y107.755 E0.01675
G1 X150.385 Y97.040 E0.47552
G1 X150.246 Y97.435 E0.01314
