; generated by Slic3r Prusa Edition 1.39.2-rc+win64 on 2018-05-07 at 12:08:39

; 

; external perimeters extrusion width = 0.45mm
; perimeters extrusion width = 0.45mm
; infill extrusion width = 0.45mm
; solid infill extrusion width = 0.45mm
; top infill extrusion width = 0.40mm
; first layer extrusion width = 0.42mm

M107
M115 U3.2.1 ; tell printer latest fw version
M201 X1000 Y1000 Z200 E5000 ; sets maximum accelerations, mm/sec^2
M203 X200 Y200 Z12 E120 ; sets maximum feedrates, mm/sec
M204 S1250 T1250 ; sets acceleration (S) and retract acceleration (T)
M205 X10 Y10 Z0.4 E2.5 ; sets the jerk limits, mm/sec
M205 S0 T0 ; sets the minimum extruding and travel feed rate, mm/sec
M83  ; extruder relative mode
M104 S215 ; set extruder temp
M140 S60 ; set bed temp
M190 S60 ; wait for bed temp
M109 S215 ; wait for extruder temp
G28 W ; home all without mesh bed level
G80 ; mesh bed leveling
G1 Y-3.0 F1000.0 ; go outside print area
G92 E0.0
G1 X60.0 E9.0  F1000.0 ; intro line
G1 X100.0 E12.5  F1000.0 ; intro line
G92 E0.0
M221 S95
M900 K30; Filament gcode
G21 ; set units to millimeters
G90 ; use absolute coordinates
M83 ; use relative distances for extrusion
;BEFORE_LAYER_CHANGE
;0.2


G1 E-0.80000 F2100.00000
G1 Z0.600 F10200.000
;AFTER_LAYER_CHANGE
;0.2
G1 X112.062 Y130.244
G1 Z0.200
G1 E0.80000 F2100.00000
M204 S1000
G1 F1800
G1 X110.784 Y130.163 E0.04016
G1 X110.170 Y129.985 E0.02003
G1 X109.482 Y129.666 E0.02379
G1 X108.477 Y128.902 E0.03959
G1 X101.352 Y121.776 E0.31595
G1 X100.778 Y121.080 E0.02828
G1 X100.231 Y119.979 E0.03855
G1 X100.000 Y118.754 E0.03909
G1 X100.120 Y117.518 E0.03892
G1 X100.570 Y116.380 E0.03838
G1 X101.128 Y115.592 E0.03026
G1 X116.726 Y97.892 E0.73971
G1 X117.646 Y96.930 E0.04174
G1 X118.693 Y95.990 E0.04411
G1 X119.973 Y95.020 E0.05036
G1 X121.458 Y94.098 E0.05480
G1 X122.788 Y93.427 E0.04672
G1 X124.255 Y92.837 E0.04957
G1 X125.741 Y92.386 E0.04867
G1 X127.361 Y92.045 E0.05192
G1 X128.879 Y91.863 E0.04794
G1 X130.407 Y91.810 E0.04792
G1 X131.821 Y91.877 E0.04440
G1 X133.186 Y92.047 E0.04312
G1 X134.582 Y92.333 E0.04468
G1 X135.543 Y92.638 E0.03161
G1 X136.298 Y93.074 E0.02735
G1 X136.924 Y93.639 E0.02644
G1 X137.405 Y94.300 E0.02560
G1 X137.757 Y95.075 E0.02670
G1 X138.173 Y96.866 E0.05765
G1 X138.387 Y98.553 E0.05331
G1 X138.440 Y100.370 E0.05701
G1 X138.312 Y102.176 E0.05676
G1 X137.998 Y103.979 E0.05740
G1 X137.545 Y105.618 E0.05330
G1 X136.930 Y107.234 E0.05422
G1 X136.180 Y108.754 E0.05315
G1 X134.719 Y110.990 E0.08372
G1 X133.729 Y112.177 E0.04845
G1 X132.790 Y113.135 E0.04208
G1 X114.449 Y129.302 E0.76658
G1 X113.334 Y129.943 E0.04032
G1 X112.120 Y130.230 E0.03910
G1 X112.035 Y129.867 F10200.000
G1 F1800
G1 X110.858 Y129.793 E0.03697
G1 X109.654 Y129.330 E0.04044
G1 X108.741 Y128.633 E0.03601
G1 X101.622 Y121.513 E0.31568
G1 X101.104 Y120.888 E0.02545
G1 X100.591 Y119.866 E0.03585
G1 X100.377 Y118.741 E0.03591
G1 X100.488 Y117.602 E0.03591
G1 X100.905 Y116.553 E0.03538
G1 X101.410 Y115.843 E0.02734
G1 X117.008 Y98.142 E0.73971
G1 X117.907 Y97.203 E0.04077
G1 X118.927 Y96.286 E0.04301
G1 X120.187 Y95.331 E0.04958
G1 X121.644 Y94.426 E0.05376
G1 X122.945 Y93.770 E0.04568
G1 X124.383 Y93.192 E0.04859
G1 X125.991 Y92.711 E0.05263
G1 X127.424 Y92.416 E0.04587
G1 X128.909 Y92.239 E0.04689
G1 X130.406 Y92.187 E0.04699
G1 X131.787 Y92.252 E0.04333
G1 X133.119 Y92.419 E0.04209
G1 X134.482 Y92.696 E0.04361
G1 X135.368 Y92.973 E0.02911
G1 X136.073 Y93.377 E0.02546
G1 X136.648 Y93.896 E0.02430
G1 X137.083 Y94.497 E0.02325
G1 X137.408 Y95.218 E0.02481
G1 X137.803 Y96.937 E0.05529
G1 X138.011 Y98.584 E0.05205
G1 X138.063 Y100.367 E0.05592
G1 X137.937 Y102.137 E0.05563
G1 X137.629 Y103.902 E0.05617
G1 X137.186 Y105.503 E0.05210
G1 X136.584 Y107.084 E0.05306
G1 X135.843 Y108.583 E0.05242
G1 X135.125 Y109.767 E0.04343
G1 X134.341 Y110.861 E0.04218
G1 X133.439 Y111.936 E0.04401
G1 X132.460 Y112.929 E0.04371
G1 X114.228 Y128.996 E0.76196
G1 X113.198 Y129.591 E0.03728
G1 X112.093 Y129.853 E0.03562
G1 F8160
G1 X110.858 Y129.793 E-0.30234
G1 X109.654 Y129.330 E-0.31534
G1 X109.191 Y128.977 E-0.14232
G1 E-0.04000 F2100.00000
G1 Z0.800 F10200.000
G1 X110.291 Y123.915
G1 Z0.200
G1 E0.80000 F2100.00000
G1 F1800
G1 X110.045 Y123.944 E0.00775
G1 X109.686 Y123.943 E0.01127
G1 X109.438 Y123.912 E0.00783
G1 X109.082 Y123.824 E0.01150
G1 X108.840 Y123.735 E0.00809
G1 X108.372 Y123.487 E0.01660
G1 X107.999 Y123.226 E0.01428
G1 X107.743 Y123.012 E0.01047
G1 X107.476 Y122.763 E0.01144
G1 X107.105 Y122.362 E0.01712
G1 X106.719 Y121.835 E0.02048
G1 X106.509 Y121.450 E0.01376
G1 X106.405 Y121.194 E0.00866
G1 X106.284 Y120.712 E0.01558
G1 X106.258 Y120.460 E0.00794
G1 X106.265 Y120.100 E0.01130
G1 X106.299 Y119.855 E0.00775
G1 X106.392 Y119.511 E0.01118
G1 X106.485 Y119.281 E0.00778
G1 X106.661 Y118.963 E0.01139
G1 X106.884 Y118.664 E0.01171
G1 X107.071 Y118.464 E0.00857
G1 X107.328 Y118.231 E0.01087
G1 X107.540 Y118.074 E0.00829
G1 X107.746 Y117.953 E0.00749
G1 X108.036 Y117.831 E0.00987
G1 X108.359 Y117.752 E0.01041
G1 X108.611 Y117.729 E0.00793
G1 X108.851 Y117.739 E0.00754
G1 X109.012 Y117.775 E0.00517
G1 X109.206 Y117.862 E0.00667
G1 X109.347 Y117.984 E0.00584
G1 X109.463 Y118.166 E0.00679
G1 X109.526 Y118.392 E0.00735
G1 X109.520 Y118.615 E0.00701
G1 X109.467 Y118.781 E0.00547
G1 X109.305 Y118.982 E0.00808
G1 X109.108 Y119.104 E0.00727
G1 X108.858 Y119.196 E0.00835
G1 X108.322 Y119.330 E0.01733
G1 X108.172 Y119.397 E0.00515
G1 X108.077 Y119.466 E0.00370
G1 X107.892 Y119.670 E0.00864
G1 X107.782 Y119.861 E0.00690
G1 X107.709 Y120.070 E0.00694
G1 X107.677 Y120.283 E0.00674
G1 X107.679 Y120.412 E0.00406
G1 X107.718 Y120.627 E0.00685
G1 X107.768 Y120.777 E0.00494
G1 X107.889 Y121.025 E0.00864
G1 X108.067 Y121.291 E0.01006
G1 X108.222 Y121.483 E0.00774
G1 X108.663 Y121.931 E0.01970
G1 X109.063 Y122.244 E0.01593
G1 X109.424 Y122.436 E0.01284
G1 X109.580 Y122.489 E0.00514
G1 X109.806 Y122.527 E0.00719
G1 X110.133 Y122.495 E0.01032
G1 X110.343 Y122.420 E0.00697
G1 X110.541 Y122.306 E0.00716
G1 X110.720 Y122.154 E0.00737
G1 X110.878 Y121.965 E0.00772
G1 X110.949 Y121.850 E0.00423
G1 X111.009 Y121.706 E0.00490
G1 X111.026 Y121.586 E0.00380
G1 X111.001 Y121.376 E0.00665
G1 X111.040 Y121.177 E0.00635
G1 X111.148 Y120.991 E0.00674
G1 X111.316 Y120.830 E0.00728
G1 X111.589 Y120.698 E0.00952
G1 X111.757 Y120.668 E0.00535
G1 X111.968 Y120.684 E0.00665
G1 X112.158 Y120.770 E0.00653
G1 X112.282 Y120.883 E0.00526
G1 X112.400 Y121.163 E0.00954
G1 X112.466 Y121.541 E0.01202
G1 X112.438 Y121.937 E0.01246
G1 X112.312 Y122.334 E0.01307
G1 X112.089 Y122.724 E0.01407
G1 X111.759 Y123.114 E0.01603
G1 X111.441 Y123.400 E0.01340
G1 X111.088 Y123.635 E0.01331
G1 X110.642 Y123.830 E0.01526
G1 X110.349 Y123.901 E0.00946
G1 X110.210 Y124.149 F10200.000
G1 F8160
G1 X110.045 Y123.944 E-0.07504
G1 X109.686 Y123.943 E-0.08789
G1 X109.438 Y123.912 E-0.06104
G1 X109.082 Y123.824 E-0.08963
G1 X108.840 Y123.735 E-0.06306
G1 X108.372 Y123.487 E-0.12941
G1 X107.999 Y123.226 E-0.11134
G1 X107.743 Y123.012 E-0.08166
G1 X107.560 Y122.842 E-0.06093
G1 E-0.04000 F2100.00000
G1 Z0.800 F10200.000
G1 X114.826 Y119.640
G1 Z0.200
G1 E0.80000 F2100.00000
G1 F1800
G1 X114.631 Y119.631 E0.00613
G1 X114.457 Y119.548 E0.00603
G1 X114.343 Y119.453 E0.00466
G1 X113.964 Y119.015 E0.01815
G1 X111.985 Y117.060 E0.08723
G1 X111.611 Y116.636 E0.01772
G1 X111.472 Y116.531 E0.00546
G1 X111.395 Y116.508 E0.00254
G1 X111.300 Y116.508 E0.00298
G1 X111.118 Y116.580 E0.00612
G1 X110.929 Y116.751 E0.00801
G1 X110.521 Y117.265 E0.02058
G1 X110.351 Y117.407 E0.00694
G1 X110.162 Y117.486 E0.00643
G1 X109.897 Y117.477 E0.00829
G1 X109.687 Y117.391 E0.00713
G1 X109.497 Y117.244 E0.00753
G1 X109.334 Y117.000 E0.00920
G1 X109.285 Y116.841 E0.00522
G1 X109.279 Y116.629 E0.00665
G1 X109.333 Y116.452 E0.00580
G1 X109.453 Y116.280 E0.00658
G1 X109.943 Y115.850 E0.02044
G1 X112.221 Y113.551 E0.10150
G1 X112.399 Y113.413 E0.00705
G1 X112.599 Y113.342 E0.00665
G1 X112.777 Y113.348 E0.00558
G1 X112.916 Y113.397 E0.00462
G1 X113.094 Y113.514 E0.00670
G1 X113.210 Y113.631 E0.00517
G1 X113.312 Y113.785 E0.00578
G1 X113.366 Y113.932 E0.00491
G1 X113.363 Y114.183 E0.00787
G1 X113.243 Y114.437 E0.00882
G1 X113.033 Y114.697 E0.01046
G1 X112.367 Y115.342 E0.02909
G1 X112.325 Y115.423 E0.00287
G1 X112.349 Y115.478 E0.00187
G1 X112.458 Y115.606 E0.00527
G1 X114.631 Y117.777 E0.09629
G1 X115.103 Y118.219 E0.02028
G1 X115.290 Y118.426 E0.00876
G1 X115.383 Y118.572 E0.00542
G1 X115.465 Y118.779 E0.00699
G1 X115.467 Y119.060 E0.00881
G1 X115.384 Y119.253 E0.00657
G1 X115.292 Y119.375 E0.00481
G1 X115.171 Y119.486 E0.00514
G1 X114.974 Y119.599 E0.00711
G1 X114.884 Y119.624 E0.00294
G1 X114.747 Y119.819 F10200.000
G1 F8160
G1 X114.631 Y119.631 E-0.06193
G1 X114.457 Y119.548 E-0.04698
G1 X114.343 Y119.453 E-0.03633
G1 X113.964 Y119.015 E-0.14152
G1 X112.587 Y117.655 E-0.47324
G1 E-0.04000 F2100.00000
G1 Z0.800 F10200.000
G1 X115.283 Y112.952
G1 Z0.200
G1 E0.80000 F2100.00000
G1 F1800
G1 X115.359 Y112.636 E0.01020
G1 X115.439 Y112.507 E0.00476
G1 X115.478 Y112.562 E0.00209
G1 X115.467 Y112.671 E0.00343
G1 X115.318 Y112.903 E0.00867
G1 F8160
G1 X115.359 Y112.636 E-0.06617
G1 X115.439 Y112.507 E-0.03709
G1 X115.478 Y112.562 E-0.01633
G1 X115.467 Y112.671 E-0.02671
G1 X115.318 Y112.903 E-0.06762
G1 E-0.58609 F2100.00000
G1 Z0.800 F10200.000
G1 X117.607 Y116.692
G1 Z0.200
G1 E0.80000 F2100.00000
G1 F1800
G1 X117.431 Y116.687 E0.00553
G1 X117.217 Y116.634 E0.00691
G1 X117.002 Y116.519 E0.00764
G1 X116.825 Y116.355 E0.00758
G1 X116.710 Y116.157 E0.00715
G1 X116.673 Y115.949 E0.00665
G1 X116.708 Y115.749 E0.00636
G1 X116.770 Y115.614 E0.00465
G1 X116.860 Y115.483 E0.00498
G1 X117.034 Y115.320 E0.00749
G1 X117.216 Y115.215 E0.00658
G1 X117.370 Y115.165 E0.00506
G1 X117.821 Y115.098 E0.01432
G1 X117.932 Y115.063 E0.00365
G1 X118.044 Y114.979 E0.00437
G1 X118.114 Y114.880 E0.00380
G1 X118.185 Y114.676 E0.00676
G1 X118.181 Y114.432 E0.00764
G1 X118.081 Y114.199 E0.00797
G1 X117.929 Y114.040 E0.00690
G1 X117.793 Y113.960 E0.00492
G1 X117.617 Y113.900 E0.00585
G1 X117.411 Y113.872 E0.00650
G1 X117.198 Y113.884 E0.00669
G1 X116.994 Y113.936 E0.00661
G1 X116.873 Y113.989 E0.00415
G1 X116.456 Y114.269 E0.01574
G1 X116.254 Y114.379 E0.00720
G1 X116.003 Y114.418 E0.00797
G1 X115.759 Y114.319 E0.00827
G1 X115.594 Y114.160 E0.00719
G1 X115.472 Y113.957 E0.00740
G1 X115.418 Y113.795 E0.00536
G1 X115.401 Y113.571 E0.00707
G1 X115.488 Y113.315 E0.00848
G1 X115.755 Y112.938 E0.01447
G1 X115.826 Y112.797 E0.00496
G1 X115.857 Y112.653 E0.00461
G1 X115.853 Y112.506 E0.00462
G1 X115.818 Y112.377 E0.00419
G1 X115.759 Y112.283 E0.00347
G1 X115.633 Y112.178 E0.00514
G1 X115.525 Y112.134 E0.00367
G1 X115.413 Y112.122 E0.00353
G1 X115.319 Y112.141 E0.00301
G1 X115.226 Y112.190 E0.00330
G1 X115.129 Y112.282 E0.00417
G1 X115.041 Y112.418 E0.00510
G1 X114.999 Y112.520 E0.00347
G1 X114.854 Y113.123 E0.01945
G1 X114.781 Y113.254 E0.00470
G1 X114.632 Y113.388 E0.00627
G1 X114.341 Y113.468 E0.00947
G1 X114.024 Y113.428 E0.01001
G1 X113.747 Y113.283 E0.00982
G1 X113.587 Y113.069 E0.00839
G1 X113.530 Y112.862 E0.00673
G1 X113.524 Y112.695 E0.00521
G1 X113.559 Y112.442 E0.00801
G1 X113.617 Y112.236 E0.00673
G1 X113.797 Y111.851 E0.01333
G1 X114.030 Y111.523 E0.01260
G1 X114.415 Y111.123 E0.01740
G1 X114.826 Y110.818 E0.01606
G1 X115.202 Y110.639 E0.01304
G1 X115.401 Y110.587 E0.00645
G1 X115.791 Y110.563 E0.01226
G1 X116.071 Y110.611 E0.00891
G1 X116.385 Y110.754 E0.01082
G1 X116.540 Y110.868 E0.00602
G1 X116.761 Y111.083 E0.00968
G1 X117.003 Y111.373 E0.01183
G1 X117.112 Y111.538 E0.00619
G1 X117.218 Y111.818 E0.00940
G1 X117.229 Y112.060 E0.00758
G1 X117.176 Y112.308 E0.00796
G1 X117.131 Y112.428 E0.00402
G1 X117.452 Y112.306 E0.01074
G1 X117.685 Y112.290 E0.00735
G1 X117.988 Y112.358 E0.00974
G1 X118.571 Y112.656 E0.02054
G1 X118.933 Y112.911 E0.01387
G1 X119.207 Y113.215 E0.01283
G1 X119.422 Y113.596 E0.01371
G1 X119.538 Y113.928 E0.01102
G1 X119.604 Y114.369 E0.01399
G1 X119.571 Y114.799 E0.01353
G1 X119.444 Y115.215 E0.01364
G1 X119.228 Y115.593 E0.01364
G1 X118.896 Y115.979 E0.01595
G1 X118.506 Y116.318 E0.01620
G1 X118.291 Y116.459 E0.00806
G1 X118.034 Y116.588 E0.00901
G1 X117.854 Y116.650 E0.00597
G1 X117.666 Y116.682 E0.00600
G1 X117.528 Y116.850 F10200.000
G1 F8160
G1 X117.431 Y116.687 E-0.05755
G1 X117.217 Y116.634 E-0.05388
G1 X117.002 Y116.519 E-0.05955
G1 X116.825 Y116.355 E-0.05908
G1 X116.710 Y116.157 E-0.05576
G1 X116.673 Y115.949 E-0.05183
G1 X116.708 Y115.749 E-0.04963
G1 X116.770 Y115.614 E-0.03623
G1 X116.860 Y115.483 E-0.03886
G1 X117.034 Y115.320 E-0.05843
G1 X117.216 Y115.215 E-0.05127
G1 X117.370 Y115.165 E-0.03942
G1 X117.821 Y115.098 E-0.11166
G1 X117.932 Y115.063 E-0.02847
G1 X117.960 Y115.042 E-0.00839
G1 E-0.04000 F2100.00000
G1 Z0.800 F10200.000
G1 X121.181 Y113.356
G1 Z0.200
G1 E0.80000 F2100.00000
G1 F1800
G1 X120.986 Y113.351 E0.00612
G1 X120.789 Y113.283 E0.00656
G1 X120.643 Y113.198 E0.00529
G1 X120.436 Y113.024 E0.00846
G1 X120.022 Y112.586 E0.01889
G1 X117.471 Y110.027 E0.11331
G1 X117.054 Y109.671 E0.01717
G1 X116.922 Y109.511 E0.00652
G1 X116.863 Y109.366 E0.00490
G1 X116.847 Y109.226 E0.00442
G1 X116.884 Y109.028 E0.00633
G1 X116.984 Y108.823 E0.00713
G1 X117.111 Y108.656 E0.00660
G1 X118.060 Y107.725 E0.04166
G1 X118.459 Y107.377 E0.01663
G1 X118.809 Y107.126 E0.01348
G1 X119.212 Y106.914 E0.01430
G1 X119.615 Y106.799 E0.01311
G1 X119.967 Y106.771 E0.01108
G1 X120.241 Y106.786 E0.00862
G1 X120.482 Y106.826 E0.00763
G1 X120.837 Y106.927 E0.01158
G1 X121.083 Y107.028 E0.00835
G1 X121.555 Y107.294 E0.01698
G1 X122.055 Y107.684 E0.01988
G1 X122.543 Y108.179 E0.02179
G1 X122.928 Y108.696 E0.02020
G1 X123.194 Y109.203 E0.01796
G1 X123.350 Y109.700 E0.01634
G1 X123.403 Y110.182 E0.01520
G1 X123.380 Y110.550 E0.01157
G1 X123.268 Y110.997 E0.01443
G1 X123.068 Y111.400 E0.01412
G1 X122.841 Y111.729 E0.01251
G1 X122.528 Y112.095 E0.01512
G1 X121.886 Y112.728 E0.02824
G1 X121.481 Y113.197 E0.01944
G1 X121.361 Y113.288 E0.00472
G1 X121.237 Y113.335 E0.00415
G1 X121.109 Y113.537 F10200.000
G1 F8160
G1 X120.986 Y113.351 E-0.06155
G1 X120.789 Y113.283 E-0.05112
G1 X120.643 Y113.198 E-0.04123
G1 X120.436 Y113.024 E-0.06598
G1 X120.022 Y112.586 E-0.14733
G1 X118.888 Y111.448 E-0.39279
G1 E-0.04000 F2100.00000
G1 Z0.800 F10200.000
G1 X124.670 Y110.156
G1 Z0.200
G1 E0.80000 F2100.00000
G1 F1800
G1 X124.452 Y110.140 E0.00685
G1 X124.241 Y110.084 E0.00684
G1 X123.964 Y109.942 E0.00977
G1 X123.797 Y109.801 E0.00688
G1 X123.656 Y109.634 E0.00685
G1 X123.513 Y109.357 E0.00977
G1 X123.458 Y109.146 E0.00684
G1 X123.442 Y108.932 E0.00671
G1 X123.463 Y108.720 E0.00669
G1 X123.522 Y108.509 E0.00686
G1 X123.671 Y108.234 E0.00980
G1 X123.816 Y108.070 E0.00687
G1 X123.982 Y107.937 E0.00667
G1 X124.171 Y107.834 E0.00675
G1 X124.378 Y107.766 E0.00683
G1 X124.655 Y107.735 E0.00874
G1 X124.904 Y107.760 E0.00784
G1 X125.110 Y107.825 E0.00679
G1 X125.300 Y107.922 E0.00667
G1 X125.470 Y108.051 E0.00671
G1 X125.615 Y108.210 E0.00674
G1 X125.731 Y108.395 E0.00684
G1 X125.836 Y108.687 E0.00974
G1 X125.863 Y108.905 E0.00688
G1 X125.851 Y109.124 E0.00687
G1 X125.766 Y109.423 E0.00976
G1 X125.661 Y109.616 E0.00688
G1 X125.527 Y109.782 E0.00669
G1 X125.366 Y109.923 E0.00671
G1 X125.184 Y110.033 E0.00668
G1 X124.979 Y110.112 E0.00689
G1 X124.730 Y110.148 E0.00789
G1 X124.566 Y110.348 F10200.000
G1 F8160
G1 X124.452 Y110.140 E-0.06781
G1 X124.241 Y110.084 E-0.05332
G1 X123.964 Y109.942 E-0.07619
G1 X123.797 Y109.801 E-0.05363
G1 X123.656 Y109.634 E-0.05337
G1 X123.513 Y109.357 E-0.07618
G1 X123.458 Y109.146 E-0.05332
G1 X123.442 Y108.932 E-0.05233
G1 X123.463 Y108.720 E-0.05220
G1 X123.522 Y108.509 E-0.05350
G1 X123.671 Y108.234 E-0.07641
G1 X123.816 Y108.070 E-0.05354
G1 X123.938 Y107.972 E-0.03820
G1 E-0.04000 F2100.00000
G1 Z0.800 F10200.000
G1 X126.412 Y108.189
G1 Z0.200
G1 E0.80000 F2100.00000
G1 F1800
G1 X126.195 Y108.146 E0.00692
G1 X125.989 Y107.993 E0.00805
G1 X125.862 Y107.802 E0.00719
G1 X125.737 Y107.464 E0.01131
