; generated by Slic3r Prusa Edition 1.39.2-rc+win64 on 2018-05-07 at 13:08:12

; 

; external perimeters extrusion width = 0.45mm
; perimeters extrusion width = 0.45mm
; infill extrusion width = 0.45mm
; solid infill extrusion width = 0.45mm
; top infill extrusion width = 0.40mm
; first layer extrusion width = 0.42mm

M107
M115 U3.2.1 ; tell printer latest fw version
M201 X1000 Y1000 Z200 E5000 ; sets maximum accelerations, mm/sec^2
M203 X200 Y200 Z12 E120 ; sets maximum feedrates, mm/sec
M204 S1250 T1250 ; sets acceleration (S) and retract acceleration (T)
M205 X10 Y10 Z0.4 E2.5 ; sets the jerk limits, mm/sec
M205 S0 T0 ; sets the minimum extruding and travel feed rate, mm/sec
M83  ; extruder relative mode
M104 S215 ; set extruder temp
M140 S60 ; set bed temp
M190 S60 ; wait for bed temp
M109 S215 ; wait for extruder temp
G28 W ; home all without mesh bed level
G80 ; mesh bed leveling
G1 Y-3.0 F1000.0 ; go outside print area
G92 E0.0
G1 X60.0 E9.0  F1000.0 ; intro line
G1 X100.0 E12.5  F1000.0 ; intro line
G92 E0.0
M221 S95
M900 K30; Filament gcode
G21 ; set units to millimeters
G90 ; use absolute coordinates
M83 ; use relative distances for extrusion
;BEFORE_LAYER_CHANGE
;0.2


G1 E-0.80000 F2100.00000
G1 Z0.600 F10200.000
;AFTER_LAYER_CHANGE
;0.2
G1 X99.608 Y58.909
G1 Z0.200
G1 E0.80000 F2100.00000
M204 S1000
G1 F1800
G1 X99.688 Y58.773 E0.00494
G1 X100.567 Y57.786 E0.04142
G1 X101.291 Y57.208 E0.02906
G1 X102.086 Y56.744 E0.02885
G1 X103.515 Y56.194 E0.04801
G1 X105.537 Y55.848 E0.06433
G1 X108.355 Y55.712 E0.08844
G1 X125.350 Y55.643 E0.53288
G1 X140.535 Y55.690 E0.47611
G1 X143.779 Y55.797 E0.10176
G1 X145.644 Y56.003 E0.05884
G1 X146.570 Y56.220 E0.02981
G1 X147.925 Y56.748 E0.04560
G1 X148.708 Y57.207 E0.02845
G1 X149.356 Y57.714 E0.02579
G1 X149.956 Y58.325 E0.02685
G1 X150.690 Y59.352 E0.03958
G1 X151.063 Y60.066 E0.02526
G1 X151.517 Y61.263 E0.04017
G1 X151.825 Y62.751 E0.04762
G1 X151.895 Y65.066 E0.07263
G1 X148.846 Y136.874 E2.25353
G1 X148.586 Y138.550 E0.05318
G1 X148.028 Y140.086 E0.05122
G1 X146.725 Y142.491 E0.08579
G1 X145.983 Y143.632 E0.04267
G1 X145.070 Y144.832 E0.04728
G1 X143.960 Y146.006 E0.05066
G1 X142.352 Y147.327 E0.06524
G1 X136.723 Y150.955 E0.20997
G1 X134.988 Y151.898 E0.06192
G1 X133.308 Y152.643 E0.05763
G1 X131.764 Y153.166 E0.05111
G1 X130.524 Y153.464 E0.04001
G1 X128.537 Y153.737 E0.06286
G1 X123.145 Y154.231 E0.16980
G1 X120.948 Y154.347 E0.06898
G1 X119.084 Y154.330 E0.05845
G1 X116.543 Y154.021 E0.08026
G1 X115.234 Y153.713 E0.04215
G1 X113.721 Y153.241 E0.04968
G1 X110.135 Y151.823 E0.12093
G1 X105.413 Y149.669 E0.16272
G1 X104.798 Y149.260 E0.02314
G1 X104.261 Y148.784 E0.02251
G1 X103.418 Y147.665 E0.04392
G1 X102.788 Y146.223 E0.04934
G1 X102.200 Y144.065 E0.07014
G1 X102.004 Y142.843 E0.03881
G1 X100.988 Y131.128 E0.36870
G1 X98.105 Y65.083 E2.07277
G1 X98.109 Y63.439 E0.05153
G1 X98.296 Y62.017 E0.04498
G1 X98.515 Y61.162 E0.02767
G1 X98.985 Y59.962 E0.04041
G1 X99.578 Y58.960 E0.03649
G1 F8160
G1 X99.688 Y58.773 E-0.05321
G1 X100.567 Y57.786 E-0.32300
G1 X101.291 Y57.208 E-0.22660
G1 X101.846 Y56.884 E-0.15719
G1 E-0.04000 F2100.00000
G1 Z0.800 F10200.000
G1 X108.034 Y64.805
G1 Z0.200
G1 E0.80000 F2100.00000
G1 F1800
G1 X108.270 Y64.504 E0.01200
G1 X108.553 Y64.246 E0.01200
G1 X108.874 Y64.038 E0.01200
G1 X109.225 Y63.885 E0.01200
G1 X109.596 Y63.792 E0.01200
G1 X109.953 Y63.762 E0.01124
G1 X140.047 Y63.762 E0.94358
G1 X140.404 Y63.792 E0.01124
G1 X140.775 Y63.885 E0.01200
G1 X141.126 Y64.038 E0.01200
G1 X141.447 Y64.246 E0.01200
G1 X141.730 Y64.504 E0.01200
G1 X141.966 Y64.805 E0.01200
G1 X142.150 Y65.141 E0.01200
G1 X142.277 Y65.502 E0.01200
G1 X142.342 Y65.879 E0.01200
G1 X142.345 Y66.262 E0.01200
G1 X142.290 Y66.616 E0.01124
G1 X139.055 Y79.903 E0.42877
G1 X138.668 Y81.061 E0.03828
G1 X138.084 Y82.161 E0.03905
G1 X137.325 Y83.149 E0.03905
G1 X136.883 Y83.560 E0.01893
G1 X136.413 Y83.997 E0.02013
G1 X135.373 Y84.682 E0.03905
G1 X134.234 Y85.186 E0.03905
G1 X133.027 Y85.494 E0.03905
G1 X131.810 Y85.595 E0.03828
G1 X118.190 Y85.595 E0.42706
G1 X116.973 Y85.494 E0.03828
G1 X115.766 Y85.186 E0.03905
G1 X114.627 Y84.682 E0.03905
G1 X113.587 Y83.997 E0.03905
G1 X112.675 Y83.149 E0.03905
G1 X111.916 Y82.161 E0.03905
G1 X111.332 Y81.061 E0.03905
G1 X110.945 Y79.903 E0.03828
G1 X107.711 Y66.616 E0.42877
G1 X107.655 Y66.262 E0.01124
G1 X107.658 Y65.879 E0.01200
G1 X107.723 Y65.502 E0.01200
G1 X107.850 Y65.141 E0.01200
G1 X108.005 Y64.858 E0.01012
G1 X108.336 Y65.039 F10200.000
G1 F1800
G1 X108.548 Y64.762 E0.01094
G1 X108.784 Y64.546 E0.01005
G1 X109.053 Y64.371 E0.01005
G1 X109.347 Y64.243 E0.01005
G1 X109.658 Y64.165 E0.01005
G1 X109.968 Y64.139 E0.00978
G1 X140.032 Y64.139 E0.94261
G1 X140.342 Y64.165 E0.00978
G1 X140.653 Y64.243 E0.01005
G1 X140.947 Y64.371 E0.01005
G1 X141.216 Y64.546 E0.01005
G1 X141.452 Y64.762 E0.01005
G1 X141.650 Y65.014 E0.01005
G1 X141.805 Y65.295 E0.01005
G1 X141.911 Y65.597 E0.01005
G1 X141.966 Y65.913 E0.01005
G1 X141.968 Y66.234 E0.01005
G1 X141.919 Y66.542 E0.00978
G1 X138.692 Y79.799 E0.42780
G1 X138.321 Y80.912 E0.03680
G1 X137.766 Y81.956 E0.03708
G1 X137.045 Y82.894 E0.03708
G1 X136.626 Y83.284 E0.01794
G1 X136.179 Y83.699 E0.01914
G1 X135.192 Y84.350 E0.03708
G1 X134.110 Y84.828 E0.03708
G1 X132.964 Y85.121 E0.03708
G1 X131.795 Y85.218 E0.03680
G1 X118.205 Y85.218 E0.42608
G1 X117.036 Y85.121 E0.03680
G1 X115.890 Y84.828 E0.03708
G1 X114.808 Y84.350 E0.03708
G1 X113.821 Y83.699 E0.03708
G1 X112.955 Y82.894 E0.03708
G1 X112.234 Y81.956 E0.03708
G1 X111.679 Y80.912 E0.03708
G1 X111.308 Y79.799 E0.03680
G1 X108.081 Y66.542 E0.42780
G1 X108.032 Y66.234 E0.00978
G1 X108.035 Y65.913 E0.01005
G1 X108.090 Y65.597 E0.01005
G1 X108.195 Y65.295 E0.01005
G1 X108.307 Y65.092 E0.00726
G1 X108.176 Y64.729 F10200.000
G1 F8160
G1 X108.548 Y64.762 E-0.09987
G1 X108.784 Y64.546 E-0.07836
G1 X109.053 Y64.371 E-0.07836
G1 X109.347 Y64.243 E-0.07835
G1 X109.658 Y64.165 E-0.07836
G1 X109.968 Y64.139 E-0.07624
G1 X111.075 Y64.139 E-0.27045
G1 E-0.04000 F2100.00000
G1 Z0.800 F10200.000
G1 X142.501 Y127.994
G1 Z0.200
G1 E0.80000 F2100.00000
G1 F1800
G1 X143.931 Y128.313 E0.04594
G1 X144.040 Y128.372 E0.00389
G1 X144.271 Y128.555 E0.00925
G1 X144.532 Y128.837 E0.01202
G1 X144.805 Y129.225 E0.01488
G1 X145.048 Y129.671 E0.01594
G1 X145.329 Y130.356 E0.02320
G1 X145.447 Y130.733 E0.01237
G1 X145.649 Y131.584 E0.02745
G1 X145.734 Y132.083 E0.01585
G1 X145.862 Y133.226 E0.03605
G1 X145.903 Y133.822 E0.01874
G1 X145.941 Y135.039 E0.03820
G1 X145.920 Y136.177 E0.03567
G1 X145.889 Y136.669 E0.01545
G1 X145.790 Y137.458 E0.02494
G1 X145.630 Y138.103 E0.02084
G1 X145.365 Y138.782 E0.02284
G1 X145.011 Y139.496 E0.02501
G1 X144.217 Y140.911 E0.05087
G1 X143.559 Y141.926 E0.03792
G1 X143.200 Y142.422 E0.01921
G1 X142.817 Y142.905 E0.01932
G1 X142.415 Y143.362 E0.01909
G1 X141.992 Y143.788 E0.01882
G1 X141.503 Y144.228 E0.02063
G1 X141.040 Y144.604 E0.01871
G1 X140.048 Y145.326 E0.03847
G1 X139.003 Y146.016 E0.03924
G1 X136.293 Y147.750 E0.10088
G1 X135.225 Y148.397 E0.03917
G1 X134.182 Y148.981 E0.03746
G1 X133.166 Y149.484 E0.03554
G1 X132.685 Y149.697 E0.01651
G1 X131.731 Y150.067 E0.03208
G1 X130.871 Y150.339 E0.02829
G1 X130.440 Y150.450 E0.01394
G1 X129.579 Y150.621 E0.02751
G1 X128.228 Y150.789 E0.04270
G1 X124.171 Y151.172 E0.12778
G1 X122.483 Y151.306 E0.05307
G1 X121.238 Y151.372 E0.03911
G1 X120.464 Y151.392 E0.02427
G1 X119.329 Y151.375 E0.03557
G1 X118.649 Y151.331 E0.02138
G1 X117.993 Y151.259 E0.02070
G1 X117.353 Y151.159 E0.02029
G1 X116.661 Y151.017 E0.02215
G1 X116.021 Y150.856 E0.02069
G1 X115.366 Y150.663 E0.02143
G1 X114.301 Y150.302 E0.03525
G1 X112.833 Y149.737 E0.04932
G1 X111.307 Y149.100 E0.05185
G1 X108.061 Y147.667 E0.11126
G1 X107.403 Y147.365 E0.02268
G1 X106.941 Y147.128 E0.01629
G1 X106.617 Y146.917 E0.01212
G1 X106.363 Y146.692 E0.01063
G1 X106.187 Y146.488 E0.00846
G1 X106.003 Y146.214 E0.01034
G1 X105.730 Y145.643 E0.01984
G1 X105.467 Y144.855 E0.02605
G1 X105.208 Y143.911 E0.03069
G1 X105.078 Y143.351 E0.01803
G1 X104.978 Y142.785 E0.01804
G1 X104.930 Y142.247 E0.01693
G1 X104.945 Y141.755 E0.01542
G1 X105.043 Y141.228 E0.01682
G1 X105.178 Y140.812 E0.01370
G1 X105.405 Y140.326 E0.01684
G1 X105.744 Y139.765 E0.02053
G1 X106.081 Y139.293 E0.01819
G1 X106.498 Y138.786 E0.02058
G1 X106.942 Y138.313 E0.02034
G1 X107.495 Y137.809 E0.02346
G1 X108.070 Y137.376 E0.02257
G1 X108.392 Y136.954 E0.01663
G1 X108.640 Y136.536 E0.01524
G1 X108.824 Y136.071 E0.01568
G1 X108.912 Y135.563 E0.01618
G1 X108.878 Y135.029 E0.01676
G1 X108.124 Y131.387 E0.11663
G1 X106.454 Y131.649 E0.05300
G1 X105.621 Y131.704 E0.02618
G1 X105.173 Y131.698 E0.01406
G1 X104.688 Y131.662 E0.01524
G1 X104.173 Y131.589 E0.01632
G1 X104.002 Y131.553 E0.00546
G1 X103.976 Y131.383 E0.00538
G1 X103.951 Y131.011 E0.01170
G1 X103.968 Y130.793 E0.00685
G1 X104.001 Y130.677 E0.00378
G1 X104.043 Y130.602 E0.00269
G1 X104.390 Y130.200 E0.01667
G1 X104.529 Y129.978 E0.00820
G1 X104.634 Y129.716 E0.00884
G1 X104.740 Y129.185 E0.01699
G1 X104.927 Y127.529 E0.05227
G1 X105.082 Y126.417 E0.03520
G1 X105.278 Y125.335 E0.03447
G1 X105.384 Y124.895 E0.01419
G1 X105.499 Y124.525 E0.01214
G1 X105.628 Y124.221 E0.01036
G1 X105.777 Y123.966 E0.00926
G1 X105.928 Y123.773 E0.00770
G1 X106.375 Y123.344 E0.01941
G1 X106.148 Y122.220 E0.03595
G1 X106.031 Y121.358 E0.02727
G1 X105.958 Y120.416 E0.02964
G1 X105.933 Y119.304 E0.03486
G1 X105.820 Y118.907 E0.01295
G1 X105.734 Y118.284 E0.01973
G1 X105.659 Y117.397 E0.02791
G1 X105.627 Y116.378 E0.03196
G1 X105.654 Y115.318 E0.03325
G1 X105.731 Y114.259 E0.03329
G1 X105.902 Y112.696 E0.04928
G1 X106.180 Y110.640 E0.06506
G1 X106.458 Y109.109 E0.04879
G1 X107.242 Y105.768 E0.10759
G1 X107.848 Y102.866 E0.09295
G1 X108.097 Y101.961 E0.02945
G1 X108.244 Y101.563 E0.01330
G1 X108.418 Y101.189 E0.01294
G1 X108.647 Y100.824 E0.01351
G1 X108.973 Y100.431 E0.01600
G1 X109.447 Y99.980 E0.02051
G1 X109.771 Y99.713 E0.01318
G1 X110.465 Y99.204 E0.02696
G1 X111.140 Y98.780 E0.02501
G1 X111.730 Y98.493 E0.02056
G1 X112.478 Y98.264 E0.02452
G1 X112.235 Y96.927 E0.04261
G1 X112.057 Y96.360 E0.01862
G1 X110.260 Y91.631 E0.15861
G1 X108.932 Y88.224 E0.11467
G1 X107.671 Y85.061 E0.10675
G1 X103.989 Y76.096 E0.30389
G1 X103.290 Y74.268 E0.06135
G1 X102.792 Y72.845 E0.04727
G1 X102.366 Y71.511 E0.04391
G1 X102.009 Y70.265 E0.04064
G1 X101.716 Y69.109 E0.03739
G1 X101.385 Y67.531 E0.05056
G1 X101.179 Y66.189 E0.04257
G1 X101.090 Y65.294 E0.02819
G1 X101.048 Y64.251 E0.03275
G1 X101.068 Y63.628 E0.01954
G1 X101.123 Y63.065 E0.01775
G1 X101.211 Y62.556 E0.01619
G1 X101.329 Y62.092 E0.01500
G1 X101.476 Y61.664 E0.01419
G1 X101.649 Y61.262 E0.01372
G1 X101.848 Y60.885 E0.01337
G1 X102.072 Y60.536 E0.01300
G1 X102.327 Y60.217 E0.01281
G1 X102.618 Y59.926 E0.01291
G1 X102.955 Y59.663 E0.01339
G1 X103.345 Y59.427 E0.01430
G1 X103.799 Y59.220 E0.01565
G1 X104.325 Y59.046 E0.01736
G1 X104.953 Y58.907 E0.02019
G1 X105.830 Y58.798 E0.02770
G1 X106.404 Y58.755 E0.01803
G1 X107.553 Y58.701 E0.03609
G1 X109.517 Y58.654 E0.06158
G1 X114.931 Y58.614 E0.16976
G1 X135.502 Y58.615 E0.64499
G1 X140.483 Y58.654 E0.15620
G1 X142.447 Y58.701 E0.06158
G1 X144.170 Y58.798 E0.05412
G1 X145.047 Y58.907 E0.02770
G1 X145.675 Y59.046 E0.02019
G1 X146.201 Y59.220 E0.01736
G1 X146.655 Y59.427 E0.01565
G1 X147.045 Y59.663 E0.01430
G1 X147.382 Y59.926 E0.01339
G1 X147.673 Y60.217 E0.01291
G1 X147.928 Y60.536 E0.01281
G1 X148.152 Y60.885 E0.01300
G1 X148.351 Y61.262 E0.01337
G1 X148.524 Y61.664 E0.01372
G1 X148.671 Y62.092 E0.01419
G1 X148.789 Y62.556 E0.01500
G1 X148.877 Y63.065 E0.01619
G1 X148.932 Y63.628 E0.01775
G1 X148.952 Y64.254 E0.01965
G1 X148.933 Y64.952 E0.02188
G1 X148.873 Y65.724 E0.02429
G1 X148.689 Y67.097 E0.04343
G1 X148.409 Y68.560 E0.04669
G1 X147.991 Y70.267 E0.05512
G1 X147.634 Y71.509 E0.04050
G1 X146.968 Y73.547 E0.06722
G1 X146.270 Y75.435 E0.06312
G1 X145.468 Y77.440 E0.06772
G1 X142.851 Y83.774 E0.21487
G1 X141.437 Y87.292 E0.11887
G1 X139.579 Y92.050 E0.16017
G1 X137.357 Y97.929 E0.19707
G1 X137.201 Y98.415 E0.01600
G1 X137.090 Y98.922 E0.01625
G1 X137.018 Y99.444 E0.01654
G1 X136.970 Y100.019 E0.01810
G1 X136.941 Y101.346 E0.04162
G1 X136.978 Y102.538 E0.03739
G1 X137.139 Y104.716 E0.06847
G1 X137.210 Y106.365 E0.05176
G1 X137.315 Y107.964 E0.05024
G1 X137.689 Y112.563 E0.14466
G1 X137.757 Y113.043 E0.01522
G1 X137.873 Y113.543 E0.01609
G1 X138.224 Y114.461 E0.03081
G1 X138.485 Y114.940 E0.01710
G1 X139.376 Y116.042 E0.04444
G1 X140.202 Y116.887 E0.03706
G1 X140.775 Y117.568 E0.02790
G1 X141.107 Y118.017 E0.01750
G1 X141.855 Y119.163 E0.04292
G1 X142.482 Y120.233 E0.03886
G1 X142.956 Y121.125 E0.03169
G1 X143.342 Y121.948 E0.02849
G1 X143.653 Y122.744 E0.02681
G1 X143.884 Y123.488 E0.02441
G1 X144.105 Y124.444 E0.03077
G1 X144.245 Y125.382 E0.02973
G1 X144.255 Y125.651 E0.00846
G1 X144.233 Y125.861 E0.00661
G1 X144.174 Y126.079 E0.00709
G1 X144.068 Y126.348 E0.00906
G1 X143.925 Y126.633 E0.00999
G1 X143.766 Y126.885 E0.00935
G1 X143.616 Y127.066 E0.00736
G1 X142.547 Y127.955 E0.04359
G1 X143.332 Y127.793 F10200.000
G1 F1800
G1 X144.064 Y127.957 E0.02352
G1 X144.248 Y128.056 E0.00656
G1 X144.528 Y128.278 E0.01121
G1 X144.825 Y128.599 E0.01372
G1 X145.126 Y129.025 E0.01634
G1 X145.390 Y129.509 E0.01728
G1 X145.684 Y130.228 E0.02436
G1 X145.811 Y130.632 E0.01329
G1 X146.019 Y131.509 E0.02825
G1 X146.108 Y132.030 E0.01657
G1 X146.238 Y133.192 E0.03665
G1 X146.280 Y133.803 E0.01922
G1 X146.318 Y135.037 E0.03871
G1 X146.297 Y136.192 E0.03623
G1 X146.265 Y136.704 E0.01608
G1 X146.161 Y137.527 E0.02601
G1 X145.990 Y138.218 E0.02230
G1 X145.711 Y138.934 E0.02412
G1 X145.344 Y139.673 E0.02584
G1 X144.540 Y141.106 E0.05154
G1 X143.870 Y142.139 E0.03861
G1 X143.500 Y142.650 E0.01977
G1 X143.106 Y143.147 E0.01988
G1 X142.690 Y143.619 E0.01974
G1 X142.252 Y144.061 E0.01951
G1 X141.748 Y144.514 E0.02126
G1 X141.270 Y144.903 E0.01932
G1 X140.262 Y145.636 E0.03905
G1 X139.209 Y146.332 E0.03960
G1 X136.492 Y148.070 E0.10111
G1 X135.415 Y148.723 E0.03952
G1 X134.358 Y149.315 E0.03797
G1 X133.326 Y149.825 E0.03609
G1 X132.829 Y150.045 E0.01704
G1 X131.856 Y150.423 E0.03274
G1 X130.975 Y150.701 E0.02898
G1 X130.524 Y150.818 E0.01459
G1 X129.639 Y150.994 E0.02828
G1 X128.269 Y151.164 E0.04330
G1 X124.203 Y151.548 E0.12805
G1 X122.508 Y151.683 E0.05332
G1 X121.252 Y151.749 E0.03943
G1 X120.466 Y151.769 E0.02467
G1 X119.314 Y151.752 E0.03611
G1 X118.616 Y151.706 E0.02194
G1 X117.943 Y151.633 E0.02123
G1 X117.286 Y151.530 E0.02085
G1 X116.577 Y151.385 E0.02269
G1 X115.922 Y151.220 E0.02118
G1 X115.252 Y151.023 E0.02191
G1 X114.173 Y150.657 E0.03573
G1 X112.693 Y150.087 E0.04972
G1 X111.158 Y149.446 E0.05214
G1 X107.906 Y148.011 E0.11146
G1 X107.238 Y147.704 E0.02303
G1 X106.752 Y147.454 E0.01715
G1 X106.388 Y147.218 E0.01361
G1 X106.094 Y146.958 E0.01230
G1 X105.886 Y146.717 E0.00997
G1 X105.679 Y146.408 E0.01168
G1 X105.531 Y146.127 E0.00994
G1 X105.377 Y145.779 E0.01193
G1 X105.106 Y144.965 E0.02691
G1 X104.843 Y144.004 E0.03124
G1 X104.708 Y143.427 E0.01858
G1 X104.604 Y142.834 E0.01886
G1 X104.552 Y142.258 E0.01814
G1 X104.569 Y141.715 E0.01705
G1 X104.677 Y141.135 E0.01850
G1 X104.826 Y140.673 E0.01521
G1 X105.072 Y140.148 E0.01820
G1 X105.429 Y139.558 E0.02160
G1 X105.782 Y139.064 E0.01904
G1 X106.214 Y138.537 E0.02137
G1 X106.674 Y138.047 E0.02107
G1 X107.258 Y137.516 E0.02474
G1 X107.802 Y137.106 E0.02136
G1 X108.079 Y136.743 E0.01432
G1 X108.300 Y136.370 E0.01361
G1 X108.459 Y135.969 E0.01352
G1 X108.532 Y135.542 E0.01357
G1 X108.503 Y135.080 E0.01454
G1 X107.828 Y131.815 E0.10453
G1 X106.496 Y132.024 E0.04227
G1 X105.631 Y132.081 E0.02719
G1 X105.156 Y132.075 E0.01489
G1 X104.647 Y132.037 E0.01599
G1 X104.107 Y131.960 E0.01711
G1 X103.670 Y131.868 E0.01402
G1 X103.601 Y131.425 E0.01406
G1 X103.573 Y131.009 E0.01306
G1 X103.595 Y130.725 E0.00892
G1 X103.651 Y130.532 E0.00632
G1 X103.732 Y130.386 E0.00523
G1 X104.086 Y129.976 E0.01699
G1 X104.191 Y129.807 E0.00624
