; generated by PrusaSlicer 2.1.1+win64 on 2020-05-07 at 01:55:45 UTC

; 

; external perimeters extrusion width = 0.45mm
; perimeters extrusion width = 0.45mm
; infill extrusion width = 0.45mm
; solid infill extrusion width = 0.45mm
; top infill extrusion width = 0.40mm
; first layer extrusion width = 0.42mm

M201 X9000 Y9000 Z500 E10000 ; sets maximum accelerations, mm/sec^2
M203 X500 Y500 Z12 E120 ; sets maximum feedrates, mm/sec
M204 P1500 R1500 T1500 ; sets acceleration (P, T) and retract acceleration (R), mm/sec^2
M205 X10.00 Y10.00 Z0.20 E2.50 ; sets the jerk limits, mm/sec
M205 S0 T0 ; sets the minimum extruding and travel feed rate, mm/sec
M107
M104 S200 ; set temperature
G28 ; home all axes
G1 Z5 F5000 ; lift nozzle
M109 S200 ; set temperature and wait for it to be reached
G21 ; set units to millimeters
G90 ; use absolute coordinates
M82 ; use absolute distances for extrusion
G92 E0
; Filament gcode
G1 Z0.200 F7800.000
G1 E-2.00000 F2400.00000
G92 E0
G1 X0.411 Y68.357 F7800.000
G1 E2.00000 F2400.00000
G1 F1800
G1 X1.238 Y67.886 E2.02984
G1 X2.122 Y67.550 E2.05949
G1 X2.974 Y67.363 E2.08683
G1 X3.843 Y67.298 E2.11417
G1 X245.876 Y66.326 E9.70301
G1 X247.061 Y66.441 E9.74033
G1 X248.208 Y66.784 E9.77785
G1 X249.262 Y67.338 E9.81518
G1 X250.190 Y68.083 E9.85250
G1 X250.959 Y68.992 E9.88983
G1 X251.539 Y70.031 E9.92715
G1 X251.911 Y71.168 E9.96467
G1 X252.057 Y72.350 E10.00200
G1 X252.305 Y136.882 E12.02537
G1 X252.177 Y137.819 E12.05502
G1 X251.907 Y138.725 E12.08466
G1 X251.503 Y139.580 E12.11431
G1 X250.973 Y140.363 E12.14396
G1 X250.326 Y141.060 E12.17380
G1 X249.584 Y141.647 E12.20344
G1 X248.762 Y142.114 E12.23309
G1 X247.878 Y142.450 E12.26274
G1 X247.026 Y142.637 E12.29008
G1 X246.157 Y142.702 E12.31742
G1 X4.050 Y143.674 E19.90857
G1 X3.072 Y143.583 E19.93937
G1 X2.120 Y143.339 E19.97017
G1 X1.219 Y142.947 E20.00097
G1 X0.392 Y142.418 E20.03177
G1 X-0.342 Y141.765 E20.06257
G1 X-0.962 Y141.003 E20.09337
G1 X-1.455 Y140.153 E20.12417
G1 X-1.806 Y139.236 E20.15497
G1 X-1.992 Y138.397 E20.18192
G1 X-2.059 Y137.533 E20.20907
G1 X-2.307 Y73.149 E22.22782
G1 X-2.182 Y72.205 E22.25766
G1 X-1.914 Y71.292 E22.28750
G1 X-1.509 Y70.431 E22.31734
G1 X-0.981 Y69.647 E22.34698
G1 X-0.335 Y68.948 E22.37682
G1 X0.364 Y68.394 E22.40478
G1 E20.40478 F2400.00000
G92 E0
G1 X18.425 Y135.209 F7800.000
G1 E2.00000 F2400.00000
G1 F1800
G1 X12.333 Y107.606 E2.88630
G1 X12.123 Y106.178 E2.93154
G1 X12.117 Y104.729 E2.97700
G1 X12.315 Y103.300 E3.02223
G1 X18.186 Y75.648 E3.90853
G1 X18.278 Y75.497 E3.91410
G1 X18.480 Y75.425 E3.92083
G1 X18.683 Y75.495 E3.92757
G1 X18.777 Y75.646 E3.93313
G1 X24.869 Y103.249 E4.81943
G1 X25.079 Y104.676 E4.86467
G1 X25.085 Y106.126 E4.91013
G1 X24.886 Y107.555 E4.95536
G1 X19.016 Y135.206 E5.84166
G1 X18.924 Y135.358 E5.84723
G1 X18.721 Y135.430 E5.85396
G1 X18.518 Y135.360 E5.86070
G1 X18.456 Y135.260 E5.86438
G1 X18.026 Y135.181 F7800.000
G1 E3.86438 F2400.00000
G92 E0
G1 X32.478 Y75.440 F7800.000
G1 E2.00000 F2400.00000
G1 F1800
G1 X32.680 Y75.368 E2.00674
G1 X32.883 Y75.438 E2.01347
G1 X32.977 Y75.589 E2.01904
G1 X39.069 Y103.192 E2.90534
G1 X39.279 Y104.619 E2.95057
G1 X39.285 Y106.069 E2.99603
G1 X39.086 Y107.498 E3.04127
G1 X33.216 Y135.149 E3.92757
G1 X33.124 Y135.301 E3.93313
G1 X32.921 Y135.373 E3.93987
G1 X32.718 Y135.303 E3.94660
G1 X32.625 Y135.152 E3.95217
G1 X26.533 Y107.549 E4.83847
G1 X26.323 Y106.121 E4.88370
G1 X26.317 Y104.671 E4.92916
G1 X26.515 Y103.242 E4.97440
G1 X32.385 Y75.591 E5.86070
G1 X32.447 Y75.491 E5.86438
G1 X32.444 Y75.228 F7800.000
G1 E3.86438 F2400.00000
G92 E0
G1 X46.678 Y75.383 F7800.000
G1 E2.00000 F2400.00000
G1 F1800
G1 X46.880 Y75.311 E2.00674
G1 X47.083 Y75.381 E2.01347
G1 X47.177 Y75.532 E2.01904
G1 X53.269 Y103.135 E2.90534
G1 X53.479 Y104.562 E2.95057
G1 X53.484 Y106.012 E2.99603
G1 X53.286 Y107.441 E3.04127
G1 X47.416 Y135.092 E3.92757
G1 X47.324 Y135.244 E3.93313
G1 X47.121 Y135.316 E3.93987
G1 X46.918 Y135.246 E3.94660
G1 X46.825 Y135.095 E3.95217
G1 X40.733 Y107.492 E4.83847
G1 X40.523 Y106.064 E4.88370
G1 X40.517 Y104.614 E4.92916
G1 X40.715 Y103.185 E4.97440
G1 X46.585 Y75.534 E5.86070
G1 X46.646 Y75.434 E5.86438
G1 X46.644 Y75.171 F7800.000
G1 E3.86438 F2400.00000
G92 E0
G1 X60.877 Y75.326 F7800.000
G1 E2.00000 F2400.00000
G1 F1800
G1 X61.080 Y75.254 E2.00674
G1 X61.283 Y75.324 E2.01347
G1 X61.377 Y75.475 E2.01904
G1 X67.469 Y103.078 E2.90534
G1 X67.679 Y104.505 E2.95057
G1 X67.684 Y105.955 E2.99603
G1 X67.486 Y107.384 E3.04127
G1 X61.616 Y135.035 E3.92757
G1 X61.524 Y135.187 E3.93313
G1 X61.321 Y135.258 E3.93987
G1 X61.118 Y135.188 E3.94660
G1 X61.024 Y135.038 E3.95217
G1 X54.932 Y107.435 E4.83847
G1 X54.722 Y106.007 E4.88370
G1 X54.717 Y104.557 E4.92916
G1 X54.915 Y103.128 E4.97440
G1 X60.785 Y75.477 E5.86070
G1 X60.846 Y75.377 E5.86438
G1 X60.844 Y75.114 F7800.000
G1 E3.86438 F2400.00000
G92 E0
G1 X75.077 Y75.269 F7800.000
G1 E2.00000 F2400.00000
G1 F1800
G1 X75.280 Y75.197 E2.00674
G1 X75.483 Y75.267 E2.01347
G1 X75.576 Y75.418 E2.01904
G1 X81.669 Y103.021 E2.90534
G1 X81.878 Y104.448 E2.95057
G1 X81.884 Y105.898 E2.99603
G1 X81.686 Y107.327 E3.04127
G1 X75.816 Y134.978 E3.92757
G1 X75.723 Y135.130 E3.93313
G1 X75.521 Y135.201 E3.93987
G1 X75.318 Y135.131 E3.94660
G1 X75.224 Y134.981 E3.95217
G1 X69.132 Y107.378 E4.83847
G1 X68.922 Y105.950 E4.88370
G1 X68.917 Y104.500 E4.92916
G1 X69.115 Y103.071 E4.97440
G1 X74.985 Y75.420 E5.86070
G1 X75.046 Y75.320 E5.86438
G1 X75.044 Y75.056 F7800.000
G1 E3.86438 F2400.00000
G92 E0
G1 X89.277 Y75.212 F7800.000
G1 E2.00000 F2400.00000
G1 F1800
G1 X89.480 Y75.140 E2.00674
G1 X89.683 Y75.210 E2.01347
G1 X89.776 Y75.361 E2.01904
G1 X95.868 Y102.964 E2.90534
G1 X96.078 Y104.391 E2.95057
G1 X96.084 Y105.841 E2.99603
G1 X95.886 Y107.270 E3.04127
G1 X90.016 Y134.921 E3.92757
G1 X89.923 Y135.073 E3.93313
G1 X89.721 Y135.144 E3.93987
G1 X89.518 Y135.074 E3.94660
G1 X89.424 Y134.924 E3.95217
G1 X83.332 Y107.321 E4.83847
G1 X83.122 Y105.893 E4.88370
G1 X83.116 Y104.443 E4.92916
G1 X83.315 Y103.014 E4.97440
G1 X89.185 Y75.363 E5.86070
G1 X89.246 Y75.263 E5.86438
G1 X89.244 Y74.999 F7800.000
G1 E3.86438 F2400.00000
G92 E0
G1 X103.477 Y75.155 F7800.000
G1 E2.00000 F2400.00000
G1 F1800
G1 X103.680 Y75.083 E2.00674
G1 X103.883 Y75.153 E2.01347
G1 X103.976 Y75.304 E2.01904
G1 X110.068 Y102.907 E2.90534
G1 X110.278 Y104.334 E2.95057
G1 X110.284 Y105.784 E2.99603
G1 X110.086 Y107.213 E3.04127
G1 X104.215 Y134.864 E3.92757
G1 X104.123 Y135.016 E3.93313
G1 X103.921 Y135.087 E3.93987
G1 X103.718 Y135.017 E3.94660
G1 X103.624 Y134.867 E3.95217
G1 X97.532 Y107.263 E4.83847
G1 X97.322 Y105.836 E4.88370
G1 X97.316 Y104.386 E4.92916
G1 X97.515 Y102.957 E4.97440
G1 X103.385 Y75.306 E5.86070
G1 X103.446 Y75.206 E5.86438
G1 X103.444 Y74.942 F7800.000
G1 X103.501 Y74.746
G1 F1800
G1 X103.586 Y74.348 E5.87714
G1 X103.768 Y74.347 E5.88287
G1 X103.856 Y74.745 E5.89564
G1 X103.678 Y74.684 E5.90154
G1 X103.558 Y74.726 E5.90554
G1 E3.90554 F2400.00000
G92 E0
G1 X117.677 Y75.098 F7800.000
G1 E2.00000 F2400.00000
G1 F1800
G1 X117.880 Y75.026 E2.00674
G1 X118.083 Y75.096 E2.01347
G1 X118.176 Y75.247 E2.01904
G1 X124.268 Y102.850 E2.90534
G1 X124.478 Y104.277 E2.95057
G1 X124.484 Y105.727 E2.99603
G1 X124.285 Y107.156 E3.04127
G1 X118.415 Y134.807 E3.92757
G1 X118.323 Y134.959 E3.93313
G1 X118.121 Y135.030 E3.93987
G1 X117.917 Y134.960 E3.94660
G1 X117.824 Y134.809 E3.95217
G1 X111.732 Y107.206 E4.83847
G1 X111.522 Y105.779 E4.88371
G1 X111.516 Y104.329 E4.92916
G1 X111.715 Y102.900 E4.97440
G1 X117.585 Y75.249 E5.86070
G1 X117.646 Y75.149 E5.86438
G1 X117.644 Y74.885 F7800.000
G1 E3.86438 F2400.00000
G92 E0
G1 X131.772 Y75.254 F7800.000
G1 E2.00000 F2400.00000
G1 F1800
G1 X132.190 Y75.252 E2.01310
G1 X138.268 Y102.794 E2.89742
G1 X138.478 Y104.221 E2.94266
G1 X138.484 Y105.671 E2.98812
G1 X138.285 Y107.100 E3.03335
G1 X132.428 Y134.689 E3.91767
G1 X132.011 Y134.691 E3.93077
G1 X125.932 Y107.149 E4.81509
G1 X125.722 Y105.722 E4.86033
G1 X125.716 Y104.272 E4.90579
G1 X125.915 Y102.843 E4.95102
G1 X131.759 Y75.313 E5.83346
G1 X131.798 Y74.855 F7800.000
G1 E3.83346 F2400.00000
G92 E0
G1 X145.877 Y74.984 F7800.000
G1 E2.00000 F2400.00000
G1 F1800
G1 X146.079 Y74.913 E2.00674
G1 X146.282 Y74.983 E2.01347
G1 X146.376 Y75.133 E2.01904
G1 X152.468 Y102.737 E2.90534
G1 X152.678 Y104.164 E2.95057
G1 X152.684 Y105.614 E2.99603
G1 X152.485 Y107.043 E3.04127
G1 X146.615 Y134.694 E3.92757
G1 X146.523 Y134.845 E3.93313
G1 X146.320 Y134.917 E3.93987
G1 X146.117 Y134.847 E3.94660
G1 X146.024 Y134.696 E3.95217
G1 X139.932 Y107.093 E4.83847
G1 X139.722 Y105.666 E4.88370
G1 X139.716 Y104.216 E4.92916
G1 X139.914 Y102.787 E4.97440
G1 X145.785 Y75.136 E5.86070
G1 X145.846 Y75.036 E5.86438
G1 X145.843 Y74.772 F7800.000
G1 E3.86438 F2400.00000
G92 E0
G1 X160.077 Y74.927 F7800.000
G1 E2.00000 F2400.00000
G1 F1800
G1 X160.279 Y74.856 E2.00674
G1 X160.482 Y74.926 E2.01347
G1 X160.576 Y75.076 E2.01904
G1 X166.668 Y102.679 E2.90534
G1 X166.878 Y104.107 E2.95057
G1 X166.884 Y105.557 E2.99603
G1 X166.685 Y106.986 E3.04127
G1 X160.815 Y134.637 E3.92757
G1 X160.723 Y134.788 E3.93313
G1 X160.520 Y134.860 E3.93987
G1 X160.317 Y134.790 E3.94660
G1 X160.224 Y134.639 E3.95217
G1 X154.132 Y107.036 E4.83847
G1 X153.922 Y105.609 E4.88370
G1 X153.916 Y104.159 E4.92916
G1 X154.114 Y102.730 E4.97440
G1 X159.984 Y75.079 E5.86070
G1 X160.045 Y74.979 E5.86438
G1 X160.043 Y74.715 F7800.000
G1 E3.86438 F2400.00000
G92 E0
G1 X174.277 Y74.870 F7800.000
G1 E2.00000 F2400.00000
G1 F1800
G1 X174.479 Y74.799 E2.00674
G1 X174.682 Y74.869 E2.01347
G1 X174.776 Y75.019 E2.01903
G1 X180.868 Y102.622 E2.90534
G1 X181.078 Y104.050 E2.95057
G1 X181.083 Y105.500 E2.99603
G1 X180.885 Y106.929 E3.04127
G1 X175.015 Y134.580 E3.92757
G1 X174.923 Y134.731 E3.93313
G1 X174.720 Y134.803 E3.93987
G1 X174.517 Y134.733 E3.94660
G1 X174.424 Y134.582 E3.95217
G1 X168.331 Y106.979 E4.83847
G1 X168.122 Y105.552 E4.88370
G1 X168.116 Y104.102 E4.92916
G1 X168.314 Y102.673 E4.97440
G1 X174.184 Y75.022 E5.86070
G1 X174.245 Y74.921 E5.86438
G1 X174.243 Y74.658 F7800.000
G1 E3.86438 F2400.00000
G92 E0
G1 X188.476 Y74.813 F7800.000
G1 E2.00000 F2400.00000
G1 F1800
G1 X188.679 Y74.742 E2.00674
G1 X188.882 Y74.812 E2.01347
G1 X188.976 Y74.962 E2.01903
G1 X195.068 Y102.565 E2.90534
G1 X195.278 Y103.993 E2.95057
G1 X195.283 Y105.443 E2.99603
G1 X195.085 Y106.872 E3.04127
G1 X189.215 Y134.523 E3.92757
G1 X189.123 Y134.674 E3.93313
G1 X188.920 Y134.746 E3.93987
G1 X188.717 Y134.676 E3.94660
G1 X188.623 Y134.525 E3.95217
G1 X182.531 Y106.922 E4.83847
G1 X182.321 Y105.495 E4.88370
G1 X182.316 Y104.045 E4.92916
G1 X182.514 Y102.616 E4.97440
G1 X188.384 Y74.965 E5.86070
G1 X188.445 Y74.864 E5.86438
G1 X188.443 Y74.601 F7800.000
G1 E3.86438 F2400.00000
G92 E0
G1 X202.676 Y74.756 F7800.000
G1 E2.00000 F2400.00000
G1 F1800
G1 X202.879 Y74.684 E2.00674
G1 X203.082 Y74.755 E2.01347
G1 X203.175 Y74.905 E2.01904
G1 X209.267 Y102.508 E2.90534
G1 X209.477 Y103.936 E2.95057
G1 X209.483 Y105.386 E2.99603
G1 X209.285 Y106.815 E3.04127
G1 X203.415 Y134.466 E3.92757
G1 X203.322 Y134.617 E3.93313
G1 X203.120 Y134.689 E3.93987
G1 X202.917 Y134.619 E3.94660
G1 X202.823 Y134.468 E3.95217
G1 X196.731 Y106.865 E4.83847
G1 X196.521 Y105.438 E4.88370
G1 X196.516 Y103.988 E4.92916
G1 X196.714 Y102.559 E4.97440
G1 X202.584 Y74.908 E5.86070
G1 X202.645 Y74.807 E5.86438
G1 X202.643 Y74.544 F7800.000
G1 E3.86438 F2400.00000
G92 E0
G1 X216.876 Y74.699 F7800.000
G1 E2.00000 F2400.00000
G1 F1800
G1 X217.079 Y74.627 E2.00674
G1 X217.282 Y74.697 E2.01347
G1 X217.375 Y74.848 E2.01904
G1 X223.467 Y102.451 E2.90534
G1 X223.677 Y103.879 E2.95057
G1 X223.683 Y105.329 E2.99603
G1 X223.485 Y106.758 E3.04127
G1 X217.615 Y134.409 E3.92757
G1 X217.522 Y134.560 E3.93313
G1 X217.320 Y134.632 E3.93987
G1 X217.117 Y134.562 E3.94661
G1 X217.023 Y134.411 E3.95217
G1 X210.931 Y106.808 E4.83847
G1 X210.721 Y105.381 E4.88371
G1 X210.715 Y103.931 E4.92917
G1 X210.914 Y102.502 E4.97440
G1 X216.784 Y74.851 E5.86070
G1 X216.845 Y74.750 E5.86438
G1 X216.843 Y74.487 F7800.000
G1 X216.900 Y74.291
G1 F1800
G1 X216.985 Y73.892 E5.87715
G1 X217.167 Y73.892 E5.88287
G1 X217.255 Y74.289 E5.89564
G1 X217.077 Y74.228 E5.90154
G1 X216.957 Y74.271 E5.90554
G1 E3.90554 F2400.00000
G92 E0
G1 X231.076 Y74.642 F7800.000
G1 E2.00000 F2400.00000
G1 F1800
G1 X231.279 Y74.570 E2.00674
G1 X231.482 Y74.640 E2.01347
G1 X231.575 Y74.791 E2.01904
G1 X237.667 Y102.394 E2.90534
G1 X237.877 Y103.822 E2.95057
G1 X237.883 Y105.271 E2.99603
G1 X237.685 Y106.700 E3.04127
G1 X231.814 Y134.352 E3.92757
G1 X231.722 Y134.503 E3.93313
G1 X231.520 Y134.575 E3.93987
G1 X231.317 Y134.505 E3.94661
G1 X231.223 Y134.354 E3.95217
G1 X225.131 Y106.751 E4.83847
G1 X224.921 Y105.324 E4.88371
G1 X224.915 Y103.874 E4.92917
G1 X225.114 Y102.445 E4.97440
G1 X230.984 Y74.794 E5.86070
G1 X231.045 Y74.693 E5.86438
G1 X231.043 Y74.430 F7800.000
G1 E3.86438 F2400.00000
G92 E0
G1 X224.815 Y102.036 F7800.000
G1 E2.00000 F2400.00000
G1 F1800
G1 X224.742 Y102.380 E2.01102
G1 X224.538 Y103.848 E2.05752
G1 X224.544 Y105.352 E2.10466
G1 X224.760 Y106.819 E2.15116
G1 X224.836 Y107.162 E2.16218
G1 X224.309 Y106.978 E2.17968
G1 X223.783 Y107.167 E2.19717
G1 X223.856 Y106.823 E2.20819
G1 X224.060 Y105.354 E2.25469
G1 X224.054 Y103.850 E2.30183
G1 X223.838 Y102.383 E2.34833
G1 X223.763 Y102.040 E2.35935
G1 X224.290 Y102.224 E2.37685
G1 X224.759 Y102.056 E2.39247
G1 E0.39247 F2400.00000
G92 E0
G1 X237.963 Y101.983 F7800.000
G1 E2.00000 F2400.00000
G1 F1800
G1 X238.490 Y102.167 E2.01750
G1 X239.015 Y101.979 E2.03500
G1 X238.942 Y102.322 E2.04602
G1 X238.738 Y103.791 E2.09251
G1 X238.744 Y105.295 E2.13966
G1 X238.960 Y106.762 E2.18615
G1 X239.036 Y107.105 E2.19717
G1 X238.509 Y106.921 E2.21467
G1 X237.983 Y107.109 E2.23217
G1 X238.056 Y106.766 E2.24319
G1 X238.260 Y105.297 E2.28969
G1 X238.254 Y103.793 E2.33683
G1 X238.038 Y102.326 E2.38333
G1 X237.976 Y102.041 E2.39247
G1 E0.39247 F2400.00000
G92 E0
G1 X210.615 Y102.093 F7800.000
G1 E2.00000 F2400.00000
G1 F1800
G1 X210.542 Y102.437 E2.01102
G1 X210.338 Y103.905 E2.05752
G1 X210.344 Y105.409 E2.10466
G1 X210.560 Y106.876 E2.15116
G1 X210.636 Y107.219 E2.16218
G1 X210.109 Y107.035 E2.17968
G1 X209.583 Y107.224 E2.19717
G1 X209.656 Y106.880 E2.20820
G1 X209.860 Y105.411 E2.25469
G1 X209.854 Y103.907 E2.30183
G1 X209.639 Y102.440 E2.34833
G1 X209.563 Y102.097 E2.35935
G1 X210.090 Y102.281 E2.37685
G1 X210.559 Y102.113 E2.39247
G1 E0.39247 F2400.00000
G92 E0
G1 X196.415 Y102.150 F7800.000
G1 E2.00000 F2400.00000
G1 F1800
G1 X196.342 Y102.494 E2.01102
G1 X196.138 Y103.962 E2.05752
G1 X196.144 Y105.466 E2.10466
G1 X196.360 Y106.933 E2.15116
G1 X196.436 Y107.276 E2.16218
G1 X195.909 Y107.092 E2.17967
G1 X195.384 Y107.281 E2.19717
G1 X195.457 Y106.937 E2.20819
G1 X195.661 Y105.468 E2.25469
G1 X195.655 Y103.964 E2.30183
G1 X195.439 Y102.497 E2.34833
G1 X195.363 Y102.154 E2.35935
G1 X195.890 Y102.338 E2.37685
G1 X196.359 Y102.170 E2.39246
G1 E0.39246 F2400.00000
G92 E0
G1 X182.215 Y102.207 F7800.000
G1 E2.00000 F2400.00000
G1 F1800
G1 X182.142 Y102.551 E2.01102
G1 X181.938 Y104.020 E2.05752
G1 X181.944 Y105.523 E2.10466
G1 X182.160 Y106.990 E2.15116
G1 X182.236 Y107.333 E2.16218
G1 X181.709 Y107.150 E2.17968
G1 X181.184 Y107.338 E2.19717
G1 X181.257 Y106.994 E2.20819
G1 X181.461 Y105.525 E2.25469
G1 X181.455 Y104.021 E2.30183
G1 X181.239 Y102.554 E2.34833
G1 X181.163 Y102.211 E2.35935
G1 X181.690 Y102.395 E2.37685
G1 X182.159 Y102.227 E2.39246
G1 E0.39246 F2400.00000
G92 E0
G1 X168.016 Y102.264 F7800.000
G1 E2.00000 F2400.00000
G1 F1800
G1 X167.943 Y102.608 E2.01102
G1 X167.739 Y104.077 E2.05752
G1 X167.745 Y105.580 E2.10466
G1 X167.960 Y107.047 E2.15116
G1 X168.036 Y107.390 E2.16218
G1 X167.509 Y107.207 E2.17967
G1 X166.984 Y107.395 E2.19717
G1 X167.057 Y107.051 E2.20819
G1 X167.261 Y105.582 E2.25469
G1 X167.255 Y104.079 E2.30183
G1 X167.039 Y102.611 E2.34833
G1 X166.963 Y102.268 E2.35935
G1 X167.490 Y102.452 E2.37685
G1 X167.959 Y102.284 E2.39246
G1 E0.39246 F2400.00000
G92 E0
