; generated by PrusaSlicer 2.1.1+win64 on 2020-05-12 at 21:22:15 UTC

; 

; external perimeters extrusion width = 0.45mm
; perimeters extrusion width = 0.45mm
; infill extrusion width = 0.45mm
; solid infill extrusion width = 0.45mm
; top infill extrusion width = 0.40mm
; support material extrusion width = 0.35mm
; first layer extrusion width = 0.42mm

M201 X9000 Y9000 Z500 E10000 ; sets maximum accelerations, mm/sec^2
M203 X500 Y500 Z12 E120 ; sets maximum feedrates, mm/sec
M204 P1500 R1500 T1500 ; sets acceleration (P, T) and retract acceleration (R), mm/sec^2
M205 X10.00 Y10.00 Z0.20 E2.50 ; sets the jerk limits, mm/sec
M205 S0 T0 ; sets the minimum extruding and travel feed rate, mm/sec
M107
M190 S60 ; set bed temperature and wait for it to be reached
M104 S215 ; set temperature
G28 ; home all axes
G1 Z5 F5000 ; lift nozzle
M109 S215 ; set temperature and wait for it to be reached
G21 ; set units to millimeters
G90 ; use absolute coordinates
M82 ; use absolute distances for extrusion
G92 E0
; Filament gcode
G1 Z0.200 F7800.000
G1 E-2.00000 F2400.00000
G92 E0
G1 X68.138 Y56.274 F7800.000
G1 E2.00000 F2400.00000
G1 F1800
G1 X69.417 Y55.364 E2.04920
G1 X70.138 Y55.036 E2.07404
G1 X70.889 Y54.804 E2.09869
G1 X85.518 Y51.932 E2.56611
G1 X86.673 Y51.825 E2.60248
G1 X134.592 Y52.009 E4.10498
G1 X135.408 Y52.118 E4.13078
G1 X149.233 Y54.982 E4.57346
G1 X150.528 Y55.459 E4.61672
G1 X151.689 Y56.216 E4.66018
G1 X152.664 Y57.226 E4.70422
G1 X153.386 Y58.431 E4.74825
G1 X165.823 Y87.042 E5.72643
G1 X166.182 Y88.158 E5.76318
G1 X166.326 Y89.451 E5.80396
G1 X166.320 Y112.705 E6.53308
G1 X166.195 Y113.698 E6.56446
G1 X165.913 Y114.652 E6.59564
G1 X165.483 Y115.548 E6.62683
G1 X164.914 Y116.364 E6.65801
G1 X163.996 Y117.268 E6.69841
G1 X162.916 Y117.959 E6.73861
G1 X161.710 Y118.414 E6.77900
G1 X160.437 Y118.610 E6.81939
G1 X133.253 Y119.795 E7.67255
G1 X84.567 Y120.225 E9.19913
G1 X54.010 Y118.593 E10.15859
G1 X53.095 Y118.442 E10.18766
G1 X52.213 Y118.157 E10.21673
G1 X51.378 Y117.739 E10.24599
G1 X50.620 Y117.205 E10.27506
G1 X49.717 Y116.286 E10.31546
G1 X49.026 Y115.206 E10.35566
G1 X48.570 Y114.001 E10.39605
G1 X48.374 Y112.728 E10.43645
G1 X48.370 Y89.308 E11.17075
G1 X48.585 Y87.859 E11.21670
G1 X49.135 Y86.501 E11.26264
G1 X67.097 Y57.527 E12.33148
G1 X67.576 Y56.866 E12.35709
G1 X68.097 Y56.317 E12.38082
G1 E10.38082 F2400.00000
G92 E0
G1 X72.336 Y60.821 F7800.000
G1 E2.00000 F2400.00000
G1 F1800
G1 X72.336 Y80.956 E2.63132
G1 X73.090 Y80.956 E2.65496
G1 X73.090 Y60.990 E3.28096
G1 X73.844 Y60.990 E3.30461
G1 X73.844 Y81.125 E3.93592
G1 E1.93592 F2400.00000
G92 E0
G1 X75.253 Y78.129 F7800.000
G1 E2.00000 F2400.00000
G1 F1800
G1 X75.253 Y63.955 E2.36191
G1 X75.560 Y63.955 E2.36975
G1 X75.560 Y77.991 E2.72812
G1 X75.868 Y77.991 E2.73596
G1 X75.868 Y63.955 E3.09434
G1 X76.175 Y63.955 E3.10218
G1 X76.175 Y77.991 E3.46056
G1 X76.482 Y77.991 E3.46840
G1 X76.482 Y63.955 E3.82678
G1 X76.789 Y63.955 E3.83462
G1 X76.789 Y78.129 E4.19653
G1 X78.017 Y77.838 F7800.000
G1 F1800
G1 X78.017 Y77.991 E4.20042
G1 X77.710 Y77.991 E4.20826
G1 X77.710 Y77.831 E4.21235
G1 X77.403 Y77.652 E4.22142
G1 X77.403 Y77.991 E4.23008
G1 X77.096 Y77.991 E4.23792
G1 X77.096 Y77.253 E4.25676
G1 X76.965 Y76.981 E4.26447
G1 X76.907 Y76.737 E4.27088
G1 X76.903 Y66.144 E4.54135
G1 X76.913 Y66.022 E4.54448
G1 X76.965 Y65.816 E4.54991
G1 X77.096 Y65.544 E4.55762
G1 X77.096 Y63.955 E4.59817
G1 X77.403 Y63.955 E4.60602
G1 X77.403 Y65.145 E4.63639
G1 X77.710 Y64.966 E4.64546
G1 X77.710 Y63.955 E4.67126
G1 X78.017 Y63.955 E4.67910
G1 X78.017 Y64.816 E4.70108
G1 X78.324 Y64.763 E4.70903
G1 X78.324 Y63.955 E4.72967
G1 X78.631 Y63.955 E4.73751
G1 X78.631 Y64.740 E4.75753
G1 X78.938 Y64.739 E4.76537
G1 X78.938 Y63.955 E4.78538
G1 X79.245 Y63.955 E4.79322
G1 X79.245 Y64.738 E4.81320
G1 X79.552 Y64.737 E4.82105
G1 X79.552 Y63.955 E4.84101
G1 X79.860 Y63.955 E4.84885
G1 X79.860 Y64.736 E4.86879
G1 X80.167 Y64.736 E4.87663
G1 X80.167 Y63.955 E4.89656
G1 X80.474 Y63.955 E4.90440
G1 X80.474 Y64.873 E4.92783
G1 X80.632 Y64.907 F7800.000
G1 F1800
G1 X80.632 Y65.139 E4.93509
G1 X79.878 Y65.142 E4.95874
G1 X79.878 Y65.079 E4.96072
G1 X79.124 Y65.080 E4.98437
G1 X79.124 Y65.145 E4.98639
G1 X78.558 Y65.147 E5.00413
G1 X78.369 Y65.180 E5.01012
G1 X78.369 Y65.103 E5.01255
G1 X78.063 Y65.157 E5.02231
G1 X77.615 Y65.417 E5.03854
G1 X77.615 Y65.623 E5.04499
G1 X77.525 Y65.750 E5.04989
G1 X77.468 Y65.901 E5.05495
G1 X77.433 Y66.135 E5.06235
G1 X77.433 Y76.662 E5.39242
G1 X77.468 Y76.895 E5.39982
G1 X77.525 Y77.046 E5.40487
G1 X77.615 Y77.174 E5.40978
G1 X77.615 Y77.380 E5.41623
G1 X78.063 Y77.639 E5.43245
G1 X78.369 Y77.694 E5.44222
G1 X78.369 Y77.617 E5.44464
G1 X78.558 Y77.649 E5.45064
G1 X79.124 Y77.652 E5.46838
G1 X79.124 Y77.716 E5.47040
G1 X79.878 Y77.718 E5.49404
G1 X79.878 Y77.655 E5.49603
G1 X80.632 Y77.658 E5.51967
G1 X80.632 Y77.890 E5.52694
G1 E3.52694 F2400.00000
G92 E0
G1 X83.649 Y81.125 F7800.000
G1 E2.00000 F2400.00000
G1 F1800
G1 X83.649 Y77.671 E2.10832
G1 X82.894 Y77.668 E2.13196
G1 X82.894 Y80.956 E2.23506
G1 X82.140 Y80.956 E2.25870
G1 X82.140 Y77.664 E2.36190
G1 X81.386 Y77.661 E2.38554
G1 X81.386 Y80.956 E2.48884
G1 X80.632 Y80.956 E2.51249
G1 X80.632 Y78.333 E2.59472
G1 X79.878 Y78.333 E2.61837
G1 X79.878 Y80.956 E2.70060
G1 X79.124 Y80.956 E2.72425
G1 X79.124 Y78.333 E2.80648
G1 X78.369 Y78.333 E2.83013
G1 X78.369 Y80.956 E2.91237
G1 X77.615 Y80.956 E2.93601
G1 X77.615 Y78.333 E3.01825
G1 X76.861 Y78.333 E3.04189
G1 X76.861 Y80.956 E3.12413
G1 X76.107 Y80.956 E3.14777
G1 X76.107 Y78.333 E3.23001
G1 X75.353 Y78.333 E3.25366
G1 X75.353 Y80.956 E3.33589
G1 X74.599 Y80.956 E3.35954
G1 X74.599 Y60.990 E3.98553
G1 X75.353 Y60.990 E4.00918
G1 X75.353 Y63.613 E4.09141
G1 X76.107 Y63.613 E4.11506
G1 X76.107 Y60.990 E4.19730
G1 X76.861 Y60.990 E4.22094
G1 X76.861 Y63.613 E4.30318
G1 X77.615 Y63.613 E4.32682
G1 X77.615 Y60.990 E4.40906
G1 X78.369 Y60.990 E4.43271
G1 X78.369 Y63.613 E4.51494
G1 X79.124 Y63.613 E4.53859
G1 X79.124 Y60.990 E4.62082
G1 X79.878 Y60.990 E4.64447
G1 X79.878 Y63.613 E4.72670
G1 X80.632 Y63.613 E4.75035
G1 X80.632 Y60.990 E4.83258
G1 X81.386 Y60.990 E4.85623
G1 X81.386 Y65.135 E4.98619
G1 X82.140 Y65.132 E5.00984
G1 X82.140 Y60.990 E5.13970
G1 X82.894 Y60.990 E5.16334
G1 X82.894 Y65.129 E5.29310
G1 X83.649 Y65.126 E5.31675
G1 X83.649 Y60.821 E5.45173
G1 E3.45173 F2400.00000
G92 E0
G1 X86.665 Y58.014 F7800.000
G1 E2.00000 F2400.00000
G1 F1800
G1 X86.665 Y65.122 E2.22288
G1 X87.419 Y65.127 E2.24652
G1 X87.419 Y58.183 E2.46423
G1 X88.174 Y58.183 E2.48788
G1 X88.174 Y65.128 E2.70562
G1 X88.928 Y65.128 E2.72926
G1 X88.928 Y58.183 E2.94700
G1 X89.682 Y58.183 E2.97065
G1 X89.682 Y65.128 E3.18838
G1 X90.436 Y65.128 E3.21203
G1 X90.436 Y58.183 E3.42977
G1 X91.190 Y58.183 E3.45341
G1 X91.190 Y65.128 E3.67115
G1 X91.944 Y65.128 E3.69480
G1 X91.944 Y58.183 E3.91254
G1 X92.698 Y58.183 E3.93618
G1 X92.698 Y65.128 E4.15392
G1 X93.453 Y65.128 E4.17757
G1 X93.453 Y58.183 E4.39531
G1 X94.207 Y58.183 E4.41895
G1 X94.207 Y65.128 E4.63669
G1 X94.961 Y65.128 E4.66034
G1 X94.961 Y58.183 E4.87807
G1 X95.715 Y58.183 E4.90172
G1 X95.715 Y65.128 E5.11946
G1 X96.469 Y65.128 E5.14310
G1 X96.469 Y58.183 E5.36084
G1 X97.223 Y58.183 E5.38449
G1 X97.223 Y65.297 E5.60755
G1 E3.60755 F2400.00000
G92 E0
G1 X86.665 Y77.505 F7800.000
G1 E2.00000 F2400.00000
G1 F1800
G1 X86.665 Y83.763 E2.19621
G1 X87.419 Y83.763 E2.21986
G1 X87.419 Y77.670 E2.41090
G1 X87.582 Y77.669 E2.41600
G1 X88.174 Y77.669 E2.43454
G1 X88.174 Y83.763 E2.62562
G1 X88.928 Y83.763 E2.64926
G1 X88.928 Y77.669 E2.84033
G1 X89.682 Y77.669 E2.86398
G1 X89.682 Y83.763 E3.05505
G1 X90.436 Y83.763 E3.07870
G1 X90.436 Y77.669 E3.26977
G1 X91.190 Y77.669 E3.29342
G1 X91.190 Y83.763 E3.48449
G1 X91.944 Y83.763 E3.50813
G1 X91.944 Y77.669 E3.69921
G1 X92.698 Y77.669 E3.72285
G1 X92.698 Y83.763 E3.91393
G1 X93.453 Y83.763 E3.93757
G1 X93.453 Y77.669 E4.12864
G1 X94.207 Y77.669 E4.15229
G1 X94.207 Y83.763 E4.34336
G1 X94.961 Y83.763 E4.36701
G1 X94.961 Y77.669 E4.55808
G1 X95.715 Y77.669 E4.58173
G1 X95.715 Y83.763 E4.77280
G1 X96.469 Y83.763 E4.79644
G1 X96.469 Y77.669 E4.98752
G1 X97.223 Y77.669 E5.01116
G1 X97.223 Y83.932 E5.20755
G1 E3.20755 F2400.00000
G92 E0
G1 X122.865 Y83.932 F7800.000
G1 E2.00000 F2400.00000
G1 F1800
G1 X122.865 Y77.669 E2.19639
G1 X123.619 Y77.669 E2.22004
G1 X123.619 Y83.763 E2.41111
G1 X124.373 Y83.763 E2.43476
G1 X124.373 Y77.669 E2.62583
G1 X125.127 Y77.669 E2.64947
G1 X125.127 Y83.763 E2.84055
G1 X125.881 Y83.763 E2.86419
G1 X125.881 Y77.669 E3.05526
G1 X126.636 Y77.669 E3.07891
G1 X126.636 Y83.763 E3.26998
G1 X127.390 Y83.763 E3.29363
G1 X127.390 Y77.669 E3.48470
G1 X128.144 Y77.669 E3.50835
G1 X128.144 Y83.763 E3.69942
G1 X128.898 Y83.763 E3.72307
G1 X128.898 Y77.669 E3.91414
G1 X129.652 Y77.669 E3.93778
G1 X129.652 Y83.763 E4.12886
G1 X130.406 Y83.763 E4.15250
G1 X130.406 Y77.669 E4.34357
G1 X131.161 Y77.669 E4.36722
G1 X131.161 Y83.763 E4.55829
G1 X131.915 Y83.763 E4.58194
G1 X131.915 Y77.669 E4.77301
G1 X132.669 Y77.669 E4.79666
G1 X132.669 Y83.763 E4.98771
G1 X133.423 Y83.763 E5.01136
G1 X133.423 Y77.674 E5.20227
G1 X134.177 Y77.679 E5.22591
G1 X134.177 Y83.932 E5.42199
G1 E3.42199 F2400.00000
G92 E0
G1 X138.702 Y81.125 F7800.000
G1 E2.00000 F2400.00000
G1 F1800
G1 X138.702 Y77.662 E2.10860
G1 X137.948 Y77.665 E2.13225
G1 X137.948 Y80.956 E2.23543
G1 X137.194 Y80.956 E2.25908
G1 X137.194 Y77.498 E2.36748
G1 E0.36748 F2400.00000
G92 E0
G1 X142.197 Y78.129 F7800.000
G1 E2.00000 F2400.00000
G1 F1800
G1 X142.197 Y77.970 E2.00405
G1 X142.504 Y77.807 E2.01294
G1 X142.504 Y77.991 E2.01764
G1 X142.811 Y77.991 E2.02548
G1 X142.811 Y77.628 E2.03475
G1 X142.897 Y77.563 E2.03750
G1 X142.962 Y77.481 E2.04017
G1 X143.118 Y77.170 E2.04905
G1 X143.118 Y78.129 E2.07352
G1 E0.07352 F2400.00000
G92 E0
G1 X145.267 Y78.129 F7800.000
G1 E2.00000 F2400.00000
G1 F1800
G1 X145.267 Y63.955 E2.36191
G1 X144.960 Y63.955 E2.36975
G1 X144.960 Y77.991 E2.72812
G1 X144.653 Y77.991 E2.73596
G1 X144.653 Y63.955 E3.09434
G1 X144.346 Y63.955 E3.10218
G1 X144.346 Y77.991 E3.46056
G1 X144.039 Y77.991 E3.46840
G1 X144.039 Y63.955 E3.82678
G1 X143.732 Y63.955 E3.83462
G1 X143.732 Y77.991 E4.19300
G1 X143.425 Y77.991 E4.20084
G1 X143.425 Y63.955 E4.55922
G1 X143.118 Y63.955 E4.56706
G1 X143.118 Y65.626 E4.60972
G1 X142.962 Y65.315 E4.61860
G1 X142.897 Y65.233 E4.62127
G1 X142.811 Y65.169 E4.62402
G1 X142.811 Y63.955 E4.65500
G1 X142.504 Y63.955 E4.66284
G1 X142.504 Y64.990 E4.68926
G1 X142.197 Y64.826 E4.69815
G1 X142.197 Y63.955 E4.72039
G1 X141.890 Y63.955 E4.72823
G1 X141.890 Y64.768 E4.74897
G1 X141.582 Y64.740 E4.75684
G1 X141.582 Y63.955 E4.77687
G1 X141.275 Y63.955 E4.78471
G1 X141.275 Y64.739 E4.80472
G1 X140.968 Y64.738 E4.81256
G1 X140.968 Y63.955 E4.83255
G1 X140.661 Y63.955 E4.84039
G1 X140.661 Y64.737 E4.86035
G1 X140.354 Y64.736 E4.86819
G1 X140.354 Y63.955 E4.88814
G1 X140.047 Y63.955 E4.89598
G1 X140.047 Y64.736 E4.91591
G1 X139.740 Y64.735 E4.92375
G1 X139.740 Y63.817 E4.94718
G1 X140.210 Y65.311 F7800.000
G1 F1800
G1 X140.210 Y65.078 E4.95448
G1 X140.965 Y65.080 E4.97813
G1 X140.965 Y65.145 E4.98014
G1 X141.615 Y65.147 E5.00052
G1 X141.719 Y65.164 E5.00383
G1 X141.719 Y65.094 E5.00601
G1 X141.950 Y65.117 E5.01329
G1 X142.110 Y65.157 E5.01845
G1 X142.473 Y65.368 E5.03162
G1 X142.473 Y65.520 E5.03637
G1 X142.647 Y65.750 E5.04545
G1 X142.716 Y65.948 E5.05200
G1 X142.739 Y66.135 E5.05790
G1 X142.739 Y76.662 E5.38797
G1 X142.716 Y76.849 E5.39388
G1 X142.647 Y77.046 E5.40043
G1 X142.473 Y77.277 E5.40950
G1 X142.473 Y77.429 E5.41426
G1 X142.110 Y77.639 E5.42743
G1 X141.950 Y77.679 E5.43259
G1 X141.719 Y77.702 E5.43987
G1 X141.719 Y77.633 E5.44205
G1 X141.615 Y77.649 E5.44536
G1 X140.965 Y77.652 E5.46573
G1 X140.965 Y77.716 E5.46775
G1 X140.210 Y77.718 E5.49140
G1 X140.210 Y77.655 E5.49337
G1 X139.456 Y77.658 E5.51702
G1 X139.456 Y80.956 E5.62040
G1 X140.210 Y80.956 E5.64405
G1 X140.210 Y78.333 E5.72629
G1 X140.965 Y78.333 E5.74993
G1 X140.965 Y80.956 E5.83217
G1 X141.719 Y80.956 E5.85581
G1 X141.719 Y78.333 E5.93805
G1 X142.473 Y78.333 E5.96169
G1 X142.473 Y80.956 E6.04393
G1 X143.227 Y80.956 E6.06757
G1 X143.227 Y78.333 E6.14981
G1 X143.981 Y78.333 E6.17346
G1 X143.981 Y80.956 E6.25569
G1 X144.735 Y80.956 E6.27934
G1 X144.735 Y78.333 E6.36157
G1 X145.490 Y78.333 E6.38522
G1 X145.490 Y81.125 E6.47278
G1 X147.752 Y81.125 F7800.000
G1 F1800
G1 X147.752 Y60.990 E7.10409
G1 X146.998 Y60.990 E7.12774
G1 X146.998 Y80.956 E7.75373
G1 X146.244 Y80.956 E7.77738
G1 X146.244 Y60.990 E8.40338
G1 X145.490 Y60.990 E8.42702
G1 X145.490 Y63.613 E8.50926
G1 X144.735 Y63.613 E8.53290
G1 X144.735 Y60.990 E8.61514
G1 X143.981 Y60.990 E8.63878
G1 X143.981 Y63.613 E8.72102
G1 X143.227 Y63.613 E8.74467
G1 X143.227 Y60.990 E8.82690
G1 X142.473 Y60.990 E8.85055
G1 X142.473 Y63.613 E8.93278
G1 X141.719 Y63.613 E8.95643
G1 X141.719 Y60.990 E9.03866
G1 X140.965 Y60.990 E9.06231
G1 X140.965 Y63.613 E9.14454
G1 X140.210 Y63.613 E9.16819
G1 X140.210 Y60.990 E9.25043
G1 X139.456 Y60.990 E9.27407
G1 X139.456 Y65.138 E9.40412
G1 X138.702 Y65.135 E9.42777
G1 X138.702 Y60.990 E9.55772
G1 X137.948 Y60.990 E9.58137
G1 X137.948 Y65.132 E9.71122
G1 X137.194 Y65.129 E9.73486
G1 X137.194 Y60.821 E9.86993
G1 E7.86993 F2400.00000
G92 E0
G1 X134.177 Y65.288 F7800.000
G1 E2.00000 F2400.00000
G1 F1800
G1 X134.177 Y58.183 E2.22275
G1 X133.423 Y58.183 E2.24639
G1 X133.423 Y65.123 E2.46397
G1 X132.669 Y65.127 E2.48761
G1 X132.669 Y58.183 E2.70534
G1 X131.915 Y58.183 E2.72898
G1 X131.915 Y65.128 E2.94672
G1 X131.161 Y65.128 E2.97037
G1 X131.161 Y58.183 E3.18810
G1 X130.406 Y58.183 E3.21175
G1 X130.406 Y65.128 E3.42949
G1 X129.652 Y65.128 E3.45313
G1 X129.652 Y58.183 E3.67087
G1 X128.898 Y58.183 E3.69452
G1 X128.898 Y65.128 E3.91226
G1 X128.144 Y65.128 E3.93590
G1 X128.144 Y58.183 E4.15364
G1 X127.390 Y58.183 E4.17729
G1 X127.390 Y65.128 E4.39503
G1 X126.636 Y65.128 E4.41867
G1 X126.636 Y58.183 E4.63641
G1 X125.881 Y58.183 E4.66006
G1 X125.881 Y65.128 E4.87779
G1 X125.127 Y65.128 E4.90144
G1 X125.127 Y58.183 E5.11918
G1 X124.373 Y58.183 E5.14282
G1 X124.373 Y65.128 E5.36056
G1 X123.619 Y65.128 E5.38421
G1 X123.619 Y58.183 E5.60195
G1 X122.865 Y58.183 E5.62559
G1 X122.865 Y65.297 E5.84865
G1 E3.84865 F2400.00000
G92 E0
G1 X141.361 Y76.273 F7800.000
G1 E2.00000 F2400.00000
G1 F1800
G1 X134.363 Y76.302 E2.21943
G1 X85.809 Y76.302 E3.74180
G1 X78.811 Y76.273 E3.96123
G1 X78.811 Y66.524 E4.26689
G1 X85.809 Y66.494 E4.48632
G1 X134.363 Y66.494 E6.00869
G1 X141.361 Y66.524 E6.22812
G1 X141.361 Y76.213 E6.53190
G1 X141.646 Y76.628 F7800.000
G1 F1800
G1 X141.536 Y76.649 E6.53542
G1 X134.364 Y76.679 E6.76030
G1 X85.808 Y76.679 E8.28272
G1 X78.636 Y76.649 E8.50760
G1 X78.526 Y76.628 E8.51112
G1 X78.434 Y76.580 E8.51437
G1 X78.434 Y66.216 E8.83932
G1 X78.526 Y66.169 E8.84257
G1 X78.636 Y66.148 E8.84609
G1 X85.808 Y66.117 E9.07097
G1 X134.364 Y66.117 E10.59340
G1 X141.536 Y66.148 E10.81828
G1 X141.646 Y66.169 E10.82180
G1 X141.738 Y66.216 E10.82505
G1 X141.738 Y76.580 E11.15000
G1 X141.700 Y76.600 E11.15137
G1 X142.088 Y76.762 F7800.000
G1 F1800
G1 X142.001 Y76.869 E11.15572
G1 X141.771 Y76.988 E11.16382
G1 X141.573 Y77.026 E11.17014
G1 X134.365 Y77.056 E11.39615
G1 X85.808 Y77.056 E12.91862
G1 X78.599 Y77.026 E13.14464
G1 X78.402 Y76.988 E13.15095
G1 X78.172 Y76.869 E13.15905
G1 X78.084 Y76.762 E13.16340
G1 X78.057 Y76.635 E13.16749
G1 X78.068 Y66.077 E13.49852
G1 X78.172 Y65.927 E13.50423
G1 X78.402 Y65.809 E13.51234
G1 X78.599 Y65.771 E13.51865
G1 X85.808 Y65.740 E13.74466
G1 X134.365 Y65.740 E15.26714
G1 X141.573 Y65.771 E15.49315
G1 X141.771 Y65.809 E15.49946
G1 X142.001 Y65.927 E15.50757
G1 X142.088 Y66.035 E15.51192
G1 X142.116 Y66.162 E15.51600
G1 X142.106 Y76.705 E15.84657
G1 X141.950 Y76.771 F7800.000
G1 E13.84657 F2400.00000
G92 E0
G1 X141.248 Y67.404 F7800.000
G1 E2.00000 F2400.00000
G1 F1800
G1 X140.648 Y66.804 E2.02680
G1 X140.109 Y66.801 E2.04381
G1 X141.079 Y67.771 E2.08709
G1 X141.079 Y68.308 E2.10402
G1 X139.570 Y66.799 E2.17136
