; generated by PrusaSlicer 2.1.1+win64 on 2020-05-13 at 21:11:47 UTC

; 

; external perimeters extrusion width = 0.45mm
; perimeters extrusion width = 0.45mm
; infill extrusion width = 0.45mm
; solid infill extrusion width = 0.45mm
; top infill extrusion width = 0.40mm
; support material extrusion width = 0.35mm
; first layer extrusion width = 0.42mm

M201 X9000 Y9000 Z500 E10000 ; sets maximum accelerations, mm/sec^2
M203 X500 Y500 Z12 E120 ; sets maximum feedrates, mm/sec
M204 P1500 R1500 T1500 ; sets acceleration (P, T) and retract acceleration (R), mm/sec^2
M205 X10.00 Y10.00 Z0.20 E2.50 ; sets the jerk limits, mm/sec
M205 S0 T0 ; sets the minimum extruding and travel feed rate, mm/sec
M107
M190 S60 ; set bed temperature and wait for it to be reached
M104 S215 ; set temperature
G28 ; home all axes
G1 Z5 F5000 ; lift nozzle
M109 S215 ; set temperature and wait for it to be reached
G21 ; set units to millimeters
G90 ; use absolute coordinates
M82 ; use absolute distances for extrusion
G92 E0
; Filament gcode
G1 Z0.200 F7800.000
G1 E-2.00000 F2400.00000
G92 E0
G1 X83.134 Y89.793 F7800.000
G1 E2.00000 F2400.00000
G1 F1800
G1 X84.423 Y88.909 E2.04901
G1 X85.219 Y88.568 E2.07616
G1 X86.061 Y88.341 E2.10350
G1 X101.265 Y85.613 E2.58782
G1 X148.801 Y85.605 E4.07827
G1 X149.985 Y85.721 E4.11559
G1 X164.610 Y88.708 E4.58362
G1 X165.779 Y89.235 E4.62382
G1 X166.815 Y89.992 E4.66403
G1 X167.672 Y90.945 E4.70423
G1 X168.314 Y92.055 E4.74443
G1 X168.705 Y93.231 E4.78329
G1 X168.853 Y94.462 E4.82215
G1 X168.829 Y117.970 E5.55924
G1 X168.495 Y119.484 E5.60787
G1 X167.795 Y120.868 E5.65649
G1 X166.773 Y122.035 E5.70512
G1 X165.493 Y122.910 E5.75374
G1 X164.697 Y123.251 E5.78089
G1 X163.855 Y123.479 E5.80823
G1 X148.651 Y126.206 E6.29256
G1 X100.824 Y126.211 E7.79213
G1 X99.824 Y126.095 E7.82370
G1 X85.351 Y123.126 E8.28695
G1 X84.242 Y122.644 E8.32485
G1 X83.248 Y121.956 E8.36275
G1 X82.403 Y121.083 E8.40085
G1 X81.747 Y120.068 E8.43875
G1 X81.254 Y118.766 E8.48240
G1 X81.063 Y117.393 E8.52586
G1 X81.084 Y93.886 E9.26290
G1 X81.411 Y92.364 E9.31172
G1 X82.111 Y90.966 E9.36073
G1 X83.094 Y89.838 E9.40766
G1 E7.40766 F2400.00000
G92 E0
G1 X87.250 Y94.414 F7800.000
G1 E2.00000 F2400.00000
G1 F1800
G1 X87.250 Y102.586 E2.25624
G1 X88.004 Y102.586 E2.27989
G1 X88.004 Y94.584 E2.53081
G1 X88.758 Y94.584 E2.55446
G1 X88.758 Y99.657 E2.71353
G1 X88.829 Y99.586 E2.71665
G1 X89.512 Y99.586 E2.73809
G1 X89.512 Y94.584 E2.89495
G1 X90.267 Y94.584 E2.91860
G1 X90.267 Y97.206 E3.00083
G1 X91.021 Y97.206 E3.02448
G1 X91.021 Y94.584 E3.10672
G1 X91.775 Y94.584 E3.13036
G1 X91.775 Y97.206 E3.21260
G1 X92.529 Y97.206 E3.23625
G1 X92.529 Y94.584 E3.31848
G1 X93.283 Y94.584 E3.34213
G1 X93.283 Y97.206 E3.42437
G1 X94.037 Y97.206 E3.44801
G1 X94.037 Y94.584 E3.53025
G1 X94.792 Y94.584 E3.55390
G1 X94.792 Y97.206 E3.63613
G1 X95.546 Y97.206 E3.65978
G1 X95.546 Y94.584 E3.74202
G1 X96.300 Y94.584 E3.76566
G1 X96.300 Y97.206 E3.84790
G1 X97.054 Y97.206 E3.87155
G1 X97.054 Y94.584 E3.95378
G1 X97.808 Y94.584 E3.97743
G1 X97.808 Y97.206 E4.05967
G1 X98.562 Y97.206 E4.08331
G1 X98.562 Y94.584 E4.16555
G1 X99.317 Y94.584 E4.18919
G1 X99.317 Y97.206 E4.27143
G1 X100.071 Y97.206 E4.29508
G1 X100.071 Y94.584 E4.37731
G1 X100.825 Y94.584 E4.40096
G1 X100.825 Y97.206 E4.48320
G1 X101.579 Y97.206 E4.50684
G1 X101.579 Y91.794 E4.67656
G1 X102.333 Y91.794 E4.70020
G1 X102.333 Y97.206 E4.86992
G1 X103.087 Y97.206 E4.89356
G1 X103.087 Y91.794 E5.06327
G1 X103.841 Y91.794 E5.08692
G1 X103.841 Y97.206 E5.25663
G1 X104.596 Y97.206 E5.28028
G1 X104.596 Y91.794 E5.44999
G1 X105.350 Y91.794 E5.47364
G1 X105.350 Y97.206 E5.64335
G1 X106.104 Y97.206 E5.66700
G1 X106.104 Y91.794 E5.83671
G1 X106.858 Y91.794 E5.86036
G1 X106.858 Y97.206 E6.03007
G1 X107.612 Y97.206 E6.05372
G1 X107.612 Y91.794 E6.22343
G1 X108.366 Y91.794 E6.24707
G1 X108.366 Y97.206 E6.41679
G1 X109.121 Y97.206 E6.44043
G1 X109.121 Y91.794 E6.61015
G1 X109.875 Y91.794 E6.63379
G1 X109.875 Y97.206 E6.80350
G1 X110.629 Y97.206 E6.82715
G1 X110.629 Y91.794 E6.99686
G1 X111.383 Y91.794 E7.02051
G1 X111.383 Y97.206 E7.19022
G1 X112.137 Y97.206 E7.21387
G1 X112.137 Y91.794 E7.38358
G1 X112.526 Y91.794 E7.39576
G1 X112.526 Y94.584 E7.48323
G1 X112.891 Y94.584 E7.49470
G1 X112.891 Y97.206 E7.57694
G1 X113.646 Y97.206 E7.60059
G1 X113.646 Y94.584 E7.68282
G1 X114.400 Y94.584 E7.70647
G1 X114.400 Y97.206 E7.78871
G1 X115.154 Y97.206 E7.81235
G1 X115.154 Y94.584 E7.89459
G1 X115.908 Y94.584 E7.91824
G1 X115.908 Y97.206 E8.00047
G1 X116.662 Y97.206 E8.02412
G1 X116.662 Y94.584 E8.10636
G1 X117.416 Y94.584 E8.13000
G1 X117.416 Y97.206 E8.21224
G1 X118.171 Y97.206 E8.23589
G1 X118.171 Y94.584 E8.31812
G1 X118.925 Y94.584 E8.34177
G1 X118.925 Y97.206 E8.42401
G1 X119.679 Y97.206 E8.44765
G1 X119.679 Y94.584 E8.52989
G1 X120.433 Y94.584 E8.55354
G1 X120.433 Y97.206 E8.63577
G1 X121.187 Y97.206 E8.65942
G1 X121.187 Y94.584 E8.74166
G1 X121.941 Y94.584 E8.76530
G1 X121.941 Y97.206 E8.84754
G1 X122.695 Y97.206 E8.87118
G1 X122.695 Y94.584 E8.95342
G1 X123.450 Y94.584 E8.97707
G1 X123.450 Y97.206 E9.05930
G1 X124.204 Y97.206 E9.08295
G1 X124.204 Y94.584 E9.16519
G1 X124.958 Y94.584 E9.18883
G1 X124.958 Y97.206 E9.27107
G1 X125.712 Y97.206 E9.29472
G1 X125.712 Y94.584 E9.37695
G1 X126.466 Y94.584 E9.40060
G1 X126.466 Y97.206 E9.48284
G1 X127.220 Y97.206 E9.50648
G1 X127.220 Y94.584 E9.58872
G1 X127.975 Y94.584 E9.61237
G1 X127.975 Y97.206 E9.69460
G1 X128.729 Y97.206 E9.71825
G1 X128.729 Y94.584 E9.80049
G1 X129.483 Y94.584 E9.82413
G1 X129.483 Y97.206 E9.90637
G1 X130.237 Y97.206 E9.93002
G1 X130.237 Y94.584 E10.01225
G1 X130.991 Y94.584 E10.03590
G1 X130.991 Y97.206 E10.11814
G1 X131.745 Y97.206 E10.14178
G1 X131.745 Y94.584 E10.22402
G1 X132.500 Y94.584 E10.24767
G1 X132.500 Y97.206 E10.32990
G1 X133.254 Y97.206 E10.35355
G1 X133.254 Y94.584 E10.43579
G1 X134.008 Y94.584 E10.45943
G1 X134.008 Y97.206 E10.54167
G1 X134.762 Y97.206 E10.56532
G1 X134.762 Y94.584 E10.64755
G1 X135.516 Y94.584 E10.67120
G1 X135.516 Y97.206 E10.75344
G1 X136.270 Y97.206 E10.77708
G1 X136.270 Y94.584 E10.85932
G1 X137.024 Y94.584 E10.88296
G1 X137.024 Y97.206 E10.96520
G1 X137.779 Y97.206 E10.98885
G1 X137.779 Y91.794 E11.15856
G1 X138.533 Y91.794 E11.18221
G1 X138.533 Y97.206 E11.35192
G1 X139.287 Y97.206 E11.37557
G1 X139.287 Y91.794 E11.54528
G1 X140.041 Y91.794 E11.56892
G1 X140.041 Y97.206 E11.73864
G1 X140.795 Y97.206 E11.76228
G1 X140.795 Y91.794 E11.93200
G1 X141.549 Y91.794 E11.95564
G1 X141.549 Y97.206 E12.12536
G1 X142.304 Y97.206 E12.14900
G1 X142.304 Y91.794 E12.31871
G1 X143.058 Y91.794 E12.34236
G1 X143.058 Y97.206 E12.51207
G1 X143.812 Y97.206 E12.53572
G1 X143.812 Y91.794 E12.70543
G1 X144.566 Y91.794 E12.72908
G1 X144.566 Y97.206 E12.89879
G1 X145.320 Y97.206 E12.92244
G1 X145.320 Y91.794 E13.09215
G1 X146.074 Y91.794 E13.11580
G1 X146.074 Y97.206 E13.28551
G1 X146.829 Y97.206 E13.30915
G1 X146.829 Y91.794 E13.47887
G1 X147.583 Y91.794 E13.50251
G1 X147.583 Y97.206 E13.67223
G1 X148.337 Y97.206 E13.69587
G1 X148.337 Y91.794 E13.86559
G1 X148.794 Y91.794 E13.87993
G1 X148.794 Y94.584 E13.96741
G1 X149.091 Y94.584 E13.97671
G1 X149.091 Y97.206 E14.05894
G1 X149.845 Y97.206 E14.08259
G1 X149.845 Y94.584 E14.16483
G1 X150.599 Y94.584 E14.18847
G1 X150.599 Y97.206 E14.27071
G1 X151.354 Y97.206 E14.29436
G1 X151.354 Y94.584 E14.37659
G1 X152.108 Y94.584 E14.40024
G1 X152.108 Y97.206 E14.48248
G1 X152.862 Y97.206 E14.50612
G1 X152.862 Y94.584 E14.58836
G1 X153.616 Y94.584 E14.61201
G1 X153.616 Y97.206 E14.69424
G1 X154.370 Y97.206 E14.71789
G1 X154.370 Y94.584 E14.80013
G1 X155.124 Y94.584 E14.82377
G1 X155.124 Y97.206 E14.90601
G1 X155.878 Y97.206 E14.92966
G1 X155.878 Y94.584 E15.01189
G1 X156.633 Y94.584 E15.03554
G1 X156.633 Y97.206 E15.11778
G1 X157.387 Y97.206 E15.14142
G1 X157.387 Y94.584 E15.22366
G1 X158.141 Y94.584 E15.24731
G1 X158.141 Y97.206 E15.32954
G1 X158.895 Y97.206 E15.35319
G1 X158.895 Y94.584 E15.43543
G1 X159.649 Y94.584 E15.45907
G1 X159.649 Y97.206 E15.54131
G1 X160.121 Y97.206 E15.55611
G1 X160.121 Y100.663 E15.66449
G1 X159.649 Y100.663 E15.67929
G1 X159.649 Y103.286 E15.76153
G1 X160.403 Y103.286 E15.78517
G1 X160.403 Y94.584 E16.05804
G1 X161.158 Y94.584 E16.08168
G1 X161.158 Y103.286 E16.35455
G1 X161.912 Y103.286 E16.37819
G1 X161.912 Y94.584 E16.65106
G1 X162.666 Y94.584 E16.67470
G1 X162.666 Y103.456 E16.95289
G1 E14.95289 F2400.00000
G92 E0
G1 X159.649 Y105.574 F7800.000
G1 E2.00000 F2400.00000
G1 F1800
G1 X159.649 Y108.536 E2.09288
G1 E0.09288 F2400.00000
G92 E0
G1 X158.141 Y110.264 F7800.000
G1 E2.00000 F2400.00000
G1 F1800
G1 X158.141 Y109.414 E2.02667
G1 X157.584 Y109.414 E2.04413
G1 X157.584 Y110.190 E2.06846
G1 X157.631 Y110.346 E2.07357
G1 X157.528 Y110.610 E2.08245
G1 X157.416 Y110.678 E2.08658
G1 X157.387 Y110.762 E2.08937
G1 X157.387 Y111.112 E2.10035
G1 X157.013 Y111.328 E2.11390
G1 X156.633 Y111.360 E2.12585
G1 X156.633 Y111.044 E2.13578
G1 E0.13578 F2400.00000
G92 E0
G1 X159.583 Y114.410 F7800.000
G1 E2.00000 F2400.00000
G1 F1800
G1 X159.583 Y108.700 E2.14581
G1 X159.370 Y108.700 E2.15124
G1 X159.370 Y109.153 E2.16283
G1 X159.293 Y109.230 E2.16561
G1 X159.293 Y114.279 E2.29453
G1 X159.003 Y114.279 E2.30193
G1 X159.003 Y109.370 E2.42729
G1 X158.713 Y109.370 E2.43469
G1 X158.713 Y114.279 E2.56005
G1 X158.423 Y114.279 E2.56745
G1 X158.423 Y110.599 E2.66143
G1 X158.194 Y110.478 E2.66805
G1 X158.133 Y110.611 E2.67178
G1 X158.133 Y114.279 E2.76546
G1 X157.843 Y114.279 E2.77286
G1 X157.843 Y111.129 E2.85331
G1 X157.657 Y111.340 E2.86052
G1 X157.553 Y111.401 E2.86358
G1 X157.553 Y114.279 E2.93708
G1 X157.263 Y114.279 E2.94448
G1 X157.263 Y111.570 E3.01366
G1 X157.088 Y111.655 E3.01864
G1 X156.974 Y111.668 E3.02158
G1 X156.974 Y114.279 E3.08826
G1 X156.684 Y114.279 E3.09566
G1 X156.684 Y111.691 E3.16175
G1 X156.394 Y111.704 E3.16916
G1 X156.394 Y114.279 E3.23493
G1 X156.104 Y114.279 E3.24233
G1 X156.104 Y111.704 E3.30809
G1 X155.814 Y111.704 E3.31549
G1 X155.814 Y114.279 E3.38125
G1 X155.524 Y114.279 E3.38865
G1 X155.524 Y111.704 E3.45440
G1 X155.234 Y111.705 E3.46180
G1 X155.234 Y114.279 E3.52754
G1 X154.944 Y114.279 E3.53494
G1 X154.944 Y111.705 E3.60068
G1 X154.654 Y111.705 E3.60808
G1 X154.654 Y114.279 E3.67381
G1 X154.364 Y114.279 E3.68121
G1 X154.364 Y111.705 E3.74693
G1 X154.074 Y111.706 E3.75433
G1 X154.074 Y114.279 E3.82005
G1 X153.785 Y114.279 E3.82745
G1 X153.785 Y111.706 E3.89316
G1 X153.495 Y111.706 E3.90057
G1 X153.495 Y114.279 E3.96627
G1 X153.205 Y114.279 E3.97367
G1 X153.205 Y111.706 E4.03937
G1 X152.915 Y111.707 E4.04677
G1 X152.915 Y114.279 E4.11247
G1 X152.625 Y114.279 E4.11987
G1 X152.625 Y111.707 E4.18555
G1 X152.335 Y111.707 E4.19296
G1 X152.335 Y114.279 E4.25864
G1 X152.045 Y114.279 E4.26604
G1 X152.045 Y111.707 E4.33171
G1 X151.755 Y111.707 E4.33912
G1 X151.755 Y114.279 E4.40479
G1 X151.465 Y114.279 E4.41219
G1 X151.465 Y111.707 E4.47787
G1 X151.175 Y111.707 E4.48527
G1 X151.175 Y114.279 E4.55095
G1 X150.885 Y114.279 E4.55835
G1 X150.885 Y111.707 E4.62403
G1 X150.596 Y111.707 E4.63143
G1 X150.596 Y114.279 E4.69711
G1 X150.306 Y114.279 E4.70452
G1 X150.306 Y111.707 E4.77020
G1 X150.016 Y111.707 E4.77760
G1 X150.016 Y114.279 E4.84329
G1 X149.726 Y114.279 E4.85069
G1 X149.726 Y111.707 E4.91638
G1 X149.436 Y111.707 E4.92379
G1 X149.436 Y114.279 E4.98948
G1 X149.146 Y114.279 E4.99688
G1 X149.146 Y111.706 E5.06258
G1 X148.856 Y111.706 E5.06998
G1 X148.856 Y114.279 E5.13568
G1 X148.566 Y114.279 E5.14308
G1 X148.566 Y111.706 E5.20878
G1 X148.276 Y111.706 E5.21619
G1 X148.276 Y114.279 E5.28189
G1 X147.986 Y114.279 E5.28929
G1 X147.986 Y111.706 E5.35500
G1 X147.696 Y111.706 E5.36240
G1 X147.696 Y114.279 E5.42811
G1 X147.406 Y114.279 E5.43551
G1 X147.406 Y111.706 E5.50122
G1 X147.117 Y111.706 E5.50863
G1 X147.117 Y114.279 E5.57434
G1 X146.827 Y114.279 E5.58174
G1 X146.827 Y111.706 E5.64746
G1 X146.537 Y111.706 E5.65486
G1 X146.537 Y114.279 E5.72058
G1 X146.247 Y114.279 E5.72799
G1 X146.247 Y111.705 E5.79371
G1 X145.957 Y111.705 E5.80111
G1 X145.957 Y114.279 E5.86683
G1 X145.667 Y114.279 E5.87424
G1 X145.667 Y111.705 E5.93997
G1 X145.377 Y111.705 E5.94737
G1 X145.377 Y114.279 E6.01310
G1 X145.087 Y114.279 E6.02050
G1 X145.087 Y111.705 E6.08623
G1 X144.797 Y111.705 E6.09364
G1 X144.797 Y114.279 E6.15937
G1 X144.507 Y114.279 E6.16677
G1 X144.507 Y111.705 E6.23251
G1 X144.217 Y111.705 E6.23991
G1 X144.217 Y114.279 E6.30566
G1 X143.928 Y114.279 E6.31306
G1 X143.928 Y111.705 E6.37880
G1 X143.638 Y111.705 E6.38620
G1 X143.638 Y114.279 E6.45195
G1 X143.348 Y114.279 E6.45935
G1 X143.348 Y111.704 E6.52510
G1 X143.058 Y111.704 E6.53250
G1 X143.058 Y114.279 E6.59826
G1 X142.768 Y114.279 E6.60566
G1 X142.768 Y111.704 E6.67141
G1 X142.478 Y111.704 E6.67881
G1 X142.478 Y114.279 E6.74457
G1 X142.188 Y114.279 E6.75197
G1 X142.188 Y111.704 E6.81773
G1 X141.898 Y111.704 E6.82514
G1 X141.898 Y114.279 E6.89090
G1 X141.608 Y114.279 E6.89830
G1 X141.608 Y111.704 E6.96406
G1 X141.318 Y111.704 E6.97147
G1 X141.318 Y114.279 E7.03723
G1 X141.028 Y114.279 E7.04464
G1 X141.028 Y111.704 E7.11041
G1 X140.739 Y111.703 E7.11781
G1 X140.739 Y114.279 E7.18358
G1 X140.449 Y114.279 E7.19098
G1 X140.449 Y111.703 E7.25676
G1 X140.159 Y111.703 E7.26416
G1 X140.159 Y114.279 E7.32994
G1 X139.869 Y114.279 E7.33734
G1 X139.869 Y111.703 E7.40312
G1 X139.579 Y111.703 E7.41053
G1 X139.579 Y114.279 E7.47631
G1 X139.289 Y114.279 E7.48371
G1 X139.289 Y111.703 E7.54950
G1 X138.999 Y111.703 E7.55690
G1 X138.999 Y114.279 E7.62269
G1 X138.709 Y114.279 E7.63009
G1 X138.709 Y111.703 E7.69588
G1 X138.419 Y111.703 E7.70328
G1 X138.419 Y114.279 E7.76908
G1 X138.129 Y114.279 E7.77648
G1 X138.129 Y111.703 E7.84228
G1 X137.839 Y111.702 E7.84968
G1 X137.839 Y114.279 E7.91548
G1 X137.550 Y114.279 E7.92288
G1 X137.550 Y111.702 E7.98868
G1 X137.260 Y111.702 E7.99609
G1 X137.260 Y114.279 E8.06189
G1 X136.970 Y114.279 E8.06929
G1 X136.970 Y111.702 E8.13510
G1 X136.680 Y111.702 E8.14250
G1 X136.680 Y114.279 E8.20831
G1 X136.390 Y114.279 E8.21571
G1 X136.390 Y111.702 E8.28153
G1 X136.100 Y111.702 E8.28893
G1 X136.100 Y114.279 E8.35474
G1 X135.810 Y114.279 E8.36215
G1 X135.810 Y111.702 E8.42796
G1 X135.520 Y111.702 E8.43537
G1 X135.520 Y114.279 E8.50119
G1 X135.230 Y114.279 E8.50859
G1 X135.230 Y111.702 E8.57441
G1 X134.940 Y111.701 E8.58181
G1 X134.940 Y114.279 E8.64764
G1 X134.650 Y114.279 E8.65504
G1 X134.650 Y111.701 E8.72087
G1 X134.360 Y111.701 E8.72827
G1 X134.360 Y114.279 E8.79410
G1 X134.071 Y114.279 E8.80151
G1 X134.071 Y111.701 E8.86734
G1 X133.781 Y111.701 E8.87474
G1 X133.781 Y114.279 E8.94058
G1 X133.491 Y114.279 E8.94798
G1 X133.491 Y111.701 E9.01382
G1 X133.201 Y111.701 E9.02122
G1 X133.201 Y114.279 E9.08706
G1 X132.911 Y114.279 E9.09447
G1 X132.911 Y111.701 E9.16031
G1 X132.621 Y111.701 E9.16771
G1 X132.621 Y114.279 E9.23356
G1 X132.331 Y114.279 E9.24096
G1 X132.331 Y111.700 E9.30681
G1 X132.041 Y111.700 E9.31421
G1 X132.041 Y114.279 E9.38007
G1 X131.751 Y114.279 E9.38747
G1 X131.751 Y111.700 E9.45332
G1 X131.461 Y111.700 E9.46072
G1 X131.461 Y114.279 E9.52658
G1 X131.171 Y114.279 E9.53398
G1 X131.171 Y111.700 E9.59984
G1 X130.882 Y111.700 E9.60725
G1 X130.882 Y114.279 E9.67311
G1 X130.592 Y114.279 E9.68051
G1 X130.592 Y111.700 E9.74638
G1 X130.302 Y111.700 E9.75378
G1 X130.302 Y114.279 E9.81965
G1 X130.012 Y114.279 E9.82705
G1 X130.012 Y111.700 E9.89292
G1 X129.722 Y111.700 E9.90032
G1 X129.722 Y114.279 E9.96620
G1 X129.432 Y114.279 E9.97360
G1 X129.432 Y111.699 E10.03947
G1 X129.142 Y111.699 E10.04688
G1 X129.142 Y114.279 E10.11276
G1 X128.852 Y114.279 E10.12016
G1 X128.852 Y111.699 E10.18604
G1 X128.562 Y111.699 E10.19344
G1 X128.562 Y114.279 E10.25933
G1 X128.272 Y114.279 E10.26673
G1 X128.272 Y111.699 E10.33261
G1 X127.982 Y111.699 E10.34002
G1 X127.982 Y114.279 E10.40591
G1 X127.693 Y114.279 E10.41331
G1 X127.693 Y111.699 E10.47920
G1 X127.403 Y111.699 E10.48660
G1 X127.403 Y114.279 E10.55250
G1 X127.113 Y114.279 E10.55990
G1 X127.113 Y111.699 E10.62580
G1 X126.823 Y111.699 E10.63320
