; generated by PrusaSlicer 2.1.1+win64 on 2020-05-02 at 20:38:47 UTC

; 

; external perimeters extrusion width = 0.45mm
; perimeters extrusion width = 0.45mm
; infill extrusion width = 0.45mm
; solid infill extrusion width = 0.45mm
; top infill extrusion width = 0.40mm
; support material extrusion width = 0.35mm
; first layer extrusion width = 0.42mm

M201 X9000 Y9000 Z500 E10000 ; sets maximum accelerations, mm/sec^2
M203 X500 Y500 Z12 E120 ; sets maximum feedrates, mm/sec
M204 P1500 R1500 T1500 ; sets acceleration (P, T) and retract acceleration (R), mm/sec^2
M205 X10.00 Y10.00 Z0.20 E2.50 ; sets the jerk limits, mm/sec
M205 S0 T0 ; sets the minimum extruding and travel feed rate, mm/sec
M107
M190 S60 ; set bed temperature and wait for it to be reached
M104 S215 ; set temperature
G28 ; home all axes
G1 Z5 F5000 ; lift nozzle
M109 S215 ; set temperature and wait for it to be reached
G21 ; set units to millimeters
G90 ; use absolute coordinates
M82 ; use absolute distances for extrusion
G92 E0
; Filament gcode
G1 Z0.150 F7800.000
G1 E-2.00000 F2400.00000
G92 E0
G1 X104.145 Y87.005 F7800.000
G1 E2.00000 F2400.00000
G1 F1800
G1 X104.747 Y86.415 E2.02036
G1 X118.753 Y75.485 E2.45005
G1 X119.508 Y74.965 E2.47222
G1 X120.870 Y74.252 E2.50939
G1 X122.206 Y73.883 E2.54292
G1 X123.075 Y73.807 E2.56402
G1 X126.829 Y73.806 E2.65481
G1 X128.123 Y73.944 E2.68628
G1 X129.359 Y74.349 E2.71775
G1 X130.880 Y75.221 E2.76015
G1 X132.118 Y76.180 E2.79802
G1 X143.443 Y86.788 E3.17328
G1 X144.322 Y87.922 E3.20800
G1 X144.919 Y89.235 E3.24286
G1 X145.136 Y90.149 E3.26559
G1 X145.214 Y91.080 E3.28817
G1 X145.214 Y128.231 E4.18667
G1 X145.134 Y129.216 E4.21058
G1 X144.898 Y130.176 E4.23450
G1 X144.297 Y131.467 E4.26892
G1 X143.422 Y132.581 E4.30319
G1 X142.311 Y133.471 E4.33762
G1 X141.032 Y134.082 E4.37189
G1 X139.959 Y134.347 E4.39862
G1 X127.485 Y136.162 E4.70349
G1 X122.533 Y136.163 E4.82324
G1 X107.963 Y134.365 E5.17831
G1 X106.820 Y134.103 E5.20667
G1 X105.991 Y133.760 E5.22836
G1 X105.216 Y133.297 E5.25020
G1 X104.516 Y132.726 E5.27204
G1 X103.911 Y132.064 E5.29373
G1 X103.404 Y131.317 E5.31557
G1 X103.014 Y130.509 E5.33726
G1 X102.744 Y129.654 E5.35895
G1 X102.600 Y128.762 E5.38079
G1 X102.577 Y91.081 E6.29211
G1 X102.660 Y90.114 E6.31558
G1 X102.892 Y89.172 E6.33905
G1 X103.209 Y88.399 E6.35926
G1 X103.630 Y87.670 E6.37961
G1 X104.109 Y87.052 E6.39852
G1 E4.39852 F2400.00000
G92 E0
G1 X129.712 Y93.767 F7800.000
G1 E2.00000 F2400.00000
G1 F1800
G1 X129.712 Y108.325 E2.35208
G1 X130.488 Y108.325 E2.37084
G1 X130.488 Y93.942 E2.71869
G1 X130.960 Y93.942 E2.73010
G1 X130.960 Y91.124 E2.79825
G1 X131.264 Y91.124 E2.80560
G1 X131.264 Y128.050 E3.69865
G1 X132.039 Y128.050 E3.71740
G1 X132.039 Y91.124 E4.61045
G1 X132.815 Y91.124 E4.62921
G1 X132.815 Y128.050 E5.52225
G1 X133.590 Y128.050 E5.54101
G1 X133.590 Y91.124 E6.43406
G1 X134.366 Y91.124 E6.45281
G1 X134.366 Y128.050 E7.34586
G1 X135.142 Y128.050 E7.36462
G1 X135.142 Y91.124 E8.25766
G1 X135.917 Y91.124 E8.27642
G1 X135.917 Y128.050 E9.16946
G1 X136.693 Y128.050 E9.18822
G1 X136.693 Y91.124 E10.08127
G1 X137.469 Y91.124 E10.10003
G1 X137.469 Y128.050 E10.99307
G1 X138.244 Y128.050 E11.01183
G1 X138.244 Y91.124 E11.90487
G1 X139.020 Y91.124 E11.92363
G1 X139.020 Y128.224 E12.82090
G1 X130.488 Y128.224 F7800.000
G1 F1800
G1 X130.488 Y119.302 E13.03668
G1 X129.712 Y119.302 E13.05544
G1 X129.712 Y128.224 E13.27122
G1 E11.27122 F2400.00000
G92 E0
G1 X120.405 Y128.224 F7800.000
G1 E2.00000 F2400.00000
G1 F1800
G1 X120.405 Y119.302 E2.21578
G1 X119.983 Y119.302 E2.22599
G1 X119.983 Y108.325 E2.49147
G1 X120.405 Y108.325 E2.50168
G1 X120.405 Y93.942 E2.84954
G1 X119.983 Y93.942 E2.85975
G1 X119.983 Y91.124 E2.92790
G1 X119.629 Y91.124 E2.93645
G1 X119.629 Y128.050 E3.82949
G1 X118.854 Y128.050 E3.84825
G1 X118.854 Y91.124 E4.74130
G1 X118.078 Y91.124 E4.76005
G1 X118.078 Y128.050 E5.65310
G1 X117.302 Y128.050 E5.67186
G1 X117.302 Y91.124 E6.56490
G1 X116.527 Y91.124 E6.58366
G1 X116.527 Y128.050 E7.47670
G1 X115.751 Y128.050 E7.49546
G1 X115.751 Y91.124 E8.38851
G1 X114.976 Y91.124 E8.40727
G1 X114.976 Y128.050 E9.30031
G1 X114.200 Y128.050 E9.31907
G1 X114.200 Y91.124 E10.21211
G1 X113.424 Y91.124 E10.23087
G1 X113.424 Y128.050 E11.12392
G1 X112.649 Y128.050 E11.14268
G1 X112.649 Y91.124 E12.03572
G1 X111.873 Y91.124 E12.05448
G1 X111.873 Y128.050 E12.94752
G1 X111.098 Y128.050 E12.96628
G1 X111.098 Y91.124 E13.85933
G1 X110.322 Y91.124 E13.87808
G1 X110.322 Y128.050 E14.77113
G1 X109.546 Y128.050 E14.78989
G1 X109.546 Y91.124 E15.68293
G1 X108.771 Y91.124 E15.70169
G1 X108.771 Y128.224 E16.59896
G1 E14.59896 F2400.00000
G92 E0
G1 X127.765 Y128.070 F7800.000
G1 E2.00000 F2400.00000
G1 F1800
G1 X127.390 Y128.418 E2.01238
G1 X126.991 Y128.731 E2.02464
G1 X126.559 Y129.014 E2.03713
G1 X123.441 Y129.014 E2.11254
G1 X123.009 Y128.731 E2.12503
G1 X122.610 Y128.418 E2.13729
G1 X122.235 Y128.070 E2.14967
G1 X122.236 Y81.928 E3.26561
G1 X122.545 Y81.640 E3.27581
G1 X123.127 Y81.179 E3.29378
G1 X123.430 Y80.986 E3.30247
G1 X126.570 Y80.986 E3.37841
G1 X126.873 Y81.179 E3.38710
G1 X127.456 Y81.641 E3.40509
G1 X127.764 Y81.928 E3.41528
G1 X127.765 Y128.010 E4.52976
G1 X128.029 Y128.354 F7800.000
G1 F1800
G1 X127.642 Y128.713 E4.54252
G1 X127.217 Y129.047 E4.55558
G1 X126.675 Y129.402 E4.57127
G1 X123.325 Y129.402 E4.65227
G1 X122.782 Y129.047 E4.66797
G1 X122.358 Y128.713 E4.68102
G1 X121.847 Y128.239 E4.69787
G1 X121.849 Y81.760 E5.82197
G1 X122.292 Y81.346 E5.83664
G1 X122.899 Y80.865 E5.85538
G1 X123.330 Y80.598 E5.86765
G1 X126.670 Y80.598 E5.94841
G1 X127.101 Y80.865 E5.96067
G1 X127.709 Y81.347 E5.97944
G1 X128.151 Y81.760 E5.99408
G1 X128.153 Y128.239 E7.11818
G1 X128.073 Y128.314 E7.12082
G1 X128.541 Y128.408 F7800.000
G1 F1800
G1 X127.894 Y129.009 E7.14216
G1 X127.444 Y129.362 E7.15600
G1 X126.790 Y129.790 E7.17489
G1 X123.210 Y129.790 E7.26149
G1 X122.556 Y129.362 E7.28038
G1 X122.106 Y129.009 E7.29423
G1 X121.459 Y128.408 E7.31556
G1 X121.461 Y81.591 E8.44783
G1 X122.039 Y81.052 E8.46694
G1 X122.671 Y80.550 E8.48647
G1 X122.963 Y80.357 E8.49494
G1 X123.231 Y80.210 E8.50232
G1 X126.769 Y80.210 E8.58790
G1 X127.036 Y80.357 E8.59527
G1 X127.329 Y80.550 E8.60375
G1 X127.962 Y81.053 E8.62330
G1 X128.539 Y81.591 E8.64240
G1 X128.541 Y128.348 E9.77321
G1 X128.141 Y128.400 F7800.000
G1 E7.77321 F2400.00000
G92 E0
G1 X122.351 Y127.218 F7800.000
G1 E2.00000 F2400.00000
G1 F1800
G1 X123.857 Y128.724 E2.05187
G1 X124.409 Y128.724 E2.06534
G1 X122.526 Y126.840 E2.13024
G1 X122.526 Y126.288 E2.14371
G1 X124.962 Y128.724 E2.22765
G1 X125.514 Y128.724 E2.24112
G1 X122.526 Y125.735 E2.34411
G1 X122.526 Y125.182 E2.35757
G1 X126.067 Y128.724 E2.47961
G1 X126.472 Y128.724 E2.48948
G1 X126.561 Y128.665 E2.49207
G1 X122.526 Y124.630 E2.63114
G1 X122.526 Y124.077 E2.64460
G1 X126.890 Y128.441 E2.79499
G1 X127.199 Y128.198 E2.80458
G1 X122.526 Y123.525 E2.96563
G1 X122.526 Y122.972 E2.97910
G1 X127.474 Y127.920 E3.14962
G1 X127.474 Y127.368 E3.16309
G1 X122.526 Y122.420 E3.33361
G1 X122.526 Y121.867 E3.34708
G1 X127.474 Y126.815 E3.51760
G1 X127.474 Y126.262 E3.53106
G1 X122.526 Y121.314 E3.70158
G1 X122.526 Y120.762 E3.71505
G1 X127.474 Y125.710 E3.88557
G1 X127.474 Y125.157 E3.89903
G1 X122.526 Y120.209 E4.06955
G1 X122.526 Y119.657 E4.08302
G1 X127.474 Y124.605 E4.25353
G1 X127.474 Y124.052 E4.26700
G1 X122.526 Y119.104 E4.43752
G1 X122.526 Y118.551 E4.45098
G1 X127.474 Y123.499 E4.62149
G1 X127.474 Y122.947 E4.63496
G1 X122.526 Y117.999 E4.80547
G1 X122.526 Y117.446 E4.81894
G1 X127.474 Y122.394 E4.98945
G1 X127.474 Y121.841 E5.00292
G1 X122.526 Y116.894 E5.17343
G1 X122.526 Y116.341 E5.18690
G1 X127.474 Y121.289 E5.35741
G1 X127.474 Y120.736 E5.37087
G1 X122.526 Y115.788 E5.54138
G1 X122.526 Y115.236 E5.55485
G1 X127.474 Y120.184 E5.72535
G1 X127.474 Y119.631 E5.73882
G1 X122.526 Y114.683 E5.90933
G1 X122.526 Y114.131 E5.92279
G1 X127.474 Y119.078 E6.09330
G1 X127.474 Y118.526 E6.10676
G1 X122.526 Y113.578 E6.27727
G1 X122.526 Y113.026 E6.29073
G1 X127.474 Y117.973 E6.46124
G1 X127.474 Y117.421 E6.47470
G1 X122.526 Y112.473 E6.64521
G1 X122.526 Y111.920 E6.65867
G1 X127.474 Y116.868 E6.82917
G1 X127.474 Y116.315 E6.84264
G1 X122.526 Y111.368 E7.01314
G1 X122.526 Y110.815 E7.02661
G1 X127.474 Y115.763 E7.19711
G1 X127.474 Y115.210 E7.21057
G1 X122.526 Y110.263 E7.38107
G1 X122.526 Y109.710 E7.39454
G1 X127.474 Y114.657 E7.56503
G1 X127.474 Y114.105 E7.57850
G1 X122.526 Y109.157 E7.74899
G1 X122.526 Y108.605 E7.76246
G1 X127.474 Y113.552 E7.93296
G1 X127.474 Y113.000 E7.94642
G1 X122.526 Y108.052 E8.11692
G1 X122.526 Y107.500 E8.13038
G1 X127.474 Y112.447 E8.30087
G1 X127.474 Y111.894 E8.31434
G1 X122.526 Y106.947 E8.48483
G1 X122.526 Y106.394 E8.49830
G1 X127.474 Y111.342 E8.66879
G1 X127.474 Y110.789 E8.68225
G1 X122.526 Y105.842 E8.85274
G1 X122.526 Y105.289 E8.86621
G1 X127.474 Y110.236 E9.03670
G1 X127.474 Y109.684 E9.05016
G1 X122.527 Y104.737 E9.22065
G1 X122.527 Y104.184 E9.23412
G1 X127.474 Y109.131 E9.40460
G1 X127.474 Y108.579 E9.41807
G1 X122.527 Y103.632 E9.58856
G1 X122.527 Y103.079 E9.60202
G1 X127.474 Y108.026 E9.77251
G1 X127.474 Y107.473 E9.78597
G1 X122.527 Y102.526 E9.95645
G1 X122.527 Y101.974 E9.96992
G1 X127.474 Y106.921 E10.14040
G1 X127.474 Y106.368 E10.15387
G1 X122.527 Y101.421 E10.32435
G1 X122.527 Y100.869 E10.33781
G1 X127.474 Y105.815 E10.50829
G1 X127.474 Y105.263 E10.52176
G1 X122.527 Y100.316 E10.69224
G1 X122.527 Y99.763 E10.70571
G1 X127.473 Y104.710 E10.87618
G1 X127.473 Y104.158 E10.88965
G1 X122.527 Y99.211 E11.06013
G1 X122.527 Y98.658 E11.07359
G1 X127.473 Y103.605 E11.24407
G1 X127.473 Y103.052 E11.25753
G1 X122.527 Y98.106 E11.42801
G1 X122.527 Y97.553 E11.44147
G1 X127.473 Y102.500 E11.61195
G1 X127.473 Y101.947 E11.62541
G1 X122.527 Y97.000 E11.79589
G1 X122.527 Y96.448 E11.80935
G1 X127.473 Y101.395 E11.97982
G1 X127.473 Y100.842 E11.99329
G1 X122.527 Y95.895 E12.16376
G1 X122.527 Y95.343 E12.17723
G1 X127.473 Y100.289 E12.34769
G1 X127.473 Y99.737 E12.36116
G1 X122.527 Y94.790 E12.53163
G1 X122.527 Y94.238 E12.54509
G1 X127.473 Y99.184 E12.71556
G1 X127.473 Y98.631 E12.72903
G1 X122.527 Y93.685 E12.89949
G1 X122.527 Y93.132 E12.91296
G1 X127.473 Y98.079 E13.08342
G1 X127.473 Y97.526 E13.09689
G1 X122.527 Y92.580 E13.26735
G1 X122.527 Y92.027 E13.28082
G1 X127.473 Y96.974 E13.45128
G1 X127.473 Y96.421 E13.46475
G1 X122.527 Y91.475 E13.63521
G1 X122.527 Y90.922 E13.64868
G1 X127.473 Y95.868 E13.81914
G1 X127.473 Y95.316 E13.83260
G1 X122.527 Y90.369 E14.00306
G1 X122.527 Y89.817 E14.01653
G1 X127.473 Y94.763 E14.18699
G1 X127.473 Y94.210 E14.20045
G1 X122.527 Y89.264 E14.37091
G1 X122.527 Y88.712 E14.38438
G1 X127.473 Y93.658 E14.55483
G1 X127.473 Y93.105 E14.56830
G1 X122.527 Y88.159 E14.73875
G1 X122.527 Y87.606 E14.75222
G1 X127.473 Y92.553 E14.92267
G1 X127.473 Y92.000 E14.93614
G1 X122.527 Y87.054 E15.10659
G1 X122.527 Y86.501 E15.12006
G1 X127.473 Y91.447 E15.29051
G1 X127.473 Y90.895 E15.30398
G1 X122.527 Y85.949 E15.47443
G1 X122.527 Y85.396 E15.48789
G1 X127.473 Y90.342 E15.65834
G1 X127.473 Y89.790 E15.67181
G1 X122.527 Y84.844 E15.84226
G1 X122.527 Y84.291 E15.85572
G1 X127.473 Y89.237 E16.02617
G1 X127.473 Y88.684 E16.03964
G1 X122.527 Y83.738 E16.21008
G1 X122.527 Y83.186 E16.22355
G1 X127.473 Y88.132 E16.39400
G1 X127.473 Y87.579 E16.40746
G1 X122.527 Y82.633 E16.57791
G1 X122.527 Y82.081 E16.59137
G1 X127.473 Y87.026 E16.76182
G1 X127.473 Y86.474 E16.77528
G1 X122.805 Y81.805 E16.93616
G1 X123.113 Y81.561 E16.94575
G1 X127.473 Y85.921 E17.09600
G1 X127.473 Y85.369 E17.10947
G1 X123.433 Y81.329 E17.24869
G1 X123.515 Y81.276 E17.25106
G1 X123.933 Y81.276 E17.26126
G1 X127.473 Y84.816 E17.38324
G1 X127.473 Y84.263 E17.39670
G1 X124.486 Y81.276 E17.49964
G1 X125.039 Y81.276 E17.51310
G1 X127.473 Y83.711 E17.59699
G1 X127.473 Y83.158 E17.61046
G1 X125.591 Y81.276 E17.67530
G1 X126.144 Y81.276 E17.68877
G1 X127.647 Y82.780 E17.74058
G1 Z0.300 F7800.000
M104 S200 ; set temperature
M140 S0 ; set bed temperature
G1 X127.894 Y128.068
G1 F3600
G1 X127.258 Y128.659 E17.76321
G1 X126.878 Y128.939 E17.77550
G1 X123.122 Y128.939 E17.87339
G1 X122.749 Y128.664 E17.88546
G1 X122.105 Y128.047 E17.90869
G1 X122.104 Y108.754 E18.41140
G1 X122.134 Y94.765 E18.77590
G1 X122.126 Y81.912 E19.11078
G1 X122.568 Y81.499 E19.12655
G1 X123.109 Y81.061 E19.14469
G1 X126.881 Y81.061 E19.24298
G1 X127.436 Y81.502 E19.26146
G1 X127.875 Y81.912 E19.27711
G1 X127.894 Y128.008 E20.47817
G1 X128.312 Y128.238 F7800.000
G1 F3600
G1 X127.529 Y128.977 E20.50621
G1 X127.006 Y129.357 E20.52307
G1 X122.994 Y129.357 E20.62758
G1 X122.475 Y128.980 E20.64431
G1 X121.688 Y128.226 E20.67273
G1 X121.686 Y108.753 E21.18009
G1 X121.716 Y94.764 E21.54458
G1 X121.708 Y81.750 E21.88369
G1 X121.889 Y81.552 E21.89068
G1 X122.295 Y81.182 E21.90500
G1 X122.961 Y80.643 E21.92731
G1 X127.027 Y80.643 E22.03327
G1 X127.707 Y81.184 E22.05591
G1 X128.111 Y81.552 E22.07014
G1 X128.292 Y81.750 E22.07714
G1 X128.312 Y128.178 E23.28687
G1 X127.133 Y129.775 F7800.000
G1 F1800
G1 X122.867 Y129.775 E23.39800
G1 X122.484 Y129.518 E23.41005
G1 X122.201 Y129.296 E23.41941
G1 X121.270 Y128.404 E23.45301
G1 X121.268 Y108.753 E23.96503
G1 X121.299 Y94.764 E24.32952
G1 X121.290 Y81.587 E24.67285
G1 X121.594 Y81.256 E24.68457
G1 X122.023 Y80.865 E24.69970
G1 X122.745 Y80.280 E24.72391
G1 X122.836 Y80.225 E24.72667
G1 X127.173 Y80.225 E24.83969
G1 X127.978 Y80.866 E24.86650
G1 X128.406 Y81.256 E24.88158
G1 X128.710 Y81.587 E24.89330
G1 X128.730 Y128.408 E26.11326
G1 X128.481 Y128.664 E26.12255
G1 X127.801 Y129.295 E26.14673
G1 X127.516 Y129.518 E26.15615
G1 X127.182 Y129.742 E26.16662
G1 X126.865 Y129.477 F7800.000
G1 X126.108 Y128.814
G1 F1200
G1 X127.581 Y127.342 E26.22111
G1 X127.581 Y126.749 E26.23663
G1 X125.703 Y128.626 E26.30611
G1 X125.110 Y128.626 E26.32164
G1 X127.580 Y126.155 E26.41306
G1 X127.580 Y125.562 E26.42858
G1 X124.516 Y128.626 E26.54196
G1 X123.923 Y128.626 E26.55749
G1 X127.580 Y124.969 E26.69281
G1 X127.580 Y124.376 E26.70833
G1 X123.329 Y128.626 E26.86561
G1 X123.225 Y128.626 E26.86835
G1 X122.945 Y128.417 E26.87749
G1 X127.579 Y123.783 E27.04899
G1 X127.579 Y123.190 E27.06451
G1 X122.642 Y128.127 E27.24722
G1 X122.419 Y127.913 E27.25530
G1 X122.419 Y127.757 E27.25940
G1 X127.579 Y122.597 E27.45036
G1 X127.579 Y122.003 E27.46588
G1 X122.419 Y127.163 E27.65683
G1 X122.419 Y126.570 E27.67235
G1 X127.578 Y121.410 E27.86329
G1 X127.578 Y120.817 E27.87881
G1 X122.418 Y125.977 E28.06975
G1 X122.418 Y125.383 E28.08527
G1 X127.578 Y120.224 E28.27620
G1 X127.578 Y119.631 E28.29172
G1 X122.418 Y124.790 E28.48263
G1 X122.418 Y124.197 E28.49816
G1 X127.577 Y119.038 E28.68907
G1 X127.577 Y118.445 E28.70459
G1 X122.418 Y123.603 E28.89549
G1 X122.418 Y123.010 E28.91102
G1 X127.577 Y117.851 E29.10191
G1 X127.576 Y117.258 E29.11743
G1 X122.418 Y122.417 E29.30832
G1 X122.418 Y121.823 E29.32385
G1 X127.576 Y116.665 E29.51473
G1 X127.576 Y116.072 E29.53025
G1 X122.418 Y121.230 E29.72112
G1 X122.418 Y120.637 E29.73665
G1 X127.576 Y115.479 E29.92751
G1 X127.575 Y114.886 E29.94303
G1 X122.418 Y120.043 E30.13389
G1 X122.418 Y119.450 E30.14941
G1 X127.575 Y114.293 E30.34026
G1 X127.575 Y113.700 E30.35579
G1 X122.418 Y118.857 E30.54663
G1 X122.418 Y118.263 E30.56215
G1 X127.575 Y113.106 E30.75299
G1 X127.574 Y112.513 E30.76851
G1 X122.418 Y117.670 E30.95934
G1 X122.418 Y117.077 E30.97486
G1 X127.574 Y111.920 E31.16568
G1 X127.574 Y111.327 E31.18120
G1 X122.418 Y116.483 E31.37201
G1 X122.418 Y115.890 E31.38754
G1 X127.574 Y110.734 E31.57834
G1 X127.573 Y110.141 E31.59386
G1 X122.418 Y115.297 E31.78466
G1 X122.417 Y114.703 E31.80019
G1 X127.573 Y109.548 E31.99098
G1 X127.573 Y108.954 E32.00650
G1 X122.417 Y114.110 E32.19728
G1 X122.417 Y113.517 E32.21281
G1 X127.573 Y108.361 E32.40358
G1 X127.572 Y107.768 E32.41910
G1 X122.417 Y112.923 E32.60987
G1 X122.417 Y112.330 E32.62539
G1 X127.572 Y107.175 E32.81615
G1 X127.572 Y106.582 E32.83167
G1 X122.417 Y111.737 E33.02243
G1 X122.417 Y111.143 E33.03795
