; generated by PrusaSlicer 2.1.1+win64 on 2020-05-02 at 22:21:22 UTC

; 

; external perimeters extrusion width = 0.45mm
; perimeters extrusion width = 0.45mm
; infill extrusion width = 0.45mm
; solid infill extrusion width = 0.45mm
; top infill extrusion width = 0.40mm
; first layer extrusion width = 0.42mm

M201 X9000 Y9000 Z500 E10000 ; sets maximum accelerations, mm/sec^2
M203 X500 Y500 Z12 E120 ; sets maximum feedrates, mm/sec
M204 P1500 R1500 T1500 ; sets acceleration (P, T) and retract acceleration (R), mm/sec^2
M205 X10.00 Y10.00 Z0.20 E2.50 ; sets the jerk limits, mm/sec
M205 S0 T0 ; sets the minimum extruding and travel feed rate, mm/sec
M107
M190 S60 ; set bed temperature and wait for it to be reached
M104 S215 ; set temperature
G28 ; home all axes
G1 Z5 F5000 ; lift nozzle
M109 S215 ; set temperature and wait for it to be reached
G21 ; set units to millimeters
G90 ; use absolute coordinates
M82 ; use absolute distances for extrusion
G92 E0
; Filament gcode
G1 Z0.150 F7800.000
G1 E-2.00000 F2400.00000
G92 E0
G1 X97.779 Y72.543 F7800.000
G1 E2.00000 F2400.00000
G1 F1800
G1 X98.820 Y71.366 E2.03800
G1 X99.929 Y70.443 E2.07289
G1 X100.695 Y69.942 E2.09503
G1 X102.100 Y69.243 E2.13298
G1 X103.547 Y68.776 E2.16975
G1 X138.355 Y60.866 E3.03305
G1 X140.391 Y60.635 E3.08260
G1 X142.019 Y60.742 E3.12205
G1 X143.691 Y61.137 E3.16361
G1 X145.278 Y61.808 E3.20528
G1 X146.721 Y62.731 E3.24670
G1 X148.003 Y63.900 E3.28868
G1 X149.046 Y65.233 E3.32959
G1 X149.871 Y66.760 E3.37157
G1 X150.381 Y68.238 E3.40939
G1 X150.708 Y70.390 E3.46202
G1 X151.548 Y98.887 E4.15152
G1 X151.500 Y99.838 E4.17455
G1 X151.283 Y101.013 E4.20345
G1 X150.842 Y102.278 E4.23584
G1 X150.236 Y103.409 E4.26689
G1 X149.394 Y104.514 E4.30047
G1 X148.596 Y105.289 E4.32738
G1 X147.743 Y105.923 E4.35310
G1 X143.710 Y108.325 E4.46660
G1 X142.127 Y109.009 E4.50832
G1 X140.611 Y109.338 E4.54583
G1 X134.978 Y109.457 E4.68211
G1 X134.125 Y109.407 E4.70276
G1 X132.761 Y109.071 E4.73674
G1 X131.508 Y108.436 E4.77072
G1 X99.495 Y86.616 E5.70768
G1 X98.433 Y85.623 E5.74285
G1 X97.578 Y84.557 E5.77589
G1 X97.119 Y83.845 E5.79640
G1 X96.480 Y82.567 E5.83095
G1 X95.999 Y81.084 E5.86864
G1 X95.774 Y79.722 E5.90203
G1 X95.719 Y78.845 E5.92328
G1 X95.793 Y77.436 E5.95741
G1 X96.112 Y75.874 E5.99598
G1 X96.590 Y74.579 E6.02936
G1 X96.980 Y73.785 E6.05076
G1 X97.747 Y72.594 E6.08502
G1 E4.08502 F2400.00000
G92 E0
G1 X133.779 Y96.446 F7800.000
G1 E2.00000 F2400.00000
G1 F1800
G1 X133.567 Y96.672 E2.00750
G1 X133.312 Y96.867 E2.01526
G1 X133.032 Y97.012 E2.02290
G1 X132.731 Y97.108 E2.03053
G1 X132.419 Y97.152 E2.03816
G1 X132.103 Y97.143 E2.04580
G1 X131.794 Y97.080 E2.05343
G1 X131.500 Y96.966 E2.06106
G1 X131.234 Y96.807 E2.06856
G1 X130.990 Y96.598 E2.07632
G1 X130.788 Y96.355 E2.08396
G1 X130.631 Y96.081 E2.09159
G1 X130.521 Y95.781 E2.09933
G1 X130.456 Y95.317 E2.11066
G1 X130.510 Y94.852 E2.12199
G1 X130.612 Y94.549 E2.12973
G1 X130.763 Y94.271 E2.13737
G1 X130.958 Y94.023 E2.14500
G1 X131.193 Y93.812 E2.15263
G1 X131.459 Y93.643 E2.16026
G1 X131.751 Y93.522 E2.16790
G1 X132.058 Y93.452 E2.17553
G1 X132.368 Y93.435 E2.18303
G1 X132.687 Y93.471 E2.19079
G1 X132.990 Y93.559 E2.19843
G1 X133.274 Y93.698 E2.20606
G1 X133.530 Y93.883 E2.21369
G1 X133.751 Y94.108 E2.22133
G1 X133.931 Y94.367 E2.22896
G1 X134.062 Y94.648 E2.23646
G1 X134.147 Y94.957 E2.24421
G1 X134.178 Y95.272 E2.25186
G1 X134.155 Y95.586 E2.25949
G1 X134.079 Y95.893 E2.26712
G1 X133.953 Y96.182 E2.27475
G1 X133.812 Y96.395 E2.28094
G1 X133.894 Y96.733 F7800.000
G1 E0.28094 F2400.00000
G92 E0
G1 X138.278 Y100.722 F7800.000
G1 E2.00000 F2400.00000
G1 F1800
G1 X136.774 Y99.255 E2.05081
G1 X131.532 Y99.319 E2.17760
G1 X128.357 Y97.152 E2.27055
G1 X127.582 Y96.552 E2.29426
G1 X126.908 Y95.883 E2.31724
G1 X126.320 Y95.137 E2.34021
G1 X125.827 Y94.324 E2.36319
G1 X125.436 Y93.458 E2.38617
G1 X125.152 Y92.550 E2.40919
G1 X124.897 Y91.175 E2.44300
G1 X124.737 Y90.738 E2.45425
G1 X124.523 Y90.346 E2.46506
G1 X124.248 Y89.985 E2.47604
G1 X123.921 Y89.670 E2.48702
G1 X123.581 Y89.430 E2.49709
G1 X118.910 Y86.637 E2.62871
G1 X118.809 Y86.256 E2.63822
G1 X118.605 Y85.807 E2.65016
G1 X118.330 Y85.397 E2.66210
G1 X117.992 Y85.038 E2.67404
G1 X117.597 Y84.738 E2.68601
G1 X117.154 Y84.507 E2.69810
G1 X116.693 Y84.355 E2.70985
G1 X116.205 Y84.280 E2.72179
G1 X115.711 Y84.286 E2.73373
G1 X115.225 Y84.373 E2.74567
G1 X114.760 Y84.539 E2.75761
G1 X114.329 Y84.779 E2.76955
G1 X113.953 Y85.079 E2.78118
G1 X113.957 Y84.128 E2.80419
G1 X114.051 Y83.826 E2.81184
G1 X114.132 Y83.689 E2.81568
G1 X114.234 Y83.567 E2.81952
G1 X114.484 Y83.381 E2.82706
G1 X114.635 Y83.315 E2.83104
G1 X114.787 Y83.277 E2.83485
G1 X114.984 Y83.259 E2.83962
G1 X131.005 Y83.064 E3.22711
G1 X131.891 Y82.944 E3.24875
G1 X132.640 Y82.950 E3.26685
G1 X133.412 Y83.064 E3.28573
G1 X134.142 Y83.285 E3.30418
G1 X134.835 Y83.607 E3.32265
G1 X135.475 Y84.024 E3.34113
G1 X136.132 Y84.602 E3.36229
G1 X135.781 Y84.668 E3.37094
G1 X135.608 Y84.486 E3.37700
G1 X134.908 Y83.966 E3.39809
G1 X134.130 Y83.573 E3.41918
G1 X133.296 Y83.318 E3.44027
G1 X132.431 Y83.209 E3.46136
G1 X131.560 Y83.250 E3.48244
G1 X130.709 Y83.439 E3.50353
G1 X129.902 Y83.770 E3.52462
G1 X129.164 Y84.234 E3.54571
G1 X128.516 Y84.818 E3.56679
G1 X127.977 Y85.503 E3.58788
G1 X127.563 Y86.270 E3.60897
G1 X127.286 Y87.097 E3.63006
G1 X127.154 Y87.959 E3.65115
G1 X127.171 Y88.831 E3.67223
G1 X127.337 Y89.688 E3.69336
G1 X127.654 Y90.515 E3.71476
G1 X128.091 Y91.252 E3.73549
G1 X128.657 Y91.917 E3.75662
G1 X129.340 Y92.481 E3.77802
G1 X130.083 Y92.908 E3.79875
G1 X130.762 Y93.156 E3.81624
G1 X130.390 Y93.491 E3.82835
G1 X130.113 Y93.843 E3.83918
G1 X129.899 Y94.237 E3.85000
G1 X129.749 Y94.680 E3.86134
G1 X129.674 Y95.326 E3.87707
G1 X129.764 Y95.971 E3.89280
G1 X129.926 Y96.411 E3.90414
G1 X130.149 Y96.799 E3.91496
G1 X130.435 Y97.145 E3.92582
G1 X130.780 Y97.439 E3.93678
G1 X131.158 Y97.665 E3.94744
G1 X131.575 Y97.827 E3.95826
G1 X132.014 Y97.916 E3.96909
G1 X132.461 Y97.930 E3.97992
G1 X132.905 Y97.867 E3.99074
G1 X133.331 Y97.731 E4.00157
G1 X133.730 Y97.524 E4.01243
G1 X134.089 Y97.249 E4.02338
G1 X134.391 Y96.927 E4.03404
G1 X134.637 Y96.553 E4.04487
G1 X134.816 Y96.143 E4.05570
G1 X134.924 Y95.709 E4.06652
G1 X134.956 Y95.262 E4.07735
G1 X134.913 Y94.815 E4.08821
G1 X134.792 Y94.379 E4.09916
G1 X134.605 Y93.979 E4.10983
G1 X134.350 Y93.611 E4.12065
G1 X134.037 Y93.292 E4.13148
G1 X133.797 Y93.119 E4.13863
G1 X134.315 Y92.938 E4.15190
G1 X135.077 Y92.515 E4.17299
G1 X135.188 Y92.425 E4.17642
G1 X137.458 Y93.608 E4.23833
G1 X137.676 Y93.744 E4.24455
G1 X143.850 Y98.258 E4.42950
G1 X144.035 Y98.419 E4.43545
G1 X144.164 Y98.577 E4.44038
G1 X144.265 Y98.754 E4.44531
G1 X144.335 Y98.946 E4.45024
G1 X144.357 Y99.065 E4.45318
G1 X144.281 Y99.356 E4.46046
G1 X144.192 Y99.529 E4.46516
G1 X144.077 Y99.686 E4.46986
G1 X143.939 Y99.822 E4.47455
G1 X143.748 Y99.957 E4.48021
G1 X140.079 Y102.120 E4.58321
G1 X139.774 Y102.206 E4.59087
G1 X139.584 Y102.221 E4.59548
G1 X136.782 Y102.255 E4.66326
G1 X138.236 Y100.765 E4.71361
G1 X137.729 Y100.729 F7800.000
G1 F1800
G1 X136.618 Y99.645 E4.75116
G1 X131.414 Y99.708 E4.87702
G1 X128.129 Y97.466 E4.97321
G1 X127.326 Y96.844 E4.99778
G1 X126.618 Y96.141 E5.02190
G1 X126.001 Y95.358 E5.04602
G1 X125.483 Y94.506 E5.07014
G1 X125.072 Y93.596 E5.09426
G1 X124.775 Y92.643 E5.11841
G1 X124.522 Y91.278 E5.15199
G1 X124.383 Y90.899 E5.16176
G1 X124.197 Y90.558 E5.17116
G1 X123.957 Y90.244 E5.18071
G1 X123.673 Y89.970 E5.19026
G1 X123.369 Y89.755 E5.19925
G1 X118.559 Y86.879 E5.33479
G1 X118.443 Y86.387 E5.34701
G1 X118.265 Y85.996 E5.35739
G1 X118.026 Y85.640 E5.36777
G1 X117.732 Y85.327 E5.37816
G1 X117.389 Y85.067 E5.38857
G1 X117.003 Y84.866 E5.39910
G1 X116.602 Y84.733 E5.40931
G1 X116.177 Y84.668 E5.41970
G1 X115.748 Y84.673 E5.43008
G1 X115.325 Y84.749 E5.44047
G1 X114.921 Y84.893 E5.45085
G1 X114.546 Y85.102 E5.46124
G1 X114.210 Y85.370 E5.47162
G1 X113.923 Y85.690 E5.48200
G1 X113.742 Y85.974 E5.49015
G1 X113.575 Y85.926 E5.49435
G1 X113.556 Y84.314 E5.53334
G1 X113.572 Y84.071 E5.53922
G1 X113.621 Y83.857 E5.54454
G1 X113.702 Y83.653 E5.54985
G1 X113.815 Y83.464 E5.55517
G1 X113.956 Y83.296 E5.56048
G1 X114.121 Y83.151 E5.56579
G1 X114.303 Y83.036 E5.57099
G1 X114.510 Y82.947 E5.57644
G1 X114.722 Y82.893 E5.58174
G1 X114.964 Y82.871 E5.58762
G1 X130.976 Y82.677 E5.97490
G1 X131.867 Y82.556 E5.99663
G1 X132.670 Y82.562 E6.01606
G1 X133.497 Y82.685 E6.03628
G1 X134.281 Y82.921 E6.05608
G1 X135.024 Y83.267 E6.07589
G1 X135.710 Y83.715 E6.09571
G1 X136.325 Y84.255 E6.11553
G1 X136.844 Y84.862 E6.13484
G1 X135.645 Y85.088 E6.16436
G1 X135.350 Y84.778 E6.17472
G1 X134.704 Y84.297 E6.19420
G1 X133.985 Y83.934 E6.21367
G1 X133.215 Y83.699 E6.23315
G1 X132.416 Y83.598 E6.25262
G1 X131.611 Y83.636 E6.27210
G1 X130.825 Y83.810 E6.29157
G1 X130.080 Y84.116 E6.31105
G1 X129.399 Y84.545 E6.33052
G1 X128.800 Y85.084 E6.35000
G1 X128.302 Y85.717 E6.36947
G1 X127.920 Y86.425 E6.38895
G1 X127.664 Y87.189 E6.40842
G1 X127.542 Y87.985 E6.42790
G1 X127.558 Y88.790 E6.44737
G1 X127.712 Y89.581 E6.46687
G1 X128.004 Y90.345 E6.48666
G1 X128.407 Y91.026 E6.50579
G1 X128.930 Y91.640 E6.52529
G1 X129.561 Y92.161 E6.54508
G1 X130.247 Y92.555 E6.56421
G1 X131.004 Y92.832 E6.58371
G1 X131.678 Y92.951 E6.60024
G1 X131.697 Y93.124 E6.60446
G1 X131.280 Y93.298 E6.61537
G1 X130.957 Y93.502 E6.62460
G1 X130.674 Y93.757 E6.63383
G1 X130.438 Y94.057 E6.64306
G1 X130.256 Y94.393 E6.65229
G1 X130.129 Y94.766 E6.66183
G1 X130.065 Y95.322 E6.67536
G1 X130.143 Y95.876 E6.68889
G1 X130.278 Y96.246 E6.69843
G1 X130.469 Y96.577 E6.70766
G1 X130.713 Y96.871 E6.71691
G1 X131.007 Y97.123 E6.72626
G1 X131.329 Y97.316 E6.73534
G1 X131.685 Y97.453 E6.74457
G1 X132.059 Y97.529 E6.75380
G1 X132.440 Y97.541 E6.76303
G1 X132.818 Y97.488 E6.77226
G1 X133.181 Y97.372 E6.78149
G1 X133.521 Y97.195 E6.79074
G1 X133.828 Y96.961 E6.80010
G1 X134.085 Y96.686 E6.80918
G1 X134.295 Y96.368 E6.81841
G1 X134.448 Y96.018 E6.82764
G1 X134.539 Y95.648 E6.83686
G1 X134.567 Y95.267 E6.84609
G1 X134.530 Y94.886 E6.85535
G1 X134.427 Y94.513 E6.86470
G1 X134.268 Y94.173 E6.87378
G1 X134.050 Y93.860 E6.88301
G1 X133.783 Y93.587 E6.89224
G1 X133.474 Y93.364 E6.90147
G1 X133.131 Y93.197 E6.91070
G1 X132.868 Y93.119 E6.91733
G1 X132.879 Y92.934 E6.92182
G1 X133.396 Y92.849 E6.93448
G1 X134.156 Y92.583 E6.95396
G1 X134.860 Y92.192 E6.97343
G1 X135.142 Y91.964 E6.98220
G1 X137.650 Y93.271 E7.05060
G1 X137.893 Y93.422 E7.05753
G1 X144.092 Y97.954 E7.24324
G1 X144.314 Y98.148 E7.25037
G1 X144.485 Y98.356 E7.25688
G1 X144.618 Y98.590 E7.26340
G1 X144.711 Y98.844 E7.26992
G1 X144.750 Y99.060 E7.27523
G1 X144.719 Y99.261 E7.28016
G1 X144.640 Y99.505 E7.28637
G1 X144.523 Y99.734 E7.29257
G1 X144.371 Y99.941 E7.29878
G1 X144.188 Y100.120 E7.30498
G1 X143.959 Y100.282 E7.31177
G1 X140.436 Y102.374 E7.41085
G1 X140.232 Y102.478 E7.41639
G1 X140.035 Y102.547 E7.42145
G1 X139.830 Y102.591 E7.42652
G1 X139.602 Y102.608 E7.43206
G1 X135.850 Y102.654 E7.52279
G1 X137.687 Y100.772 E7.58640
G1 X137.181 Y100.736 F7800.000
G1 F1800
G1 X136.462 Y100.034 E7.61068
G1 X131.297 Y100.097 E7.73561
G1 X127.900 Y97.780 E7.83505
G1 X127.070 Y97.136 E7.86047
G1 X126.328 Y96.400 E7.88574
G1 X125.681 Y95.580 E7.91100
G1 X125.139 Y94.687 E7.93627
G1 X124.709 Y93.734 E7.96153
G1 X124.398 Y92.737 E7.98681
G1 X124.146 Y91.381 E8.02016
G1 X124.029 Y91.059 E8.02845
G1 X123.871 Y90.770 E8.03643
G1 X123.667 Y90.503 E8.04455
G1 X123.425 Y90.269 E8.05267
G1 X123.157 Y90.080 E8.06060
G1 X118.193 Y87.111 E8.20051
G1 X118.168 Y86.865 E8.20650
G1 X118.076 Y86.518 E8.21517
G1 X117.925 Y86.186 E8.22400
G1 X117.722 Y85.882 E8.23283
G1 X117.471 Y85.617 E8.24166
G1 X117.180 Y85.396 E8.25050
G1 X116.851 Y85.224 E8.25948
G1 X116.511 Y85.112 E8.26815
G1 X116.150 Y85.056 E8.27698
G1 X115.785 Y85.061 E8.28581
G1 X115.425 Y85.125 E8.29464
G1 X115.081 Y85.248 E8.30347
G1 X114.763 Y85.425 E8.31230
G1 X114.477 Y85.653 E8.32113
G1 X114.233 Y85.925 E8.32996
G1 X114.037 Y86.233 E8.33879
G1 X113.895 Y86.569 E8.34762
G1 X113.809 Y86.924 E8.35645
G1 X113.798 Y87.078 E8.36019
G1 X113.202 Y87.085 E8.37462
G1 X113.168 Y84.304 E8.44189
G1 X113.187 Y84.015 E8.44888
G1 X113.249 Y83.741 E8.45568
G1 X113.354 Y83.481 E8.46247
G1 X113.497 Y83.240 E8.46926
G1 X113.677 Y83.024 E8.47605
G1 X113.888 Y82.839 E8.48284
G1 X114.121 Y82.692 E8.48949
G1 X114.384 Y82.579 E8.49643
G1 X114.656 Y82.510 E8.50321
G1 X114.944 Y82.484 E8.51020
G1 X130.948 Y82.289 E8.89727
G1 X131.842 Y82.168 E8.91910
G1 X132.700 Y82.174 E8.93985
G1 X133.582 Y82.306 E8.96141
G1 X134.419 Y82.558 E8.98256
G1 X135.212 Y82.927 E9.00372
G1 X135.945 Y83.405 E9.02487
G1 X136.602 Y83.982 E9.04603
G1 X137.171 Y84.647 E9.06718
G1 X137.481 Y85.137 E9.08122
G1 X135.509 Y85.508 E9.12975
G1 X135.092 Y85.069 E9.14441
G1 X134.499 Y84.628 E9.16227
G1 X133.840 Y84.295 E9.18013
G1 X133.133 Y84.079 E9.19799
G1 X132.401 Y83.987 E9.21585
G1 X131.663 Y84.022 E9.23372
G1 X130.942 Y84.182 E9.25158
G1 X130.259 Y84.462 E9.26944
G1 X129.633 Y84.855 E9.28730
G1 X129.084 Y85.350 E9.30517
G1 X128.628 Y85.930 E9.32303
G1 X128.277 Y86.580 E9.34089
G1 X128.042 Y87.280 E9.35875
G1 X127.931 Y88.010 E9.37661
G1 X127.945 Y88.749 E9.39448
G1 X128.086 Y89.474 E9.41235
G1 X128.355 Y90.176 E9.43052
G1 X128.724 Y90.800 E9.44806
G1 X129.203 Y91.362 E9.46593
G1 X129.783 Y91.841 E9.48411
G1 X130.412 Y92.202 E9.50164
G1 X131.106 Y92.456 E9.51951
G1 X131.846 Y92.587 E9.53769
G1 X132.571 Y92.592 E9.55522
G1 X133.299 Y92.471 E9.57309
G1 X133.996 Y92.228 E9.59095
G1 X134.642 Y91.869 E9.60881
G1 X135.096 Y91.503 E9.62291
G1 X137.842 Y92.934 E9.69780
G1 X138.110 Y93.101 E9.70544
G1 X144.334 Y97.651 E9.89190
G1 X144.593 Y97.877 E9.90022
G1 X144.806 Y98.136 E9.90832
G1 X144.971 Y98.427 E9.91642
G1 X145.086 Y98.742 E9.92452
G1 X145.143 Y99.054 E9.93220
G1 X145.098 Y99.351 E9.93947
G1 X144.999 Y99.654 E9.94718
G1 X144.854 Y99.938 E9.95490
G1 X144.665 Y100.195 E9.96261
G1 X144.438 Y100.419 E9.97032
G1 X144.170 Y100.608 E9.97824
G1 X140.623 Y102.714 E10.07800
G1 X140.385 Y102.835 E10.08446
G1 X140.140 Y102.922 E10.09076
G1 X139.885 Y102.975 E10.09705
G1 X139.619 Y102.996 E10.10351
G1 X135.122 Y103.051 E10.21228
G1 X135.119 Y102.848 E10.21719
G1 X137.139 Y100.779 E10.28712
G1 X137.456 Y100.445 F7800.000
G1 X137.812 Y102.126
G1 F1800
G1 X137.560 Y101.874 E10.29603
G1 X137.840 Y101.587 E10.30603
G1 X138.199 Y101.947 E10.31873
G1 X138.759 Y101.940 E10.33270
G1 X138.119 Y101.301 E10.35528
G1 X138.399 Y101.014 E10.36528
G1 X139.318 Y101.933 E10.39774
G1 X139.723 Y101.918 E10.40786
G1 X139.838 Y101.886 E10.41083
G1 X134.794 Y96.843 E10.58894
G1 X134.893 Y96.693 E10.59343
G1 X134.990 Y96.472 E10.59944
G1 X140.218 Y101.701 E10.78410
G1 X140.575 Y101.491 E10.79442
G1 X135.138 Y96.054 E10.98643
G1 X135.212 Y95.754 E10.99413
G1 X135.225 Y95.575 E10.99863
G1 X140.931 Y101.281 E11.20013
G1 X141.287 Y101.070 E11.21046
G1 X135.224 Y95.007 E11.42460
G1 X135.200 Y94.762 E11.43075
G1 X135.068 Y94.285 E11.44311
G1 X141.771 Y100.988 E11.67983
G1 X142.839 Y100.358 F7800.000
G1 F1800
G1 X135.287 Y92.805 E11.94656
G1 X135.218 Y92.769 E11.94850
G1 X134.875 Y92.960 E11.95829
G1 X142.356 Y100.440 E12.22248
G1 X141.999 Y100.650 E12.23280
G1 X134.383 Y93.034 E12.50179
G1 X136.058 Y93.010 F7800.000
G1 F1800
G1 X143.196 Y100.148 E12.75385
G1 X143.552 Y99.937 F7800.000
G1 F1800
G1 X137.241 Y93.627 E12.97672
G1 E10.97672 F2400.00000
G92 E0
G1 X139.137 Y94.956 F7800.000
G1 E2.00000 F2400.00000
G1 F1800
G1 X143.889 Y99.708 E2.16781
G1 X144.134 Y99.387 F7800.000
G1 F1800
G1 X141.244 Y96.497 E2.26990
G1 E0.26990 F2400.00000
G92 E0
G1 X136.527 Y99.141 F7800.000
G1 E2.00000 F2400.00000
G1 F1800
G1 X134.559 Y97.173 E2.06950
G1 X134.285 Y97.466 E2.07951
G1 X135.795 Y98.976 E2.13283
G1 X135.235 Y98.983 E2.14680
G1 X133.964 Y97.711 E2.19171
G1 X133.886 Y97.770 E2.19414
G1 X133.603 Y97.917 E2.20210
G1 X134.676 Y98.989 E2.23996
G1 X134.116 Y98.996 E2.25394
G1 X133.199 Y98.079 E2.28634
G1 X132.970 Y98.152 E2.29235
